<?xml version="1.0" encoding="UTF-8"?>
<map version="1.8" tiledversion="1.8.2" orientation="orthogonal" renderorder="right-down" width="200" height="200" tilewidth="16" tileheight="16" infinite="0" nextlayerid="5" nextobjectid="4">
 <editorsettings>
  <export target="map2.lua" format="lua"/>
 </editorsettings>
 <tileset firstgid="1" name="TX plant" tilewidth="16" tileheight="16" tilecount="1024" columns="32">
  <image source="../TX Plant.png" width="512" height="512"/>
 </tileset>
 <tileset firstgid="1025" name="TX Props" tilewidth="16" tileheight="16" tilecount="1024" columns="32">
  <image source="../TX Props.png" width="512" height="512"/>
 </tileset>
 <tileset firstgid="2049" name="TX Shadow" tilewidth="16" tileheight="16" tilecount="1024" columns="32">
  <image source="../TX Shadow.png" width="512" height="512"/>
 </tileset>
 <tileset firstgid="3073" name="TX Shadow Plant" tilewidth="16" tileheight="16" tilecount="1024" columns="32">
  <image source="../TX Shadow Plant.png" width="512" height="512"/>
 </tileset>
 <tileset firstgid="4097" name="TX Struct" tilewidth="16" tileheight="16" tilecount="1024" columns="32">
  <image source="../TX Struct.png" width="512" height="512"/>
 </tileset>
 <tileset firstgid="5121" name="TX Tileset Grass" tilewidth="16" tileheight="16" tilecount="256" columns="16">
  <image source="../TX Tileset Grass.png" width="256" height="256"/>
 </tileset>
 <tileset firstgid="5377" name="TX Tileset Stone Ground" tilewidth="16" tileheight="16" tilecount="256" columns="16">
  <image source="../TX Tileset Stone Ground.png" width="256" height="256"/>
 </tileset>
 <tileset firstgid="5633" name="TX Tileset Wall" tilewidth="16" tileheight="16" tilecount="1024" columns="32">
  <image source="../TX Tileset Wall.png" width="512" height="512"/>
 </tileset>
 <layer id="1" name="ground" width="200" height="200">
  <data encoding="csv">
5121,5122,5123,5124,5125,5126,5127,5128,5121,5122,5123,5124,5125,5126,5127,5128,5121,5122,5123,5124,5125,5126,5127,5128,5121,5122,5123,5124,5125,5126,5127,5128,5121,5122,5123,5124,5125,5126,5127,5128,5121,5122,5123,5124,5125,5126,5127,5128,5121,5122,5123,5124,5125,5126,5127,5128,5121,5122,5123,5124,5125,5126,5127,5128,5121,5122,5123,5124,5125,5126,5127,5128,5121,5122,5123,5124,5125,5126,5127,5128,5121,5122,5123,5124,5125,5126,5127,5128,5121,5122,5123,5124,5125,5126,5127,5128,5121,5122,5123,5124,5125,5126,5127,5128,5121,5122,5123,5124,5125,5126,5127,5128,5121,5122,5123,5124,5125,5126,5127,5128,5121,5122,5123,5124,5125,5126,5127,5128,5121,5122,5123,5124,5125,5126,5127,5128,5121,5122,5123,5124,5125,5126,5127,5128,5121,5122,5123,5124,5125,5126,5127,5128,5121,5122,5123,5124,5125,5126,5127,5128,5121,5122,5123,5124,5125,5126,5127,5128,5121,5122,5123,5124,5125,5126,5127,5128,5121,5122,5123,5124,5125,5126,5127,5128,5121,5122,5123,5124,5125,5126,5127,5128,5121,5122,5123,5124,5125,5126,5127,5128,
5137,5138,5139,5140,5141,5142,5143,5144,5137,5138,5139,5140,5141,5142,5143,5144,5137,5138,5139,5140,5141,5142,5143,5144,5137,5138,5139,5140,5141,5142,5143,5144,5137,5138,5139,5140,5141,5142,5143,5144,5137,5138,5139,5140,5141,5142,5143,5144,5137,5138,5139,5140,5141,5142,5143,5144,5137,5138,5139,5140,5141,5142,5143,5144,5137,5138,5139,5140,5141,5142,5143,5144,5137,5138,5139,5140,5141,5142,5143,5144,5137,5138,5139,5140,5141,5142,5143,5144,5137,5138,5139,5140,5141,5142,5143,5144,5137,5138,5139,5140,5141,5142,5143,5144,5137,5138,5139,5140,5141,5142,5143,5144,5137,5138,5139,5140,5141,5142,5143,5144,5137,5138,5139,5140,5141,5142,5143,5144,5137,5138,5139,5140,5141,5142,5143,5144,5137,5138,5139,5140,5141,5142,5143,5144,5137,5138,5139,5140,5141,5142,5143,5144,5137,5138,5139,5140,5141,5142,5143,5144,5137,5138,5139,5140,5141,5142,5143,5144,5137,5138,5139,5140,5141,5142,5143,5144,5137,5138,5139,5140,5141,5142,5143,5144,5137,5138,5139,5140,5141,5142,5143,5144,5137,5138,5139,5140,5141,5142,5143,5144,
5153,5154,5155,5156,5157,5158,5159,5160,5153,5154,5155,5156,5157,5158,5159,5160,5153,5154,5155,5156,5157,5158,5159,5160,5153,5154,5155,5156,5157,5158,5159,5160,5153,5154,5155,5156,5157,5158,5159,5160,5153,5154,5155,5156,5157,5158,5159,5160,5153,5154,5155,5156,5157,5158,5159,5160,5153,5154,5155,5156,5157,5158,5159,5160,5153,5154,5155,5156,5157,5158,5159,5160,5153,5154,5155,5156,5157,5158,5159,5160,5153,5154,5155,5156,5157,5158,5159,5160,5153,5154,5155,5156,5157,5158,5159,5160,5153,5154,5155,5156,5157,5158,5159,5160,5153,5154,5155,5156,5157,5158,5159,5160,5153,5154,5155,5156,5157,5158,5159,5160,5153,5154,5155,5156,5157,5158,5159,5160,5153,5154,5155,5156,5157,5158,5159,5160,5153,5154,5155,5156,5157,5158,5159,5160,5153,5154,5155,5156,5157,5158,5159,5160,5153,5154,5155,5156,5157,5158,5159,5160,5153,5154,5155,5156,5157,5158,5159,5160,5153,5154,5155,5156,5157,5158,5159,5160,5153,5154,5155,5156,5157,5158,5159,5160,5153,5154,5155,5156,5157,5158,5159,5160,5153,5154,5155,5156,5157,5158,5159,5160,
5169,5170,5171,5172,5173,5174,5175,5176,5169,5170,5171,5172,5173,5174,5175,5176,5169,5170,5171,5172,5173,5174,5175,5176,5169,5170,5171,5172,5173,5174,5175,5176,5169,5170,5171,5172,5173,5174,5175,5176,5169,5170,5171,5172,5173,5174,5175,5176,5169,5170,5171,5172,5173,5174,5175,5176,5169,5170,5171,5172,5173,5174,5175,5176,5169,5170,5171,5172,5173,5174,5175,5176,5169,5170,5171,5172,5173,5174,5175,5176,5169,5170,5171,5172,5173,5174,5175,5176,5169,5170,5171,5172,5173,5174,5175,5176,5169,5170,5171,5172,5173,5174,5175,5176,5169,5170,5171,5172,5173,5174,5175,5176,5169,5170,5171,5172,5173,5174,5175,5176,5169,5170,5171,5172,5173,5174,5175,5176,5169,5170,5171,5172,5173,5174,5175,5176,5169,5170,5171,5172,5173,5174,5175,5176,5169,5170,5171,5172,5173,5174,5175,5176,5169,5170,5171,5172,5173,5174,5175,5176,5169,5170,5171,5172,5173,5174,5175,5176,5169,5170,5171,5172,5173,5174,5175,5176,5169,5170,5171,5172,5173,5174,5175,5176,5169,5170,5171,5172,5173,5174,5175,5176,5169,5170,5171,5172,5173,5174,5175,5176,
5185,5186,5187,5188,5189,5190,5191,5192,5185,5186,5187,5188,5189,5190,5191,5192,5185,5186,5187,5188,5189,5190,5191,5192,5185,5186,5187,5188,5189,5190,5191,5192,5185,5186,5187,5188,5189,5190,5191,5192,5185,5186,5187,5188,5189,5190,5191,5192,5185,5186,5187,5188,5189,5190,5191,5192,5185,5186,5187,5188,5189,5190,5191,5192,5185,5186,5187,5188,5189,5190,5191,5192,5185,5186,5187,5188,5189,5190,5191,5192,5185,5186,5187,5188,5189,5190,5191,5192,5185,5186,5187,5188,5189,5190,5191,5192,5185,5186,5187,5188,5189,5190,5191,5192,5185,5186,5187,5188,5189,5190,5191,5192,5185,5186,5187,5188,5189,5190,5191,5192,5185,5186,5187,5188,5189,5190,5191,5192,5185,5186,5187,5188,5189,5190,5191,5192,5185,5186,5187,5188,5189,5190,5191,5192,5185,5186,5187,5188,5189,5190,5191,5192,5185,5186,5187,5188,5189,5190,5191,5192,5185,5186,5187,5188,5189,5190,5191,5192,5185,5186,5187,5188,5189,5190,5191,5192,5185,5186,5187,5188,5189,5190,5191,5192,5185,5186,5187,5188,5189,5190,5191,5192,5185,5186,5187,5188,5189,5190,5191,5192,
5201,5202,5203,5204,5205,5206,5207,5208,5201,5202,5203,5204,5205,5206,5207,5208,5201,5202,5203,5204,5205,5206,5207,5208,5201,5202,5203,5204,5205,5206,5207,5208,5201,5202,5203,5204,5205,5206,5207,5208,5201,5202,5203,5204,5205,5206,5207,5208,5201,5202,5203,5204,5205,5206,5207,5208,5201,5202,5203,5204,5205,5206,5207,5208,5201,5202,5203,5204,5205,5206,5207,5208,5201,5202,5203,5204,5205,5206,5207,5208,5201,5202,5203,5204,5205,5206,5207,5208,5201,5202,5203,5204,5205,5206,5207,5208,5201,5202,5203,5204,5205,5206,5207,5208,5201,5202,5203,5204,5205,5206,5207,5208,5201,5202,5203,5204,5205,5206,5207,5208,5201,5202,5203,5204,5205,5206,5207,5208,5201,5202,5203,5204,5205,5206,5207,5208,5201,5202,5203,5204,5205,5206,5207,5208,5201,5202,5203,5204,5205,5206,5207,5208,5201,5202,5203,5204,5205,5206,5207,5208,5201,5202,5203,5204,5205,5206,5207,5208,5201,5202,5203,5204,5205,5206,5207,5208,5201,5202,5203,5204,5205,5206,5207,5208,5201,5202,5203,5204,5205,5206,5207,5208,5201,5202,5203,5204,5205,5206,5207,5208,
5217,5218,5219,5220,5221,5222,5223,5224,5217,5218,5219,5220,5221,5222,5223,5224,5217,5218,5219,5220,5221,5222,5223,5224,5217,5218,5219,5220,5221,5222,5223,5224,5217,5218,5219,5220,5221,5222,5223,5224,5217,5218,5219,5220,5221,5222,5223,5224,5217,5218,5219,5220,5221,5222,5223,5224,5217,5218,5219,5220,5221,5222,5223,5224,5217,5218,5219,5220,5221,5222,5223,5224,5217,5218,5219,5220,5221,5222,5223,5224,5217,5218,5219,5220,5221,5222,5223,5224,5217,5218,5219,5220,5221,5222,5223,5224,5217,5218,5219,5220,5221,5222,5223,5224,5217,5218,5219,5220,5221,5222,5223,5224,5217,5218,5219,5220,5221,5222,5223,5224,5217,5218,5219,5220,5221,5222,5223,5224,5217,5218,5219,5220,5221,5222,5223,5224,5217,5218,5219,5220,5221,5222,5223,5224,5217,5218,5219,5220,5221,5222,5223,5224,5217,5218,5219,5220,5221,5222,5223,5224,5217,5218,5219,5220,5221,5222,5223,5224,5217,5218,5219,5220,5221,5222,5223,5224,5217,5218,5219,5220,5221,5222,5223,5224,5217,5218,5219,5220,5221,5222,5223,5224,5217,5218,5219,5220,5221,5222,5223,5224,
5233,5234,5235,5236,5237,5238,5239,5240,5233,5234,5235,5236,5237,5238,5239,5240,5233,5234,5235,5236,5237,5238,5239,5240,5233,5234,5235,5236,5237,5238,5239,5240,5233,5234,5235,5236,5237,5238,5239,5240,5233,5234,5235,5236,5237,5238,5239,5240,5233,5234,5235,5236,5237,5238,5239,5240,5233,5234,5235,5236,5237,5238,5239,5240,5233,5234,5235,5236,5237,5238,5239,5240,5233,5234,5235,5236,5237,5238,5239,5240,5233,5234,5235,5236,5237,5238,5239,5240,5233,5234,5235,5236,5237,5238,5239,5240,5233,5234,5235,5236,5237,5238,5239,5240,5233,5234,5235,5236,5237,5238,5239,5240,5233,5234,5235,5236,5237,5238,5239,5240,5233,5234,5235,5236,5237,5238,5239,5240,5233,5234,5235,5236,5237,5238,5239,5240,5233,5234,5235,5236,5237,5238,5239,5240,5233,5234,5235,5236,5237,5238,5239,5240,5233,5234,5235,5236,5237,5238,5239,5240,5233,5234,5235,5236,5237,5238,5239,5240,5233,5234,5235,5236,5237,5238,5239,5240,5233,5234,5235,5236,5237,5238,5239,5240,5233,5234,5235,5236,5237,5238,5239,5240,5233,5234,5235,5236,5237,5238,5239,5240,
5121,5122,5123,5124,5125,5126,5127,5128,5121,5122,5123,5124,5125,5126,5127,5128,5121,5122,5123,5124,5125,5126,5127,5128,5121,5122,5123,5124,5125,5126,5127,5128,5121,5122,5123,5124,5125,5126,5127,5128,5121,5122,5123,5124,5125,5126,5127,5128,5121,5122,5123,5124,5125,5126,5127,5128,5121,5122,5123,5124,5125,5126,5127,5128,5121,5122,5123,5124,5125,5126,5127,5128,5121,5122,5123,5124,5125,5126,5127,5128,5121,5122,5123,5124,5125,5126,5127,5128,5121,5122,5123,5124,5125,5126,5127,5128,5121,5122,5123,5124,5125,5126,5127,5128,5121,5122,5123,5124,5125,5126,5127,5128,5121,5122,5123,5124,5125,5126,5127,5128,5121,5122,5123,5124,5125,5126,5127,5128,5121,5122,5123,5124,5125,5126,5127,5128,5121,5122,5123,5124,5125,5126,5127,5128,5121,5122,5123,5124,5125,5126,5127,5128,5121,5122,5123,5124,5125,5126,5127,5128,5121,5122,5123,5124,5125,5126,5127,5128,5121,5122,5123,5124,5125,5126,5127,5128,5121,5122,5123,5124,5125,5126,5127,5128,5121,5122,5123,5124,5125,5126,5127,5128,5121,5122,5123,5124,5125,5126,5127,5128,
5137,5138,5139,5140,5141,5142,5143,5144,5137,5138,5139,5140,5141,5142,5143,5144,5137,5138,5139,5140,5141,5142,5143,5144,5137,5138,5139,5140,5141,5142,5143,5144,5137,5138,5139,5140,5141,5142,5143,5144,5137,5138,5139,5140,5141,5142,5143,5144,5137,5138,5139,5140,5141,5142,5143,5144,5137,5138,5139,5140,5141,5142,5143,5144,5137,5138,5139,5140,5141,5142,5143,5144,5137,5138,5139,5140,5141,5142,5143,5144,5137,5138,5139,5140,5141,5142,5143,5144,5137,5138,5139,5140,5141,5142,5143,5144,5137,5138,5139,5140,5141,5142,5143,5144,5137,5138,5139,5140,5141,5142,5143,5144,5137,5138,5139,5140,5141,5142,5143,5144,5137,5138,5139,5140,5141,5142,5143,5144,5137,5138,5139,5140,5141,5142,5143,5144,5137,5138,5139,5140,5141,5142,5143,5144,5137,5138,5139,5140,5141,5142,5143,5144,5137,5138,5139,5140,5141,5142,5143,5144,5137,5138,5139,5140,5141,5142,5143,5144,5137,5138,5139,5140,5141,5142,5143,5144,5137,5138,5139,5140,5141,5142,5143,5144,5137,5138,5139,5140,5141,5142,5143,5144,5137,5138,5139,5140,5141,5142,5143,5144,
5153,5154,5155,5156,5157,5158,5159,5160,5153,5154,5155,5156,5157,5158,5159,5160,5153,5154,5155,5156,5157,5158,5159,5160,5153,5154,5155,5156,5157,5158,5159,5160,5153,5154,5155,5156,5157,5158,5159,5160,5153,5154,5155,5156,5157,5158,5159,5160,5153,5154,5155,5156,5157,5158,5159,5160,5153,5154,5155,5156,5157,5158,5159,5160,5153,5154,5155,5156,5157,5158,5159,5160,5153,5154,5155,5156,5157,5158,5159,5160,5153,5154,5155,5156,5157,5158,5159,5160,5153,5154,5155,5156,5157,5158,5159,5160,5153,5154,5155,5156,5157,5158,5159,5160,5153,5154,5155,5156,5157,5158,5159,5160,5153,5154,5155,5156,5157,5158,5159,5160,5153,5154,5155,5156,5157,5158,5159,5160,5153,5154,5155,5156,5157,5158,5159,5160,5153,5154,5155,5156,5157,5158,5159,5160,5153,5154,5155,5156,5157,5158,5159,5160,5153,5154,5155,5156,5157,5158,5159,5160,5153,5154,5155,5156,5157,5158,5159,5160,5153,5154,5155,5156,5157,5158,5159,5160,5153,5154,5155,5156,5157,5158,5159,5160,5153,5154,5155,5156,5157,5158,5159,5160,5153,5154,5155,5156,5157,5158,5159,5160,
5169,5170,5171,5172,5173,5174,5175,5176,5169,5170,5171,5172,5173,5174,5175,5176,5169,5170,5171,5172,5173,5174,5175,5176,5169,5170,5171,5172,5173,5174,5175,5176,5169,5170,5171,5172,5173,5174,5175,5176,5169,5170,5171,5172,5173,5174,5175,5176,5169,5170,5171,5172,5173,5174,5175,5176,5169,5170,5171,5172,5173,5174,5175,5176,5169,5170,5171,5172,5173,5174,5175,5176,5169,5170,5171,5172,5173,5174,5175,5176,5169,5170,5171,5172,5173,5174,5175,5176,5169,5170,5171,5172,5173,5174,5175,5176,5169,5170,5171,5172,5173,5174,5175,5176,5169,5170,5171,5172,5173,5174,5175,5176,5169,5170,5171,5172,5173,5174,5175,5176,5169,5170,5171,5172,5173,5174,5175,5176,5169,5170,5171,5172,5173,5174,5175,5176,5169,5170,5171,5172,5173,5174,5175,5176,5169,5170,5171,5172,5173,5174,5175,5176,5169,5170,5171,5172,5173,5174,5175,5176,5169,5170,5171,5172,5173,5174,5175,5176,5169,5170,5171,5172,5173,5174,5175,5176,5169,5170,5171,5172,5173,5174,5175,5176,5169,5170,5171,5172,5173,5174,5175,5176,5169,5170,5171,5172,5173,5174,5175,5176,
5185,5186,5187,5188,5189,5190,5191,5192,5185,5186,5187,5188,5189,5190,5191,5192,5185,5186,5187,5188,5189,5190,5191,5192,5185,5186,5187,5188,5189,5190,5191,5192,5185,5186,5187,5188,5189,5190,5191,5192,5185,5186,5187,5188,5189,5190,5191,5192,5185,5186,5187,5188,5189,5190,5191,5192,5185,5186,5187,5188,5189,5190,5191,5192,5185,5186,5187,5188,5189,5190,5191,5192,5185,5186,5187,5188,5189,5190,5191,5192,5185,5186,5187,5188,5189,5190,5191,5192,5185,5186,5187,5188,5189,5190,5191,5192,5185,5186,5187,5188,5189,5190,5191,5192,5185,5186,5187,5188,5189,5190,5191,5192,5185,5186,5187,5188,5189,5190,5191,5192,5185,5186,5187,5188,5189,5190,5191,5192,5185,5186,5187,5188,5189,5190,5191,5192,5185,5186,5187,5188,5189,5190,5191,5192,5185,5186,5187,5188,5189,5190,5191,5192,5185,5186,5187,5188,5189,5190,5191,5192,5185,5186,5187,5188,5189,5190,5191,5192,5185,5186,5187,5188,5189,5190,5191,5192,5185,5186,5187,5188,5189,5190,5191,5192,5185,5186,5187,5188,5189,5190,5191,5192,5185,5186,5187,5188,5189,5190,5191,5192,
5201,5202,5203,5204,5205,5206,5207,5208,5201,5202,5203,5204,5205,5206,5207,5208,5201,5202,5203,5204,5205,5206,5207,5208,5201,5202,5203,5204,5205,5206,5207,5208,5201,5202,5203,5204,5205,5206,5207,5208,5201,5202,5203,5204,5205,5206,5207,5208,5201,5202,5203,5204,5205,5206,5207,5208,5201,5202,5203,5204,5205,5206,5207,5208,5201,5202,5203,5204,5205,5206,5207,5208,5201,5202,5203,5204,5205,5206,5207,5208,5201,5202,5203,5204,5205,5206,5207,5208,5201,5202,5203,5204,5205,5206,5207,5208,5201,5202,5203,5204,5205,5206,5207,5208,5201,5202,5203,5204,5205,5206,5207,5208,5201,5202,5203,5204,5205,5206,5207,5208,5201,5202,5203,5204,5205,5206,5207,5208,5201,5202,5203,5204,5205,5206,5207,5208,5201,5202,5203,5204,5205,5206,5207,5208,5201,5202,5203,5204,5205,5206,5207,5208,5201,5202,5203,5204,5205,5206,5207,5208,5201,5202,5203,5204,5205,5206,5207,5208,5201,5202,5203,5204,5205,5206,5207,5208,5201,5202,5203,5204,5205,5206,5207,5208,5201,5202,5203,5204,5205,5206,5207,5208,5201,5202,5203,5204,5205,5206,5207,5208,
5217,5218,5219,5220,5221,5222,5223,5224,5217,5218,5219,5220,5221,5222,5223,5224,5217,5218,5219,5220,5221,5222,5223,5224,5217,5218,5219,5220,5221,5222,5223,5224,5217,5218,5219,5220,5221,5222,5223,5224,5217,5218,5219,5220,5221,5222,5223,5224,5217,5218,5219,5220,5221,5222,5223,5224,5217,5218,5219,5220,5221,5222,5223,5224,5217,5218,5219,5220,5221,5222,5223,5224,5217,5218,5219,5220,5221,5222,5223,5224,5217,5218,5219,5220,5221,5222,5223,5224,5217,5218,5219,5220,5221,5222,5223,5224,5217,5218,5219,5220,5221,5222,5223,5224,5217,5218,5219,5220,5221,5222,5223,5224,5217,5218,5219,5220,5221,5222,5223,5224,5217,5218,5219,5220,5221,5222,5223,5224,5217,5218,5219,5220,5221,5222,5223,5224,5217,5218,5219,5220,5221,5222,5223,5224,5217,5218,5219,5220,5221,5222,5223,5224,5217,5218,5219,5220,5221,5222,5223,5224,5217,5218,5219,5220,5221,5222,5223,5224,5217,5218,5219,5220,5221,5222,5223,5224,5217,5218,5219,5220,5221,5222,5223,5224,5217,5218,5219,5220,5221,5222,5223,5224,5217,5218,5219,5220,5221,5222,5223,5224,
5233,5234,5235,5236,5237,5238,5239,5240,5233,5234,5235,5236,5237,5238,5239,5240,5233,5234,5235,5236,5237,5238,5239,5240,5233,5234,5235,5236,5237,5238,5239,5240,5233,5234,5235,5236,5237,5238,5239,5240,5233,5234,5235,5236,5237,5238,5239,5240,5233,5234,5235,5236,5237,5238,5239,5240,5233,5234,5235,5236,5237,5238,5239,5240,5233,5234,5235,5236,5237,5238,5239,5240,5233,5234,5235,5236,5237,5238,5239,5240,5233,5234,5235,5236,5237,5238,5239,5240,5233,5234,5235,5236,5237,5238,5239,5240,5233,5234,5235,5236,5237,5238,5239,5240,5233,5234,5235,5236,5237,5238,5239,5240,5233,5234,5235,5236,5237,5238,5239,5240,5233,5234,5235,5236,5237,5238,5239,5240,5233,5234,5235,5236,5237,5238,5239,5240,5233,5234,5235,5236,5237,5238,5239,5240,5233,5234,5235,5236,5237,5238,5239,5240,5233,5234,5235,5236,5237,5238,5239,5240,5233,5234,5235,5236,5237,5238,5239,5240,5233,5234,5235,5236,5237,5238,5239,5240,5233,5234,5235,5236,5237,5238,5239,5240,5233,5234,5235,5236,5237,5238,5239,5240,5233,5234,5235,5236,5237,5238,5239,5240,
5121,5122,5123,5124,5125,5126,5127,5128,5121,5122,5123,5124,5125,5126,5127,5128,5121,5122,5123,5124,5125,5126,5127,5128,5121,5122,5123,5124,5125,5126,5127,5128,5121,5122,5123,5124,5125,5126,5127,5128,5121,5122,5123,5124,5125,5126,5127,5128,5121,5122,5123,5124,5125,5126,5127,5128,5121,5122,5123,5124,5125,5126,5127,5128,5121,5122,5123,5124,5125,5126,5127,5128,5121,5122,5123,5124,5125,5126,5127,5128,5121,5122,5123,5124,5125,5126,5127,5128,5121,5122,5123,5124,5125,5126,5127,5128,5121,5122,5123,5124,5125,5126,5127,5128,5121,5122,5123,5124,5125,5126,5127,5128,5121,5122,5123,5124,5125,5126,5127,5128,5121,5122,5123,5124,5125,5126,5127,5128,5121,5122,5123,5124,5125,5126,5127,5128,5121,5122,5123,5124,5125,5126,5127,5128,5121,5122,5123,5124,5125,5126,5127,5128,5121,5122,5123,5124,5125,5126,5127,5128,5121,5122,5123,5124,5125,5126,5127,5128,5121,5122,5123,5124,5125,5126,5127,5128,5121,5122,5123,5124,5125,5126,5127,5128,5121,5122,5123,5124,5125,5126,5127,5128,5121,5122,5123,5124,5125,5126,5127,5128,
5137,5138,5139,5140,5141,5142,5143,5144,5137,5138,5139,5140,5141,5142,5143,5144,5137,5138,5139,5140,5141,5142,5143,5144,5137,5138,5139,5140,5141,5142,5143,5144,5137,5138,5139,5140,5141,5142,5143,5144,5137,5138,5139,5140,5141,5142,5143,5144,5137,5138,5139,5140,5141,5142,5143,5144,5137,5138,5139,5140,5141,5142,5143,5144,5137,5138,5139,5140,5141,5142,5143,5144,5137,5138,5139,5140,5141,5142,5143,5144,5137,5138,5139,5140,5141,5142,5143,5144,5137,5138,5139,5140,5141,5142,5143,5144,5137,5138,5139,5140,5141,5142,5143,5144,5137,5138,5139,5140,5141,5142,5143,5144,5137,5138,5139,5140,5141,5142,5143,5144,5137,5138,5139,5140,5141,5142,5143,5144,5137,5138,5139,5140,5141,5142,5143,5144,5137,5138,5139,5140,5141,5142,5143,5144,5137,5138,5139,5140,5141,5142,5143,5144,5137,5138,5139,5140,5141,5142,5143,5144,5137,5138,5139,5140,5141,5142,5143,5144,5137,5138,5139,5140,5141,5142,5143,5144,5137,5138,5139,5140,5141,5142,5143,5144,5137,5138,5139,5140,5141,5142,5143,5144,5137,5138,5139,5140,5141,5142,5143,5144,
5153,5154,5155,5156,5157,5158,5159,5160,5153,5154,5155,5156,5157,5158,5159,5160,5153,5154,5155,5156,5157,5158,5159,5160,5153,5154,5155,5156,5157,5158,5159,5160,5153,5154,5155,5156,5157,5158,5159,5160,5153,5154,5155,5156,5157,5158,5159,5160,5153,5154,5155,5156,5157,5158,5159,5160,5153,5154,5155,5156,5157,5158,5159,5160,5153,5154,5155,5156,5157,5158,5159,5160,5153,5154,5155,5156,5157,5158,5159,5160,5153,5154,5155,5156,5157,5158,5159,5160,5153,5154,5155,5156,5157,5158,5159,5160,5153,5154,5155,5156,5157,5158,5159,5160,5153,5154,5155,5156,5157,5158,5159,5160,5153,5154,5155,5156,5157,5158,5159,5160,5153,5154,5155,5156,5157,5158,5159,5160,5153,5154,5155,5156,5157,5158,5159,5160,5153,5154,5155,5156,5157,5158,5159,5160,5153,5154,5155,5156,5157,5158,5159,5160,5153,5154,5155,5156,5157,5158,5159,5160,5153,5154,5155,5156,5157,5158,5159,5160,5153,5154,5155,5156,5157,5158,5159,5160,5153,5154,5155,5156,5157,5158,5159,5160,5153,5154,5155,5156,5157,5158,5159,5160,5153,5154,5155,5156,5157,5158,5159,5160,
5169,5170,5171,5172,5173,5174,5175,5176,5169,5170,5171,5172,5173,5174,5175,5176,5169,5170,5171,5172,5173,5174,5175,5176,5169,5170,5171,5172,5173,5174,5175,5176,5169,5170,5171,5172,5173,5174,5175,5176,5169,5170,5171,5172,5173,5174,5175,5176,5169,5170,5171,5172,5173,5174,5175,5176,5169,5170,5171,5172,5173,5174,5175,5176,5169,5170,5171,5172,5173,5174,5175,5176,5169,5170,5171,5172,5173,5174,5175,5176,5169,5170,5171,5172,5173,5174,5175,5176,5169,5170,5171,5172,5173,5174,5175,5176,5169,5170,5171,5172,5173,5174,5175,5176,5169,5170,5171,5172,5173,5174,5175,5176,5169,5170,5171,5172,5173,5174,5175,5176,5169,5170,5171,5172,5173,5174,5175,5176,5169,5170,5171,5172,5173,5174,5175,5176,5169,5170,5171,5172,5173,5174,5175,5176,5169,5170,5171,5172,5173,5174,5175,5176,5169,5170,5171,5172,5173,5174,5175,5176,5169,5170,5171,5172,5173,5174,5175,5176,5169,5170,5171,5172,5173,5174,5175,5176,5169,5170,5171,5172,5173,5174,5175,5176,5169,5170,5171,5172,5173,5174,5175,5176,5169,5170,5171,5172,5173,5174,5175,5176,
5185,5186,5187,5188,5189,5190,5191,5192,5185,5186,5187,5188,5189,5190,5191,5192,5185,5186,5187,5188,5189,5190,5191,5192,5185,5186,5187,5188,5189,5190,5191,5192,5185,5186,5187,5188,5189,5190,5191,5192,5185,5186,5187,5188,5189,5190,5191,5192,5185,5186,5187,5188,5189,5190,5191,5192,5185,5186,5187,5188,5189,5190,5191,5192,5185,5186,5187,5188,5189,5190,5191,5192,5185,5186,5187,5188,5189,5190,5191,5192,5185,5186,5187,5188,5189,5190,5191,5192,5185,5186,5187,5188,5189,5190,5191,5192,5185,5186,5187,5188,5189,5190,5191,5192,5185,5186,5187,5188,5189,5190,5191,5192,5185,5186,5187,5188,5189,5190,5191,5192,5185,5186,5187,5188,5189,5190,5191,5192,5185,5186,5187,5188,5189,5190,5191,5192,5185,5186,5187,5188,5189,5190,5191,5192,5185,5186,5187,5188,5189,5190,5191,5192,5185,5186,5187,5188,5189,5190,5191,5192,5185,5186,5187,5188,5189,5190,5191,5192,5185,5186,5187,5188,5189,5190,5191,5192,5185,5186,5187,5188,5189,5190,5191,5192,5185,5186,5187,5188,5189,5190,5191,5192,5185,5186,5187,5188,5189,5190,5191,5192,
5201,5202,5203,5204,5205,5206,5207,5208,5201,5202,5203,5204,5205,5206,5207,5208,5201,5202,5203,5204,5205,5206,5207,5208,5201,5202,5203,5204,5205,5206,5207,5208,5201,5202,5203,5204,5205,5206,5207,5208,5201,5202,5203,5204,5205,5206,5207,5208,5201,5202,5203,5204,5205,5206,5207,5208,5201,5202,5203,5204,5205,5206,5207,5208,5201,5202,5203,5204,5205,5206,5207,5208,5201,5202,5203,5204,5205,5206,5207,5208,5201,5202,5203,5204,5205,5206,5207,5208,5201,5202,5203,5204,5205,5206,5207,5208,5201,5202,5203,5204,5205,5206,5207,5208,5201,5202,5203,5204,5205,5206,5207,5208,5201,5202,5203,5204,5205,5206,5207,5208,5201,5202,5203,5204,5205,5206,5207,5208,5201,5202,5203,5204,5205,5206,5207,5208,5201,5202,5203,5204,5205,5206,5207,5208,5201,5202,5203,5204,5205,5206,5207,5208,5201,5202,5203,5204,5205,5206,5207,5208,5201,5202,5203,5204,5205,5206,5207,5208,5201,5202,5203,5204,5205,5206,5207,5208,5201,5202,5203,5204,5205,5206,5207,5208,5201,5202,5203,5204,5205,5206,5207,5208,5201,5202,5203,5204,5205,5206,5207,5208,
5217,5218,5219,5220,5221,5222,5223,5224,5217,5218,5219,5220,5221,5222,5223,5224,5217,5218,5219,5220,5221,5222,5223,5224,5217,5218,5219,5220,5221,5222,5223,5224,5217,5218,5219,5220,5221,5222,5223,5224,5217,5218,5219,5220,5221,5222,5223,5224,5217,5218,5219,5220,5221,5222,5223,5224,5217,5218,5219,5220,5221,5222,5223,5224,5217,5218,5219,5220,5221,5222,5223,5224,5217,5218,5219,5220,5221,5222,5223,5224,5217,5218,5219,5220,5221,5222,5223,5224,5217,5218,5219,5220,5221,5222,5223,5224,5217,5218,5219,5220,5221,5222,5223,5224,5217,5218,5219,5220,5221,5222,5223,5224,5217,5218,5219,5220,5221,5222,5223,5224,5217,5218,5219,5220,5221,5222,5223,5224,5217,5218,5219,5220,5221,5222,5223,5224,5217,5218,5219,5220,5221,5222,5223,5224,5217,5218,5219,5220,5221,5222,5223,5224,5217,5218,5219,5220,5221,5222,5223,5224,5217,5218,5219,5220,5221,5222,5223,5224,5217,5218,5219,5220,5221,5222,5223,5224,5217,5218,5219,5220,5221,5222,5223,5224,5217,5218,5219,5220,5221,5222,5223,5224,5217,5218,5219,5220,5221,5222,5223,5224,
5233,5234,5235,5236,5237,5238,5239,5240,5233,5234,5235,5236,5237,5238,5239,5240,5233,5234,5235,5236,5237,5238,5239,5240,5233,5234,5235,5236,5237,5238,5239,5240,5233,5234,5235,5236,5237,5238,5239,5240,5233,5234,5235,5236,5237,5238,5239,5240,5233,5234,5235,5236,5237,5238,5239,5240,5233,5234,5235,5236,5237,5238,5239,5240,5233,5234,5235,5236,5237,5238,5239,5240,5233,5234,5235,5236,5237,5238,5239,5240,5233,5234,5235,5236,5237,5238,5239,5240,5233,5234,5235,5236,5237,5238,5239,5240,5233,5234,5235,5236,5237,5238,5239,5240,5233,5234,5235,5236,5237,5238,5239,5240,5233,5234,5235,5236,5237,5238,5239,5240,5233,5234,5235,5236,5237,5238,5239,5240,5233,5234,5235,5236,5237,5238,5239,5240,5233,5234,5235,5236,5237,5238,5239,5240,5233,5234,5235,5236,5237,5238,5239,5240,5233,5234,5235,5236,5237,5238,5239,5240,5233,5234,5235,5236,5237,5238,5239,5240,5233,5234,5235,5236,5237,5238,5239,5240,5233,5234,5235,5236,5237,5238,5239,5240,5233,5234,5235,5236,5237,5238,5239,5240,5233,5234,5235,5236,5237,5238,5239,5240,
5121,5122,5123,5124,5125,5126,5127,5128,5121,5122,5123,5124,5125,5126,5127,5128,5121,5122,5123,5124,5125,5126,5127,5128,5121,5122,5123,5124,5125,5126,5127,5128,5121,5122,5123,5124,5125,5126,5127,5128,5121,5122,5123,5124,5125,5126,5127,5128,5121,5122,5123,5124,5125,5126,5127,5128,5121,5122,5123,5124,5125,5126,5127,5128,5121,5122,5123,5124,5125,5126,5127,5128,5121,5122,5123,5124,5125,5126,5127,5128,5121,5122,5123,5124,5125,5126,5127,5128,5121,5122,5123,5124,5125,5126,5127,5128,5121,5122,5123,5124,5125,5126,5127,5128,5121,5122,5123,5124,5125,5126,5127,5128,5121,5122,5123,5124,5125,5126,5127,5128,5121,5122,5123,5124,5125,5126,5127,5128,5121,5122,5123,5124,5125,5126,5127,5128,5121,5122,5123,5124,5125,5126,5127,5128,5121,5122,5123,5124,5125,5126,5127,5128,5121,5122,5123,5124,5125,5126,5127,5128,5121,5122,5123,5124,5125,5126,5127,5128,5121,5122,5123,5124,5125,5126,5127,5128,5121,5122,5123,5124,5125,5126,5127,5128,5121,5122,5123,5124,5125,5126,5127,5128,5121,5122,5123,5124,5125,5126,5127,5128,
5137,5138,5139,5140,5141,5142,5143,5144,5137,5138,5139,5140,5141,5142,5143,5144,5137,5138,5139,5140,5141,5142,5143,5144,5137,5138,5139,5140,5141,5142,5143,5144,5137,5138,5139,5140,5141,5142,5143,5144,5137,5138,5139,5140,5141,5142,5143,5144,5137,5138,5139,5140,5141,5142,5143,5144,5137,5138,5139,5140,5141,5142,5143,5144,5137,5138,5139,5140,5141,5142,5143,5144,5137,5138,5139,5140,5141,5142,5143,5144,5137,5138,5139,5140,5141,5142,5143,5144,5137,5138,5139,5140,5141,5142,5143,5144,5137,5138,5139,5140,5141,5142,5143,5144,5137,5138,5139,5140,5141,5142,5143,5144,5137,5138,5139,5140,5141,5142,5143,5144,5137,5138,5139,5140,5141,5142,5143,5144,5137,5138,5139,5140,5141,5142,5143,5144,5137,5138,5139,5140,5141,5142,5143,5144,5137,5138,5139,5140,5141,5142,5143,5144,5137,5138,5139,5140,5141,5142,5143,5144,5137,5138,5139,5140,5141,5142,5143,5144,5137,5138,5139,5140,5141,5142,5143,5144,5137,5138,5139,5140,5141,5142,5143,5144,5137,5138,5139,5140,5141,5142,5143,5144,5137,5138,5139,5140,5141,5142,5143,5144,
5153,5154,5155,5156,5157,5158,5159,5160,5153,5154,5155,5156,5157,5158,5159,5160,5153,5154,5155,5156,5157,5158,5159,5160,5153,5154,5155,5156,5157,5158,5159,5160,5153,5154,5155,5156,5157,5158,5159,5160,5153,5154,5155,5156,5157,5158,5159,5160,5153,5154,5155,5156,5157,5158,5159,5160,5153,5154,5155,5156,5157,5158,5159,5160,5153,5154,5155,5156,5157,5158,5159,5160,5153,5154,5155,5156,5157,5158,5159,5160,5153,5154,5155,5156,5157,5158,5159,5160,5153,5154,5155,5156,5157,5158,5159,5160,5153,5154,5155,5156,5157,5158,5159,5160,5153,5154,5155,5156,5157,5158,5159,5160,5153,5154,5155,5156,5157,5158,5159,5160,5153,5154,5155,5156,5157,5158,5159,5160,5153,5154,5155,5156,5157,5158,5159,5160,5153,5154,5155,5156,5157,5158,5159,5160,5153,5154,5155,5156,5157,5158,5159,5160,5153,5154,5155,5156,5157,5158,5159,5160,5153,5154,5155,5156,5157,5158,5159,5160,5153,5154,5155,5156,5157,5158,5159,5160,5153,5154,5155,5156,5157,5158,5159,5160,5153,5154,5155,5156,5157,5158,5159,5160,5153,5154,5155,5156,5157,5158,5159,5160,
5169,5170,5171,5172,5173,5174,5175,5176,5169,5170,5171,5172,5173,5174,5175,5176,5169,5170,5171,5172,5173,5174,5175,5176,5169,5170,5171,5172,5173,5174,5175,5176,5169,5170,5171,5172,5173,5174,5175,5176,5169,5170,5171,5172,5173,5174,5175,5176,5169,5170,5171,5172,5173,5174,5175,5176,5169,5170,5171,5172,5173,5174,5175,5176,5169,5170,5171,5172,5173,5174,5175,5176,5169,5170,5171,5172,5173,5174,5175,5176,5169,5170,5171,5172,5173,5174,5175,5176,5169,5170,5171,5172,5173,5174,5175,5176,5169,5170,5171,5172,5173,5174,5175,5176,5169,5170,5171,5172,5173,5174,5175,5176,5169,5170,5171,5172,5173,5174,5175,5176,5169,5170,5171,5172,5173,5174,5175,5176,5169,5170,5171,5172,5173,5174,5175,5176,5169,5170,5171,5172,5173,5174,5175,5176,5169,5170,5171,5172,5173,5174,5175,5176,5169,5170,5171,5172,5173,5174,5175,5176,5169,5170,5171,5172,5173,5174,5175,5176,5169,5170,5171,5172,5173,5174,5175,5176,5169,5170,5171,5172,5173,5174,5175,5176,5169,5170,5171,5172,5173,5174,5175,5176,5169,5170,5171,5172,5173,5174,5175,5176,
5185,5186,5187,5188,5189,5190,5191,5192,5185,5186,5187,5188,5189,5190,5191,5192,5185,5186,5187,5188,5189,5190,5191,5192,5185,5186,5187,5188,5189,5190,5191,5192,5185,5186,5187,5188,5189,5190,5191,5192,5185,5186,5187,5188,5189,5190,5191,5192,5185,5186,5187,5188,5189,5190,5191,5192,5185,5186,5187,5188,5189,5190,5191,5192,5185,5186,5187,5188,5189,5190,5191,5192,5185,5186,5187,5188,5189,5190,5191,5192,5185,5186,5187,5188,5189,5190,5191,5192,5185,5186,5187,5188,5189,5190,5191,5192,5185,5186,5187,5188,5189,5190,5191,5192,5185,5186,5187,5188,5189,5190,5191,5192,5185,5186,5187,5188,5189,5190,5191,5192,5185,5186,5187,5188,5189,5190,5191,5192,5185,5186,5187,5188,5189,5190,5191,5192,5185,5186,5187,5188,5189,5190,5191,5192,5185,5186,5187,5188,5189,5190,5191,5192,5185,5186,5187,5188,5189,5190,5191,5192,5185,5186,5187,5188,5189,5190,5191,5192,5185,5186,5187,5188,5189,5190,5191,5192,5185,5186,5187,5188,5189,5190,5191,5192,5185,5186,5187,5188,5189,5190,5191,5192,5185,5186,5187,5188,5189,5190,5191,5192,
5201,5202,5203,5204,5205,5206,5207,5208,5201,5202,5203,5204,5205,5206,5207,5208,5201,5202,5203,5204,5205,5206,5207,5208,5201,5202,5203,5204,5205,5206,5207,5208,5201,5202,5203,5204,5205,5206,5207,5208,5201,5202,5203,5204,5205,5206,5207,5208,5201,5202,5203,5204,5205,5206,5207,5208,5201,5202,5203,5204,5205,5206,5207,5208,5201,5202,5203,5204,5205,5206,5207,5208,5201,5202,5203,5204,5205,5206,5207,5208,5201,5202,5203,5204,5205,5206,5207,5208,5201,5202,5203,5204,5205,5206,5207,5208,5201,5202,5203,5204,5205,5206,5207,5208,5201,5202,5203,5204,5205,5206,5207,5208,5201,5202,5203,5204,5205,5206,5207,5208,5201,5202,5203,5204,5205,5206,5207,5208,5201,5202,5203,5204,5205,5206,5207,5208,5201,5202,5203,5204,5205,5206,5207,5208,5201,5202,5203,5204,5205,5206,5207,5208,5201,5202,5203,5204,5205,5206,5207,5208,5201,5202,5203,5204,5205,5206,5207,5208,5201,5202,5203,5204,5205,5206,5207,5208,5201,5202,5203,5204,5205,5206,5207,5208,5201,5202,5203,5204,5205,5206,5207,5208,5201,5202,5203,5204,5205,5206,5207,5208,
5217,5218,5219,5220,5221,5222,5223,5224,5217,5218,5219,5220,5221,5222,5223,5224,5217,5218,5219,5220,5221,5222,5223,5224,5217,5218,5219,5220,5221,5222,5223,5224,5217,5218,5219,5220,5221,5222,5223,5224,5217,5218,5219,5220,5221,5222,5223,5224,5217,5218,5219,5220,5221,5222,5223,5224,5217,5218,5219,5220,5221,5222,5223,5224,5217,5218,5219,5220,5221,5222,5223,5224,5217,5218,5219,5220,5221,5222,5223,5224,5217,5218,5219,5220,5221,5222,5223,5224,5217,5218,5219,5220,5221,5222,5223,5224,5217,5218,5219,5220,5221,5222,5223,5224,5217,5218,5219,5220,5221,5222,5223,5224,5217,5218,5219,5220,5221,5222,5223,5224,5217,5218,5219,5220,5221,5222,5223,5224,5217,5218,5219,5220,5221,5222,5223,5224,5217,5218,5219,5220,5221,5222,5223,5224,5217,5218,5219,5220,5221,5222,5223,5224,5217,5218,5219,5220,5221,5222,5223,5224,5217,5218,5219,5220,5221,5222,5223,5224,5217,5218,5219,5220,5221,5222,5223,5224,5217,5218,5219,5220,5221,5222,5223,5224,5217,5218,5219,5220,5221,5222,5223,5224,5217,5218,5219,5220,5221,5222,5223,5224,
5233,5234,5235,5236,5237,5238,5239,5240,5233,5234,5235,5236,5237,5238,5239,5240,5233,5234,5235,5236,5237,5238,5239,5240,5233,5234,5235,5236,5237,5238,5239,5240,5233,5234,5235,5236,5237,5238,5239,5240,5233,5234,5235,5236,5237,5238,5239,5240,5233,5234,5235,5236,5237,5238,5239,5240,5233,5234,5235,5236,5237,5238,5239,5240,5233,5234,5235,5236,5237,5238,5239,5240,5233,5234,5235,5236,5237,5238,5239,5240,5233,5234,5235,5236,5237,5238,5239,5240,5233,5234,5235,5236,5237,5238,5239,5240,5233,5234,5235,5236,5237,5238,5239,5240,5233,5234,5235,5236,5237,5238,5239,5240,5233,5234,5235,5236,5237,5238,5239,5240,5233,5234,5235,5236,5237,5238,5239,5240,5233,5234,5235,5236,5237,5238,5239,5240,5233,5234,5235,5236,5237,5238,5239,5240,5233,5234,5235,5236,5237,5238,5239,5240,5233,5234,5235,5236,5237,5238,5239,5240,5233,5234,5235,5236,5237,5238,5239,5240,5233,5234,5235,5236,5237,5238,5239,5240,5233,5234,5235,5236,5237,5238,5239,5240,5233,5234,5235,5236,5237,5238,5239,5240,5233,5234,5235,5236,5237,5238,5239,5240,
5121,5122,5123,5124,5125,5126,5127,5128,5121,5122,5123,5124,5125,5126,5127,5128,5121,5122,5123,5124,5125,5126,5127,5128,5121,5122,5123,5124,5125,5126,5127,5128,5121,5122,5123,5124,5125,5126,5127,5128,5121,5122,5123,5124,5125,5126,5127,5128,5121,5122,5123,5124,5125,5126,5127,5128,5121,5122,5123,5124,5125,5126,5127,5128,5121,5122,5123,5124,5125,5126,5127,5128,5121,5122,5123,5124,5125,5126,5127,5128,5121,5122,5123,5124,5125,5126,5127,5128,5121,5122,5123,5124,5125,5126,5127,5128,5121,5122,5123,5124,5125,5126,5127,5128,5121,5122,5123,5124,5125,5126,5127,5128,5121,5122,5123,5124,5125,5126,5127,5128,5121,5122,5123,5124,5125,5126,5127,5128,5121,5122,5123,5124,5125,5126,5127,5128,5121,5122,5123,5124,5125,5126,5127,5128,5121,5122,5123,5124,5125,5126,5127,5128,5121,5122,5123,5124,5125,5126,5127,5128,5121,5122,5123,5124,5125,5126,5127,5128,5121,5122,5123,5124,5125,5126,5127,5128,5121,5122,5123,5124,5125,5126,5127,5128,5121,5122,5123,5124,5125,5126,5127,5128,5121,5122,5123,5124,5125,5126,5127,5128,
5137,5138,5139,5140,5141,5142,5143,5144,5137,5138,5139,5140,5141,5142,5143,5144,5137,5138,5139,5140,5141,5142,5143,5144,5137,5138,5139,5140,5141,5142,5143,5144,5137,5138,5139,5140,5141,5142,5143,5144,5137,5138,5139,5140,5141,5142,5143,5144,5137,5138,5139,5140,5141,5142,5143,5144,5137,5138,5139,5140,5141,5142,5143,5144,5137,5138,5139,5140,5141,5142,5143,5144,5137,5138,5139,5140,5141,5142,5143,5144,5137,5138,5139,5140,5141,5142,5143,5144,5137,5138,5139,5140,5141,5142,5143,5144,5137,5138,5139,5140,5141,5142,5143,5144,5137,5138,5139,5140,5141,5142,5143,5144,5137,5138,5139,5140,5141,5142,5143,5144,5137,5138,5139,5140,5141,5142,5143,5144,5137,5138,5139,5140,5141,5142,5143,5144,5137,5138,5139,5140,5141,5142,5143,5144,5137,5138,5139,5140,5141,5142,5143,5144,5137,5138,5139,5140,5141,5142,5143,5144,5137,5138,5139,5140,5141,5142,5143,5144,5137,5138,5139,5140,5141,5142,5143,5144,5137,5138,5139,5140,5141,5142,5143,5144,5137,5138,5139,5140,5141,5142,5143,5144,5137,5138,5139,5140,5141,5142,5143,5144,
5153,5154,5155,5156,5157,5158,5159,5160,5153,5154,5155,5156,5157,5158,5159,5160,5153,5154,5155,5156,5157,5158,5159,5160,5153,5154,5155,5156,5157,5158,5159,5160,5153,5154,5155,5156,5157,5158,5159,5160,5153,5154,5155,5156,5157,5158,5159,5160,5153,5154,5155,5156,5157,5158,5159,5160,5153,5154,5155,5156,5157,5158,5159,5160,5153,5154,5155,5156,5157,5158,5159,5160,5153,5154,5155,5156,5157,5158,5159,5160,5153,5154,5155,5156,5157,5158,5159,5160,5153,5154,5155,5156,5157,5158,5159,5160,5153,5154,5155,5156,5157,5158,5159,5160,5153,5154,5155,5156,5157,5158,5159,5160,5153,5154,5155,5156,5157,5158,5159,5160,5153,5154,5155,5156,5157,5158,5159,5160,5153,5154,5155,5156,5157,5158,5159,5160,5153,5154,5155,5156,5157,5158,5159,5160,5153,5154,5155,5156,5157,5158,5159,5160,5153,5154,5155,5156,5157,5158,5159,5160,5153,5154,5155,5156,5157,5158,5159,5160,5153,5154,5155,5156,5157,5158,5159,5160,5153,5154,5155,5156,5157,5158,5159,5160,5153,5154,5155,5156,5157,5158,5159,5160,5153,5154,5155,5156,5157,5158,5159,5160,
5169,5170,5171,5172,5173,5174,5175,5176,5169,5170,5171,5172,5173,5174,5175,5176,5169,5170,5171,5172,5173,5174,5175,5176,5169,5170,5171,5172,5173,5174,5175,5176,5169,5170,5171,5172,5173,5174,5175,5176,5169,5170,5171,5172,5173,5174,5175,5176,5169,5170,5171,5172,5173,5174,5175,5176,5169,5170,5171,5172,5173,5174,5175,5176,5169,5170,5171,5172,5173,5174,5175,5176,5169,5170,5171,5172,5173,5174,5175,5176,5169,5170,5171,5172,5173,5174,5175,5176,5169,5170,5171,5172,5173,5174,5175,5176,5169,5170,5171,5172,5173,5174,5175,5176,5169,5170,5171,5172,5173,5174,5175,5176,5169,5170,5171,5172,5173,5174,5175,5176,5169,5170,5171,5172,5173,5174,5175,5176,5169,5170,5171,5172,5173,5174,5175,5176,5169,5170,5171,5172,5173,5174,5175,5176,5169,5170,5171,5172,5173,5174,5175,5176,5169,5170,5171,5172,5173,5174,5175,5176,5169,5170,5171,5172,5173,5174,5175,5176,5169,5170,5171,5172,5173,5174,5175,5176,5169,5170,5171,5172,5173,5174,5175,5176,5169,5170,5171,5172,5173,5174,5175,5176,5169,5170,5171,5172,5173,5174,5175,5176,
5185,5186,5187,5188,5189,5190,5191,5192,5185,5186,5187,5188,5189,5190,5191,5192,5185,5186,5187,5188,5189,5190,5191,5192,5185,5186,5187,5188,5189,5190,5191,5192,5185,5186,5187,5188,5189,5190,5191,5192,5185,5186,5187,5188,5189,5190,5191,5192,5185,5186,5187,5188,5189,5190,5191,5192,5185,5186,5187,5188,5189,5190,5191,5192,5185,5186,5187,5188,5189,5190,5191,5192,5185,5186,5187,5188,5189,5190,5191,5192,5185,5186,5187,5188,5189,5190,5191,5192,5185,5186,5187,5188,5189,5190,5191,5192,5185,5186,5187,5188,5189,5190,5191,5192,5185,5186,5187,5188,5189,5190,5191,5192,5185,5186,5187,5188,5189,5190,5191,5192,5185,5186,5187,5188,5189,5190,5191,5192,5185,5186,5187,5188,5189,5190,5191,5192,5185,5186,5187,5188,5189,5190,5191,5192,5185,5186,5187,5188,5189,5190,5191,5192,5185,5186,5187,5188,5189,5190,5191,5192,5185,5186,5187,5188,5189,5190,5191,5192,5185,5186,5187,5188,5189,5190,5191,5192,5185,5186,5187,5188,5189,5190,5191,5192,5185,5186,5187,5188,5189,5190,5191,5192,5185,5186,5187,5188,5189,5190,5191,5192,
5201,5202,5203,5204,5205,5206,5207,5208,5201,5202,5203,5204,5205,5206,5207,5208,5201,5202,5203,5204,5205,5206,5207,5208,5201,5202,5203,5204,5205,5206,5207,5208,5201,5202,5203,5204,5205,5206,5207,5208,5201,5202,5203,5204,5205,5206,5207,5208,5201,5202,5203,5204,5205,5206,5207,5208,5201,5202,5203,5204,5205,5206,5207,5208,5201,5202,5203,5204,5205,5206,5207,5208,5201,5202,5203,5204,5205,5206,5207,5208,5201,5202,5203,5204,5205,5206,5207,5208,5201,5202,5203,5204,5205,5206,5207,5208,5201,5202,5203,5204,5205,5206,5207,5208,5201,5202,5203,5204,5205,5206,5207,5208,5201,5202,5203,5204,5205,5206,5207,5208,5201,5202,5203,5204,5205,5206,5207,5208,5201,5202,5203,5204,5205,5206,5207,5208,5201,5202,5203,5204,5205,5206,5207,5208,5201,5202,5203,5204,5205,5206,5207,5208,5201,5202,5203,5204,5205,5206,5207,5208,5201,5202,5203,5204,5205,5206,5207,5208,5201,5202,5203,5204,5205,5206,5207,5208,5201,5202,5203,5204,5205,5206,5207,5208,5201,5202,5203,5204,5205,5206,5207,5208,5201,5202,5203,5204,5205,5206,5207,5208,
5217,5218,5219,5220,5221,5222,5223,5224,5217,5218,5219,5220,5221,5222,5223,5224,5217,5218,5219,5220,5221,5222,5223,5224,5217,5218,5219,5220,5221,5222,5223,5224,5217,5218,5219,5220,5221,5222,5223,5224,5217,5218,5219,5220,5221,5222,5223,5224,5217,5218,5219,5220,5221,5222,5223,5224,5217,5218,5219,5220,5221,5222,5223,5224,5217,5218,5219,5220,5221,5222,5223,5224,5217,5218,5219,5220,5221,5222,5223,5224,5217,5218,5219,5220,5221,5222,5223,5224,5217,5218,5219,5220,5221,5222,5223,5224,5217,5218,5219,5220,5221,5222,5223,5224,5217,5218,5219,5220,5221,5222,5223,5224,5217,5218,5219,5220,5221,5222,5223,5224,5217,5218,5219,5220,5221,5222,5223,5224,5217,5218,5219,5220,5221,5222,5223,5224,5217,5218,5219,5220,5221,5222,5223,5224,5217,5218,5219,5220,5221,5222,5223,5224,5217,5218,5219,5220,5221,5222,5223,5224,5217,5218,5219,5220,5221,5222,5223,5224,5217,5218,5219,5220,5221,5222,5223,5224,5217,5218,5219,5220,5221,5222,5223,5224,5217,5218,5219,5220,5221,5222,5223,5224,5217,5218,5219,5220,5221,5222,5223,5224,
5233,5234,5235,5236,5237,5238,5239,5240,5233,5234,5235,5236,5237,5238,5239,5240,5233,5234,5235,5236,5237,5238,5239,5240,5233,5234,5235,5236,5237,5238,5239,5240,5233,5234,5235,5236,5237,5238,5239,5240,5233,5234,5235,5236,5237,5238,5239,5240,5233,5234,5235,5236,5237,5238,5239,5240,5233,5234,5235,5236,5237,5238,5239,5240,5233,5234,5235,5236,5237,5238,5239,5240,5233,5234,5235,5236,5237,5238,5239,5240,5233,5234,5235,5236,5237,5238,5239,5240,5233,5234,5235,5236,5237,5238,5239,5240,5233,5234,5235,5236,5237,5238,5239,5240,5233,5234,5235,5236,5237,5238,5239,5240,5233,5234,5235,5236,5237,5238,5239,5240,5233,5234,5235,5236,5237,5238,5239,5240,5233,5234,5235,5236,5237,5238,5239,5240,5233,5234,5235,5236,5237,5238,5239,5240,5233,5234,5235,5236,5237,5238,5239,5240,5233,5234,5235,5236,5237,5238,5239,5240,5233,5234,5235,5236,5237,5238,5239,5240,5233,5234,5235,5236,5237,5238,5239,5240,5233,5234,5235,5236,5237,5238,5239,5240,5233,5234,5235,5236,5237,5238,5239,5240,5233,5234,5235,5236,5237,5238,5239,5240,
5121,5122,5123,5124,5125,5126,5127,5128,5121,5122,5123,5124,5125,5126,5127,5128,5121,5122,5123,5124,5125,5126,5127,5128,5121,5122,5123,5124,5125,5126,5127,5128,5121,5122,5123,5124,5125,5126,5127,5128,5121,5122,5123,5124,5125,5126,5127,5128,5121,5122,5123,5124,5125,5126,5127,5128,5121,5122,5123,5124,5125,5126,5127,5128,5121,5122,5123,5124,5125,5126,5127,5128,5121,5122,5123,5124,5125,5126,5127,5128,5121,5122,5123,5124,5125,5126,5127,5128,5121,5122,5123,5124,5125,5126,5127,5128,5121,5122,5123,5124,5125,5126,5127,5128,5121,5122,5123,5124,5125,5126,5127,5128,5121,5122,5123,5124,5125,5126,5127,5128,5121,5122,5123,5124,5125,5126,5127,5128,5121,5122,5123,5124,5125,5126,5127,5128,5121,5122,5123,5124,5125,5126,5127,5128,5121,5122,5123,5124,5125,5126,5127,5128,5121,5122,5123,5124,5125,5126,5127,5128,5121,5122,5123,5124,5125,5126,5127,5128,5121,5122,5123,5124,5125,5126,5127,5128,5121,5122,5123,5124,5125,5126,5127,5128,5121,5122,5123,5124,5125,5126,5127,5128,5121,5122,5123,5124,5125,5126,5127,5128,
5137,5138,5139,5140,5141,5142,5143,5144,5137,5138,5139,5140,5141,5142,5143,5144,5137,5138,5139,5140,5141,5142,5143,5144,5137,5138,5139,5140,5141,5142,5143,5144,5137,5138,5139,5140,5141,5142,5143,5144,5137,5138,5139,5140,5141,5142,5143,5144,5137,5138,5139,5140,5141,5142,5143,5144,5137,5138,5139,5140,5141,5142,5143,5144,5137,5138,5139,5140,5141,5142,5143,5144,5137,5138,5139,5140,5141,5142,5143,5144,5137,5138,5139,5140,5141,5142,5143,5144,5137,5138,5139,5140,5141,5142,5143,5144,5137,5138,5139,5140,5141,5142,5143,5144,5137,5138,5139,5140,5141,5142,5143,5144,5137,5138,5139,5140,5141,5142,5143,5144,5137,5138,5139,5140,5141,5142,5143,5144,5137,5138,5139,5140,5141,5142,5143,5144,5137,5138,5139,5140,5141,5142,5143,5144,5137,5138,5139,5140,5141,5142,5143,5144,5137,5138,5139,5140,5141,5142,5143,5144,5137,5138,5139,5140,5141,5142,5143,5144,5137,5138,5139,5140,5141,5142,5143,5144,5137,5138,5139,5140,5141,5142,5143,5144,5137,5138,5139,5140,5141,5142,5143,5144,5137,5138,5139,5140,5141,5142,5143,5144,
5153,5154,5155,5156,5157,5158,5159,5160,5153,5154,5155,5156,5157,5158,5159,5160,5153,5154,5155,5156,5157,5158,5159,5160,5153,5154,5155,5156,5157,5158,5159,5160,5153,5154,5155,5156,5157,5158,5159,5160,5153,5154,5155,5156,5157,5158,5159,5160,5153,5154,5155,5156,5157,5158,5159,5160,5153,5154,5155,5156,5157,5158,5159,5160,5153,5154,5155,5156,5157,5158,5159,5160,5153,5154,5155,5156,5157,5158,5159,5160,5153,5154,5155,5156,5157,5158,5159,5160,5153,5154,5155,5156,5157,5158,5159,5160,5153,5154,5155,5156,5157,5158,5159,5160,5153,5154,5155,5156,5157,5158,5159,5160,5153,5154,5155,5156,5157,5158,5159,5160,5153,5154,5155,5156,5157,5158,5159,5160,5153,5154,5155,5156,5157,5158,5159,5160,5153,5154,5155,5156,5157,5158,5159,5160,5153,5154,5155,5156,5157,5158,5159,5160,5153,5154,5155,5156,5157,5158,5159,5160,5153,5154,5155,5156,5157,5158,5159,5160,5153,5154,5155,5156,5157,5158,5159,5160,5153,5154,5155,5156,5157,5158,5159,5160,5153,5154,5155,5156,5157,5158,5159,5160,5153,5154,5155,5156,5157,5158,5159,5160,
5169,5170,5171,5172,5173,5174,5175,5176,5169,5170,5171,5172,5173,5174,5175,5176,5169,5170,5171,5172,5173,5174,5175,5176,5169,5170,5171,5172,5173,5174,5175,5176,5169,5170,5171,5172,5173,5174,5175,5176,5169,5170,5171,5172,5173,5174,5175,5176,5169,5170,5171,5172,5173,5174,5175,5176,5169,5170,5171,5172,5173,5174,5175,5176,5169,5170,5171,5172,5173,5174,5175,5176,5169,5170,5171,5172,5173,5174,5175,5176,5169,5170,5171,5172,5173,5174,5175,5176,5169,5170,5171,5172,5173,5174,5175,5176,5169,5170,5171,5172,5173,5174,5175,5176,5169,5170,5171,5172,5173,5174,5175,5176,5169,5170,5171,5172,5173,5174,5175,5176,5169,5170,5171,5172,5173,5174,5175,5176,5169,5170,5171,5172,5173,5174,5175,5176,5169,5170,5171,5172,5173,5174,5175,5176,5169,5170,5171,5172,5173,5174,5175,5176,5169,5170,5171,5172,5173,5174,5175,5176,5169,5170,5171,5172,5173,5174,5175,5176,5169,5170,5171,5172,5173,5174,5175,5176,5169,5170,5171,5172,5173,5174,5175,5176,5169,5170,5171,5172,5173,5174,5175,5176,5169,5170,5171,5172,5173,5174,5175,5176,
5185,5186,5187,5188,5189,5190,5191,5192,5185,5186,5187,5188,5189,5190,5191,5192,5185,5186,5187,5188,5189,5190,5191,5192,5185,5186,5187,5188,5189,5190,5191,5192,5185,5186,5187,5188,5189,5190,5191,5192,5185,5186,5187,5188,5189,5190,5191,5192,5185,5186,5187,5188,5189,5190,5191,5192,5185,5186,5187,5188,5189,5190,5191,5192,5185,5186,5187,5188,5189,5190,5191,5192,5185,5186,5187,5188,5189,5190,5191,5192,5185,5186,5187,5188,5189,5190,5191,5192,5185,5186,5187,5188,5189,5190,5191,5192,5185,5186,5187,5188,5189,5190,5191,5192,5185,5186,5187,5188,5189,5190,5191,5192,5185,5186,5187,5188,5189,5190,5191,5192,5185,5186,5187,5188,5189,5190,5191,5192,5185,5186,5187,5188,5189,5190,5191,5192,5185,5186,5187,5188,5189,5190,5191,5192,5185,5186,5187,5188,5189,5190,5191,5192,5185,5186,5187,5188,5189,5190,5191,5192,5185,5186,5187,5188,5189,5190,5191,5192,5185,5186,5187,5188,5189,5190,5191,5192,5185,5186,5187,5188,5189,5190,5191,5192,5185,5186,5187,5188,5189,5190,5191,5192,5185,5186,5187,5188,5189,5190,5191,5192,
5201,5202,5203,5204,5205,5206,5207,5208,5201,5202,5203,5204,5205,5206,5207,5208,5201,5202,5203,5204,5205,5206,5207,5208,5201,5202,5203,5204,5205,5206,5207,5208,5201,5202,5203,5204,5205,5206,5207,5208,5201,5202,5203,5204,5205,5206,5207,5208,5201,5202,5203,5204,5205,5206,5207,5208,5201,5202,5203,5204,5205,5206,5207,5208,5201,5202,5203,5204,5205,5206,5207,5208,5201,5202,5203,5204,5205,5206,5207,5208,5201,5202,5203,5204,5205,5206,5207,5208,5201,5202,5203,5204,5205,5206,5207,5208,5201,5202,5203,5204,5205,5206,5207,5208,5201,5202,5203,5204,5205,5206,5207,5208,5201,5202,5203,5204,5205,5206,5207,5208,5201,5202,5203,5204,5205,5206,5207,5208,5201,5202,5203,5204,5205,5206,5207,5208,5201,5202,5203,5204,5205,5206,5207,5208,5201,5202,5203,5204,5205,5206,5207,5208,5201,5202,5203,5204,5205,5206,5207,5208,5201,5202,5203,5204,5205,5206,5207,5208,5201,5202,5203,5204,5205,5206,5207,5208,5201,5202,5203,5204,5205,5206,5207,5208,5201,5202,5203,5204,5205,5206,5207,5208,5201,5202,5203,5204,5205,5206,5207,5208,
5217,5218,5219,5220,5221,5222,5223,5224,5217,5218,5219,5220,5221,5222,5223,5224,5217,5218,5219,5220,5221,5222,5223,5224,5217,5218,5219,5220,5221,5222,5223,5224,5217,5218,5219,5220,5221,5222,5223,5224,5217,5218,5219,5220,5221,5222,5223,5224,5217,5218,5219,5220,5221,5222,5223,5224,5217,5218,5219,5220,5221,5222,5223,5224,5217,5218,5219,5220,5221,5222,5223,5224,5217,5218,5219,5220,5221,5222,5223,5224,5217,5218,5219,5220,5221,5222,5223,5224,5217,5218,5219,5220,5221,5222,5223,5224,5217,5218,5219,5220,5221,5222,5223,5224,5217,5218,5219,5220,5221,5222,5223,5224,5217,5218,5219,5220,5221,5222,5223,5224,5217,5218,5219,5220,5221,5222,5223,5224,5217,5218,5219,5220,5221,5222,5223,5224,5217,5218,5219,5220,5221,5222,5223,5224,5217,5218,5219,5220,5221,5222,5223,5224,5217,5218,5219,5220,5221,5222,5223,5224,5217,5218,5219,5220,5221,5222,5223,5224,5217,5218,5219,5220,5221,5222,5223,5224,5217,5218,5219,5220,5221,5222,5223,5224,5217,5218,5219,5220,5221,5222,5223,5224,5217,5218,5219,5220,5221,5222,5223,5224,
5233,5234,5235,5236,5237,5238,5239,5240,5233,5234,5235,5236,5237,5238,5239,5240,5233,5234,5235,5236,5237,5238,5239,5240,5233,5234,5235,5236,5237,5238,5239,5240,5233,5234,5235,5236,5237,5238,5239,5240,5233,5234,5235,5236,5237,5238,5239,5240,5233,5234,5235,5236,5237,5238,5239,5240,5233,5234,5235,5236,5237,5238,5239,5240,5233,5234,5235,5236,5237,5238,5239,5240,5233,5234,5235,5236,5237,5238,5239,5240,5233,5234,5235,5236,5237,5238,5239,5240,5233,5234,5235,5236,5237,5238,5239,5240,5233,5234,5235,5236,5237,5238,5239,5240,5233,5234,5235,5236,5237,5238,5239,5240,5233,5234,5235,5236,5237,5238,5239,5240,5233,5234,5235,5236,5237,5238,5239,5240,5233,5234,5235,5236,5237,5238,5239,5240,5233,5234,5235,5236,5237,5238,5239,5240,5233,5234,5235,5236,5237,5238,5239,5240,5233,5234,5235,5236,5237,5238,5239,5240,5233,5234,5235,5236,5237,5238,5239,5240,5233,5234,5235,5236,5237,5238,5239,5240,5233,5234,5235,5236,5237,5238,5239,5240,5233,5234,5235,5236,5237,5238,5239,5240,5233,5234,5235,5236,5237,5238,5239,5240,
5121,5122,5123,5124,5125,5126,5127,5128,5121,5122,5123,5124,5125,5126,5127,5128,5121,5122,5123,5124,5125,5126,5127,5128,5121,5122,5123,5124,5125,5126,5127,5128,5121,5122,5123,5124,5125,5126,5127,5128,5121,5122,5123,5124,5125,5126,5127,5128,5121,5122,5123,5124,5125,5126,5127,5128,5121,5122,5123,5124,5125,5126,5127,5128,5121,5122,5123,5124,5125,5126,5127,5128,5121,5122,5123,5124,5125,5126,5127,5128,5121,5122,5123,5124,5125,5126,5127,5128,5121,5122,5123,5124,5125,5126,5127,5128,5121,5122,5123,5124,5125,5126,5127,5128,5121,5122,5123,5124,5125,5126,5127,5128,5121,5122,5123,5124,5125,5126,5127,5128,5121,5122,5123,5124,5125,5126,5127,5128,5121,5122,5123,5124,5125,5126,5127,5128,5121,5122,5123,5124,5125,5126,5127,5128,5121,5122,5123,5124,5125,5126,5127,5128,5121,5122,5123,5124,5125,5126,5127,5128,5121,5122,5123,5124,5125,5126,5127,5128,5121,5122,5123,5124,5125,5126,5127,5128,5121,5122,5123,5124,5125,5126,5127,5128,5121,5122,5123,5124,5125,5126,5127,5128,5121,5122,5123,5124,5125,5126,5127,5128,
5137,5138,5139,5140,5141,5142,5143,5144,5137,5138,5139,5140,5141,5142,5143,5144,5137,5138,5139,5140,5141,5142,5143,5144,5137,5138,5139,5140,5141,5142,5143,5144,5137,5138,5139,5140,5141,5142,5143,5144,5137,5138,5139,5140,5141,5142,5143,5144,5137,5138,5139,5140,5141,5142,5143,5144,5137,5138,5139,5140,5141,5142,5143,5144,5137,5138,5139,5140,5141,5142,5143,5144,5137,5138,5139,5140,5141,5142,5143,5144,5137,5138,5139,5140,5141,5142,5143,5144,5137,5138,5139,5140,5141,5142,5143,5144,5137,5138,5139,5140,5141,5142,5143,5144,5137,5138,5139,5140,5141,5142,5143,5144,5137,5138,5139,5140,5141,5142,5143,5144,5137,5138,5139,5140,5141,5142,5143,5144,5137,5138,5139,5140,5141,5142,5143,5144,5137,5138,5139,5140,5141,5142,5143,5144,5137,5138,5139,5140,5141,5142,5143,5144,5137,5138,5139,5140,5141,5142,5143,5144,5137,5138,5139,5140,5141,5142,5143,5144,5137,5138,5139,5140,5141,5142,5143,5144,5137,5138,5139,5140,5141,5142,5143,5144,5137,5138,5139,5140,5141,5142,5143,5144,5137,5138,5139,5140,5141,5142,5143,5144,
5153,5154,5155,5156,5157,5158,5159,5160,5153,5154,5155,5156,5157,5158,5159,5160,5153,5154,5155,5156,5157,5158,5159,5160,5153,5154,5155,5156,5157,5158,5159,5160,5153,5154,5155,5156,5157,5158,5159,5160,5153,5154,5155,5156,5157,5158,5159,5160,5153,5154,5155,5156,5157,5158,5159,5160,5153,5154,5155,5156,5157,5158,5159,5160,5153,5154,5155,5156,5157,5158,5159,5160,5153,5154,5155,5156,5157,5158,5159,5160,5153,5154,5155,5156,5157,5158,5159,5160,5153,5154,5155,5156,5157,5158,5159,5160,5153,5154,5155,5156,5157,5158,5159,5160,5153,5154,5155,5156,5157,5158,5159,5160,5153,5154,5155,5156,5157,5158,5159,5160,5153,5154,5155,5156,5157,5158,5159,5160,5153,5154,5155,5156,5157,5158,5159,5160,5153,5154,5155,5156,5157,5158,5159,5160,5153,5154,5155,5156,5157,5158,5159,5160,5153,5154,5155,5156,5157,5158,5159,5160,5153,5154,5155,5156,5157,5158,5159,5160,5153,5154,5155,5156,5157,5158,5159,5160,5153,5154,5155,5156,5157,5158,5159,5160,5153,5154,5155,5156,5157,5158,5159,5160,5153,5154,5155,5156,5157,5158,5159,5160,
5169,5170,5171,5172,5173,5174,5175,5176,5169,5170,5171,5172,5173,5174,5175,5176,5169,5170,5171,5172,5173,5174,5175,5176,5169,5170,5171,5172,5173,5174,5175,5176,5169,5170,5171,5172,5173,5174,5175,5176,5169,5170,5171,5172,5173,5174,5175,5176,5169,5170,5171,5172,5173,5174,5175,5176,5169,5170,5171,5172,5173,5174,5175,5176,5169,5170,5171,5172,5173,5174,5175,5176,5169,5170,5171,5172,5173,5174,5175,5176,5169,5170,5171,5172,5173,5174,5175,5176,5169,5170,5171,5172,5173,5174,5175,5176,5169,5170,5171,5172,5173,5174,5175,5176,5169,5170,5171,5172,5173,5174,5175,5176,5169,5170,5171,5172,5173,5174,5175,5176,5169,5170,5171,5172,5173,5174,5175,5176,5169,5170,5171,5172,5173,5174,5175,5176,5169,5170,5171,5172,5173,5174,5175,5176,5169,5170,5171,5172,5173,5174,5175,5176,5169,5170,5171,5172,5173,5174,5175,5176,5169,5170,5171,5172,5173,5174,5175,5176,5169,5170,5171,5172,5173,5174,5175,5176,5169,5170,5171,5172,5173,5174,5175,5176,5169,5170,5171,5172,5173,5174,5175,5176,5169,5170,5171,5172,5173,5174,5175,5176,
5185,5186,5187,5188,5189,5190,5191,5192,5185,5186,5187,5188,5189,5190,5191,5192,5185,5186,5187,5188,5189,5190,5191,5192,5185,5186,5187,5188,5189,5190,5191,5192,5185,5186,5187,5188,5189,5190,5191,5192,5185,5186,5187,5188,5189,5190,5191,5192,5185,5186,5187,5188,5189,5190,5191,5192,5185,5186,5187,5188,5189,5190,5191,5192,5185,5186,5187,5188,5189,5190,5191,5192,5185,5186,5187,5188,5189,5190,5191,5192,5185,5186,5187,5188,5189,5190,5191,5192,5185,5186,5187,5188,5189,5190,5191,5192,5185,5186,5187,5188,5189,5190,5191,5192,5185,5186,5187,5188,5189,5190,5191,5192,5185,5186,5187,5188,5189,5190,5191,5192,5185,5186,5187,5188,5189,5190,5191,5192,5185,5186,5187,5188,5189,5190,5191,5192,5185,5186,5187,5188,5189,5190,5191,5192,5185,5186,5187,5188,5189,5190,5191,5192,5185,5186,5187,5188,5189,5190,5191,5192,5185,5186,5187,5188,5189,5190,5191,5192,5185,5186,5187,5188,5189,5190,5191,5192,5185,5186,5187,5188,5189,5190,5191,5192,5185,5186,5187,5188,5189,5190,5191,5192,5185,5186,5187,5188,5189,5190,5191,5192,
5201,5202,5203,5204,5205,5206,5207,5208,5201,5202,5203,5204,5205,5206,5207,5208,5201,5202,5203,5204,5205,5206,5207,5208,5201,5202,5203,5204,5205,5206,5207,5208,5201,5202,5203,5204,5205,5206,5207,5208,5201,5202,5203,5204,5205,5206,5207,5208,5201,5202,5203,5204,5205,5206,5207,5208,5201,5202,5203,5204,5205,5206,5207,5208,5201,5202,5203,5204,5205,5206,5207,5208,5201,5202,5203,5204,5205,5206,5207,5208,5201,5202,5203,5204,5205,5206,5207,5208,5201,5202,5203,5204,5205,5206,5207,5208,5201,5202,5203,5204,5205,5206,5207,5208,5201,5202,5203,5204,5205,5206,5207,5208,5201,5202,5203,5204,5205,5206,5207,5208,5201,5202,5203,5204,5205,5206,5207,5208,5201,5202,5203,5204,5205,5206,5207,5208,5201,5202,5203,5204,5205,5206,5207,5208,5201,5202,5203,5204,5205,5206,5207,5208,5201,5202,5203,5204,5205,5206,5207,5208,5201,5202,5203,5204,5205,5206,5207,5208,5201,5202,5203,5204,5205,5206,5207,5208,5201,5202,5203,5204,5205,5206,5207,5208,5201,5202,5203,5204,5205,5206,5207,5208,5201,5202,5203,5204,5205,5206,5207,5208,
5217,5218,5219,5220,5221,5222,5223,5224,5217,5218,5219,5220,5221,5222,5223,5224,5217,5218,5219,5220,5221,5222,5223,5224,5217,5218,5219,5220,5221,5222,5223,5224,5217,5218,5219,5220,5221,5222,5223,5224,5217,5218,5219,5220,5221,5222,5223,5224,5217,5218,5219,5220,5221,5222,5223,5224,5217,5218,5219,5220,5221,5222,5223,5224,5217,5218,5219,5220,5221,5222,5223,5224,5217,5218,5219,5220,5221,5222,5223,5224,5217,5218,5219,5220,5221,5222,5223,5224,5217,5218,5219,5220,5221,5222,5223,5224,5217,5218,5219,5220,5221,5222,5223,5224,5217,5218,5219,5220,5221,5222,5223,5224,5217,5218,5219,5220,5221,5222,5223,5224,5217,5218,5219,5220,5221,5222,5223,5224,5217,5218,5219,5220,5221,5222,5223,5224,5217,5218,5219,5220,5221,5222,5223,5224,5217,5218,5219,5220,5221,5222,5223,5224,5217,5218,5219,5220,5221,5222,5223,5224,5217,5218,5219,5220,5221,5222,5223,5224,5217,5218,5219,5220,5221,5222,5223,5224,5217,5218,5219,5220,5221,5222,5223,5224,5217,5218,5219,5220,5221,5222,5223,5224,5217,5218,5219,5220,5221,5222,5223,5224,
5233,5234,5235,5236,5237,5238,5239,5240,5233,5234,5235,5236,5237,5238,5239,5240,5233,5234,5235,5236,5237,5238,5239,5240,5233,5234,5235,5236,5237,5238,5239,5240,5233,5234,5235,5236,5237,5238,5239,5240,5233,5234,5235,5236,5237,5238,5239,5240,5233,5234,5235,5236,5237,5238,5239,5240,5233,5234,5235,5236,5237,5238,5239,5240,5233,5234,5235,5236,5237,5238,5239,5240,5233,5234,5235,5236,5237,5238,5239,5240,5233,5234,5235,5236,5237,5238,5239,5240,5233,5234,5235,5236,5237,5238,5239,5240,5233,5234,5235,5236,5237,5238,5239,5240,5233,5234,5235,5236,5237,5238,5239,5240,5233,5234,5235,5236,5237,5238,5239,5240,5233,5234,5235,5236,5237,5238,5239,5240,5233,5234,5235,5236,5237,5238,5239,5240,5233,5234,5235,5236,5237,5238,5239,5240,5233,5234,5235,5236,5237,5238,5239,5240,5233,5234,5235,5236,5237,5238,5239,5240,5233,5234,5235,5236,5237,5238,5239,5240,5233,5234,5235,5236,5237,5238,5239,5240,5233,5234,5235,5236,5237,5238,5239,5240,5233,5234,5235,5236,5237,5238,5239,5240,5233,5234,5235,5236,5237,5238,5239,5240,
5121,5122,5123,5124,5125,5126,5127,5128,5121,5122,5123,5124,5125,5126,5127,5128,5121,5122,5123,5124,5125,5126,5127,5128,5121,5122,5123,5124,5125,5126,5127,5128,5121,5122,5123,5124,5125,5126,5127,5128,5121,5122,5123,5124,5125,5126,5127,5128,5121,5122,5123,5124,5125,5126,5127,5128,5121,5122,5123,5124,5125,5126,5127,5128,5121,5122,5123,5124,5125,5126,5127,5128,5121,5122,5123,5124,5125,5126,5127,5128,5121,5122,5123,5124,5125,5126,5127,5128,5121,5122,5123,5124,5125,5126,5127,5128,5121,5122,5123,5124,5125,5126,5127,5128,5121,5122,5123,5124,5125,5126,5127,5128,5121,5122,5123,5124,5125,5126,5127,5128,5121,5122,5123,5124,5125,5126,5127,5128,5121,5122,5123,5124,5125,5126,5127,5128,5121,5122,5123,5124,5125,5126,5127,5128,5121,5122,5123,5124,5125,5126,5127,5128,5121,5122,5123,5124,5125,5126,5127,5128,5121,5122,5123,5124,5125,5126,5127,5128,5121,5122,5123,5124,5125,5126,5127,5128,5121,5122,5123,5124,5125,5126,5127,5128,5121,5122,5123,5124,5125,5126,5127,5128,5121,5122,5123,5124,5125,5126,5127,5128,
5137,5138,5139,5140,5141,5142,5143,5144,5137,5138,5139,5140,5141,5142,5143,5144,5137,5138,5139,5140,5141,5142,5143,5144,5137,5138,5139,5140,5141,5142,5143,5144,5137,5138,5139,5140,5141,5142,5143,5144,5137,5138,5139,5140,5141,5142,5143,5144,5137,5138,5139,5140,5141,5142,5143,5144,5137,5138,5139,5140,5141,5142,5143,5144,5137,5138,5139,5140,5141,5142,5143,5144,5137,5138,5139,5140,5141,5142,5143,5144,5137,5138,5139,5140,5141,5142,5143,5144,5137,5138,5139,5140,5141,5142,5143,5144,5137,5138,5139,5140,5141,5142,5143,5144,5137,5138,5139,5140,5141,5142,5143,5144,5137,5138,5139,5140,5141,5142,5143,5144,5137,5138,5139,5140,5141,5142,5143,5144,5137,5138,5139,5140,5141,5142,5143,5144,5137,5138,5139,5140,5141,5142,5143,5144,5137,5138,5139,5140,5141,5142,5143,5144,5137,5138,5139,5140,5141,5142,5143,5144,5137,5138,5139,5140,5141,5142,5143,5144,5137,5138,5139,5140,5141,5142,5143,5144,5137,5138,5139,5140,5141,5142,5143,5144,5137,5138,5139,5140,5141,5142,5143,5144,5137,5138,5139,5140,5141,5142,5143,5144,
5153,5154,5155,5156,5157,5158,5159,5160,5153,5154,5155,5156,5157,5158,5159,5160,5153,5154,5155,5156,5157,5158,5159,5160,5153,5154,5155,5156,5157,5158,5159,5160,5153,5154,5155,5156,5157,5158,5159,5160,5153,5154,5155,5156,5157,5158,5159,5160,5153,5154,5155,5156,5157,5158,5159,5160,5153,5154,5155,5156,5157,5158,5159,5160,5153,5154,5155,5156,5157,5158,5159,5160,5153,5154,5155,5156,5157,5158,5159,5160,5153,5154,5155,5156,5157,5158,5159,5160,5153,5154,5155,5156,5157,5158,5159,5160,5153,5154,5155,5156,5157,5158,5159,5160,5153,5154,5155,5156,5157,5158,5159,5160,5153,5154,5155,5156,5157,5158,5159,5160,5153,5154,5155,5156,5157,5158,5159,5160,5153,5154,5155,5156,5157,5158,5159,5160,5153,5154,5155,5156,5157,5158,5159,5160,5153,5154,5155,5156,5157,5158,5159,5160,5153,5154,5155,5156,5157,5158,5159,5160,5153,5154,5155,5156,5157,5158,5159,5160,5153,5154,5155,5156,5157,5158,5159,5160,5153,5154,5155,5156,5157,5158,5159,5160,5153,5154,5155,5156,5157,5158,5159,5160,5153,5154,5155,5156,5157,5158,5159,5160,
5169,5170,5171,5172,5173,5174,5175,5176,5169,5170,5171,5172,5173,5174,5175,5176,5169,5170,5171,5172,5173,5174,5175,5176,5169,5170,5171,5172,5173,5174,5175,5176,5169,5170,5171,5172,5173,5174,5175,5176,5169,5170,5171,5172,5173,5174,5175,5176,5169,5170,5171,5172,5173,5174,5175,5176,5169,5170,5171,5172,5173,5174,5175,5176,5169,5170,5171,5172,5173,5174,5175,5176,5169,5170,5171,5172,5173,5174,5175,5176,5169,5170,5171,5172,5173,5174,5175,5176,5169,5170,5171,5172,5173,5174,5175,5176,5169,5170,5171,5172,5173,5174,5175,5176,5169,5170,5171,5172,5173,5174,5175,5176,5169,5170,5171,5172,5173,5174,5175,5176,5169,5170,5171,5172,5173,5174,5175,5176,5169,5170,5171,5172,5173,5174,5175,5176,5169,5170,5171,5172,5173,5174,5175,5176,5169,5170,5171,5172,5173,5174,5175,5176,5169,5170,5171,5172,5173,5174,5175,5176,5169,5170,5171,5172,5173,5174,5175,5176,5169,5170,5171,5172,5173,5174,5175,5176,5169,5170,5171,5172,5173,5174,5175,5176,5169,5170,5171,5172,5173,5174,5175,5176,5169,5170,5171,5172,5173,5174,5175,5176,
5185,5186,5187,5188,5189,5190,5191,5192,5185,5186,5187,5188,5189,5190,5191,5192,5185,5186,5187,5188,5189,5190,5191,5192,5185,5186,5187,5188,5189,5190,5191,5192,5185,5186,5187,5188,5189,5190,5191,5192,5185,5186,5187,5188,5189,5190,5191,5192,5185,5186,5187,5188,5189,5190,5191,5192,5185,5186,5187,5188,5189,5190,5191,5192,5185,5186,5187,5188,5189,5190,5191,5192,5185,5186,5187,5188,5189,5190,5191,5192,5185,5186,5187,5188,5189,5190,5191,5192,5185,5186,5187,5188,5189,5190,5191,5192,5185,5186,5187,5188,5189,5190,5191,5192,5185,5186,5187,5188,5189,5190,5191,5192,5185,5186,5187,5188,5189,5190,5191,5192,5185,5186,5187,5188,5189,5190,5191,5192,5185,5186,5187,5188,5189,5190,5191,5192,5185,5186,5187,5188,5189,5190,5191,5192,5185,5186,5187,5188,5189,5190,5191,5192,5185,5186,5187,5188,5189,5190,5191,5192,5185,5186,5187,5188,5189,5190,5191,5192,5185,5186,5187,5188,5189,5190,5191,5192,5185,5186,5187,5188,5189,5190,5191,5192,5185,5186,5187,5188,5189,5190,5191,5192,5185,5186,5187,5188,5189,5190,5191,5192,
5201,5202,5203,5204,5205,5206,5207,5208,5201,5202,5203,5204,5205,5206,5207,5208,5201,5202,5203,5204,5205,5206,5207,5208,5201,5202,5203,5204,5205,5206,5207,5208,5201,5202,5203,5204,5205,5206,5207,5208,5201,5202,5203,5204,5205,5206,5207,5208,5201,5202,5203,5204,5205,5206,5207,5208,5201,5202,5203,5204,5205,5206,5207,5208,5201,5202,5203,5204,5205,5206,5207,5208,5201,5202,5203,5204,5205,5206,5207,5208,5201,5202,5203,5204,5205,5206,5207,5208,5201,5202,5203,5204,5205,5206,5207,5208,5201,5202,5203,5204,5205,5206,5207,5208,5201,5202,5203,5204,5205,5206,5207,5208,5201,5202,5203,5204,5205,5206,5207,5208,5201,5202,5203,5204,5205,5206,5207,5208,5201,5202,5203,5204,5205,5206,5207,5208,5201,5202,5203,5204,5205,5206,5207,5208,5201,5202,5203,5204,5205,5206,5207,5208,5201,5202,5203,5204,5205,5206,5207,5208,5201,5202,5203,5204,5205,5206,5207,5208,5201,5202,5203,5204,5205,5206,5207,5208,5201,5202,5203,5204,5205,5206,5207,5208,5201,5202,5203,5204,5205,5206,5207,5208,5201,5202,5203,5204,5205,5206,5207,5208,
5217,5218,5219,5220,5221,5222,5223,5224,5217,5218,5219,5220,5221,5222,5223,5224,5217,5218,5219,5220,5221,5222,5223,5224,5217,5218,5219,5220,5221,5222,5223,5224,5217,5218,5219,5220,5221,5222,5223,5224,5217,5218,5219,5220,5221,5222,5223,5224,5217,5218,5219,5220,5221,5222,5223,5224,5217,5218,5219,5220,5221,5222,5223,5224,5217,5218,5219,5220,5221,5222,5223,5224,5217,5218,5219,5220,5221,5222,5223,5224,5217,5218,5219,5220,5221,5222,5223,5224,5217,5218,5219,5220,5221,5222,5223,5224,5217,5218,5219,5220,5221,5222,5223,5224,5217,5218,5219,5220,5221,5222,5223,5224,5217,5218,5219,5220,5221,5222,5223,5224,5217,5218,5219,5220,5221,5222,5223,5224,5217,5218,5219,5220,5221,5222,5223,5224,5217,5218,5219,5220,5221,5222,5223,5224,5217,5218,5219,5220,5221,5222,5223,5224,5217,5218,5219,5220,5221,5222,5223,5224,5217,5218,5219,5220,5221,5222,5223,5224,5217,5218,5219,5220,5221,5222,5223,5224,5217,5218,5219,5220,5221,5222,5223,5224,5217,5218,5219,5220,5221,5222,5223,5224,5217,5218,5219,5220,5221,5222,5223,5224,
5233,5234,5235,5236,5237,5238,5239,5240,5233,5234,5235,5236,5237,5238,5239,5240,5233,5234,5235,5236,5237,5238,5239,5240,5233,5234,5235,5236,5237,5238,5239,5240,5233,5234,5235,5236,5237,5238,5239,5240,5233,5234,5235,5236,5237,5238,5239,5240,5233,5234,5235,5236,5237,5238,5239,5240,5233,5234,5235,5236,5237,5238,5239,5240,5233,5234,5235,5236,5237,5238,5239,5240,5233,5234,5235,5236,5237,5238,5239,5240,5233,5234,5235,5236,5237,5238,5239,5240,5233,5234,5235,5236,5237,5238,5239,5240,5233,5234,5235,5236,5237,5238,5239,5240,5233,5234,5235,5236,5237,5238,5239,5240,5233,5234,5235,5236,5237,5238,5239,5240,5233,5234,5235,5236,5237,5238,5239,5240,5233,5234,5235,5236,5237,5238,5239,5240,5233,5234,5235,5236,5237,5238,5239,5240,5233,5234,5235,5236,5237,5238,5239,5240,5233,5234,5235,5236,5237,5238,5239,5240,5233,5234,5235,5236,5237,5238,5239,5240,5233,5234,5235,5236,5237,5238,5239,5240,5233,5234,5235,5236,5237,5238,5239,5240,5233,5234,5235,5236,5237,5238,5239,5240,5233,5234,5235,5236,5237,5238,5239,5240,
5121,5122,5123,5124,5125,5126,5127,5128,5121,5122,5123,5124,5125,5126,5127,5128,5121,5122,5123,5124,5125,5126,5127,5128,5121,5122,5123,5124,5125,5126,5127,5128,5121,5122,5123,5124,5125,5126,5127,5128,5121,5122,5123,5124,5125,5126,5127,5128,5121,5122,5123,5124,5125,5126,5127,5128,5121,5122,5123,5124,5125,5126,5127,5128,5121,5122,5123,5124,5125,5126,5127,5128,5121,5122,5123,5124,5125,5126,5127,5128,5121,5122,5123,5124,5125,5126,5127,5128,5121,5122,5123,5124,5125,5126,5127,5128,5121,5122,5123,5124,5125,5126,5127,5128,5121,5122,5123,5124,5125,5126,5127,5128,5121,5122,5123,5124,5125,5126,5127,5128,5121,5122,5123,5124,5125,5126,5127,5128,5121,5122,5123,5124,5125,5126,5127,5128,5121,5122,5123,5124,5125,5126,5127,5128,5121,5122,5123,5124,5125,5126,5127,5128,5121,5122,5123,5124,5125,5126,5127,5128,5121,5122,5123,5124,5125,5126,5127,5128,5121,5122,5123,5124,5125,5126,5127,5128,5121,5122,5123,5124,5125,5126,5127,5128,5121,5122,5123,5124,5125,5126,5127,5128,5121,5122,5123,5124,5125,5126,5127,5128,
5137,5138,5139,5140,5141,5142,5143,5144,5137,5138,5139,5140,5141,5142,5143,5144,5137,5138,5139,5140,5141,5142,5143,5144,5137,5138,5139,5140,5141,5142,5143,5144,5137,5138,5139,5140,5141,5142,5143,5144,5137,5138,5139,5140,5141,5142,5143,5144,5137,5138,5139,5140,5141,5142,5143,5144,5137,5138,5139,5140,5141,5142,5143,5144,5137,5138,5139,5140,5141,5142,5143,5144,5137,5138,5139,5140,5141,5142,5143,5144,5137,5138,5139,5140,5141,5142,5143,5144,5137,5138,5139,5140,5141,5142,5143,5144,5137,5138,5139,5140,5141,5142,5143,5144,5137,5138,5139,5140,5141,5142,5143,5144,5137,5138,5139,5140,5141,5142,5143,5144,5137,5138,5139,5140,5141,5142,5143,5144,5137,5138,5139,5140,5141,5142,5143,5144,5137,5138,5139,5140,5141,5142,5143,5144,5137,5138,5139,5140,5141,5142,5143,5144,5137,5138,5139,5140,5141,5142,5143,5144,5137,5138,5139,5140,5141,5142,5143,5144,5137,5138,5139,5140,5141,5142,5143,5144,5137,5138,5139,5140,5141,5142,5143,5144,5137,5138,5139,5140,5141,5142,5143,5144,5137,5138,5139,5140,5141,5142,5143,5144,
5153,5154,5155,5156,5157,5158,5159,5160,5153,5154,5155,5156,5157,5158,5159,5160,5153,5154,5155,5156,5157,5158,5159,5160,5153,5154,5155,5156,5157,5158,5159,5160,5153,5154,5155,5156,5157,5158,5159,5160,5153,5154,5155,5156,5157,5158,5159,5160,5153,5154,5155,5156,5157,5158,5159,5160,5153,5154,5155,5156,5157,5158,5159,5160,5153,5154,5155,5156,5157,5158,5159,5160,5153,5154,5155,5156,5157,5158,5159,5160,5153,5154,5155,5156,5157,5158,5159,5160,5153,5154,5155,5156,5157,5158,5159,5160,5153,5154,5155,5156,5157,5158,5159,5160,5153,5154,5155,5156,5157,5158,5159,5160,5153,5154,5155,5156,5157,5158,5159,5160,5153,5154,5155,5156,5157,5158,5159,5160,5153,5154,5155,5156,5157,5158,5159,5160,5153,5154,5155,5156,5157,5158,5159,5160,5153,5154,5155,5156,5157,5158,5159,5160,5153,5154,5155,5156,5157,5158,5159,5160,5153,5154,5155,5156,5157,5158,5159,5160,5153,5154,5155,5156,5157,5158,5159,5160,5153,5154,5155,5156,5157,5158,5159,5160,5153,5154,5155,5156,5157,5158,5159,5160,5153,5154,5155,5156,5157,5158,5159,5160,
5169,5170,5171,5172,5173,5174,5175,5176,5169,5170,5171,5172,5173,5174,5175,5176,5169,5170,5171,5172,5173,5174,5175,5176,5169,5170,5171,5172,5173,5174,5175,5176,5169,5170,5171,5172,5173,5174,5175,5176,5169,5170,5171,5172,5173,5174,5175,5176,5169,5170,5171,5172,5173,5174,5175,5176,5169,5170,5171,5172,5173,5174,5175,5176,5169,5170,5171,5172,5173,5174,5175,5176,5169,5170,5171,5172,5173,5174,5175,5176,5169,5170,5171,5172,5173,5174,5175,5176,5169,5170,5171,5172,5173,5174,5175,5176,5169,5170,5171,5172,5173,5174,5175,5176,5169,5170,5171,5172,5173,5174,5175,5176,5169,5170,5171,5172,5173,5174,5175,5176,5169,5170,5171,5172,5173,5174,5175,5176,5169,5170,5171,5172,5173,5174,5175,5176,5169,5170,5171,5172,5173,5174,5175,5176,5169,5170,5171,5172,5173,5174,5175,5176,5169,5170,5171,5172,5173,5174,5175,5176,5169,5170,5171,5172,5173,5174,5175,5176,5169,5170,5171,5172,5173,5174,5175,5176,5169,5170,5171,5172,5173,5174,5175,5176,5169,5170,5171,5172,5173,5174,5175,5176,5169,5170,5171,5172,5173,5174,5175,5176,
5185,5186,5187,5188,5189,5190,5191,5192,5185,5186,5187,5188,5189,5190,5191,5192,5185,5186,5187,5188,5189,5190,5191,5192,5185,5186,5187,5188,5189,5190,5191,5192,5185,5186,5187,5188,5189,5190,5191,5192,5185,5186,5187,5188,5189,5190,5191,5192,5185,5186,5187,5188,5189,5190,5191,5192,5185,5186,5187,5188,5189,5190,5191,5192,5185,5186,5187,5188,5189,5190,5191,5192,5185,5186,5187,5188,5189,5190,5191,5192,5185,5186,5187,5188,5189,5190,5191,5192,5185,5186,5187,5188,5189,5190,5191,5192,5185,5186,5187,5188,5189,5190,5191,5192,5185,5186,5187,5188,5189,5190,5191,5192,5185,5186,5187,5188,5189,5190,5191,5192,5185,5186,5187,5188,5189,5190,5191,5192,5185,5186,5187,5188,5189,5190,5191,5192,5185,5186,5187,5188,5189,5190,5191,5192,5185,5186,5187,5188,5189,5190,5191,5192,5185,5186,5187,5188,5189,5190,5191,5192,5185,5186,5187,5188,5189,5190,5191,5192,5185,5186,5187,5188,5189,5190,5191,5192,5185,5186,5187,5188,5189,5190,5191,5192,5185,5186,5187,5188,5189,5190,5191,5192,5185,5186,5187,5188,5189,5190,5191,5192,
5201,5202,5203,5204,5205,5206,5207,5208,5201,5202,5203,5204,5205,5206,5207,5208,5201,5202,5203,5204,5205,5206,5207,5208,5201,5202,5203,5204,5205,5206,5207,5208,5201,5202,5203,5204,5205,5206,5207,5208,5201,5202,5203,5204,5205,5206,5207,5208,5201,5202,5203,5204,5205,5206,5207,5208,5201,5202,5203,5204,5205,5206,5207,5208,5201,5202,5203,5204,5205,5206,5207,5208,5201,5202,5203,5204,5205,5206,5207,5208,5201,5202,5203,5204,5205,5206,5207,5208,5201,5202,5203,5204,5205,5206,5207,5208,5201,5202,5203,5204,5205,5206,5207,5208,5201,5202,5203,5204,5205,5206,5207,5208,5201,5202,5203,5204,5205,5206,5207,5208,5201,5202,5203,5204,5205,5206,5207,5208,5201,5202,5203,5204,5205,5206,5207,5208,5201,5202,5203,5204,5205,5206,5207,5208,5201,5202,5203,5204,5205,5206,5207,5208,5201,5202,5203,5204,5205,5206,5207,5208,5201,5202,5203,5204,5205,5206,5207,5208,5201,5202,5203,5204,5205,5206,5207,5208,5201,5202,5203,5204,5205,5206,5207,5208,5201,5202,5203,5204,5205,5206,5207,5208,5201,5202,5203,5204,5205,5206,5207,5208,
5217,5218,5219,5220,5221,5222,5223,5224,5217,5218,5219,5220,5221,5222,5223,5224,5217,5218,5219,5220,5221,5222,5223,5224,5217,5218,5219,5220,5221,5222,5223,5224,5217,5218,5219,5220,5221,5222,5223,5224,5217,5218,5219,5220,5221,5222,5223,5224,5217,5218,5219,5220,5221,5222,5223,5224,5217,5218,5219,5220,5221,5222,5223,5224,5217,5218,5219,5220,5221,5222,5223,5224,5217,5218,5219,5220,5221,5222,5223,5224,5217,5218,5219,5220,5221,5222,5223,5224,5217,5218,5219,5220,5221,5222,5223,5224,5217,5218,5219,5220,5221,5222,5223,5224,5217,5218,5219,5220,5221,5222,5223,5224,5217,5218,5219,5220,5221,5222,5223,5224,5217,5218,5219,5220,5221,5222,5223,5224,5217,5218,5219,5220,5221,5222,5223,5224,5217,5218,5219,5220,5221,5222,5223,5224,5217,5218,5219,5220,5221,5222,5223,5224,5217,5218,5219,5220,5221,5222,5223,5224,5217,5218,5219,5220,5221,5222,5223,5224,5217,5218,5219,5220,5221,5222,5223,5224,5217,5218,5219,5220,5221,5222,5223,5224,5217,5218,5219,5220,5221,5222,5223,5224,5217,5218,5219,5220,5221,5222,5223,5224,
5233,5234,5235,5236,5237,5238,5239,5240,5233,5234,5235,5236,5237,5238,5239,5240,5233,5234,5235,5236,5237,5238,5239,5240,5233,5234,5235,5236,5237,5238,5239,5240,5233,5234,5235,5236,5237,5238,5239,5240,5233,5234,5235,5236,5237,5238,5239,5240,5233,5234,5235,5236,5237,5238,5239,5240,5233,5234,5235,5236,5237,5238,5239,5240,5233,5234,5235,5236,5237,5238,5239,5240,5233,5234,5235,5236,5237,5238,5239,5240,5233,5234,5235,5236,5237,5238,5239,5240,5233,5234,5235,5236,5237,5238,5239,5240,5233,5234,5235,5236,5237,5238,5239,5240,5233,5234,5235,5236,5237,5238,5239,5240,5233,5234,5235,5236,5237,5238,5239,5240,5233,5234,5235,5236,5237,5238,5239,5240,5233,5234,5235,5236,5237,5238,5239,5240,5233,5234,5235,5236,5237,5238,5239,5240,5233,5234,5235,5236,5237,5238,5239,5240,5233,5234,5235,5236,5237,5238,5239,5240,5233,5234,5235,5236,5237,5238,5239,5240,5233,5234,5235,5236,5237,5238,5239,5240,5233,5234,5235,5236,5237,5238,5239,5240,5233,5234,5235,5236,5237,5238,5239,5240,5233,5234,5235,5236,5237,5238,5239,5240,
5121,5122,5123,5124,5125,5126,5127,5128,5121,5122,5123,5124,5125,5126,5127,5128,5121,5122,5123,5124,5125,5126,5127,5128,5121,5122,5123,5124,5125,5126,5127,5128,5121,5122,5123,5124,5125,5126,5127,5128,5121,5122,5123,5124,5125,5126,5127,5128,5121,5122,5123,5124,5125,5126,5127,5128,5121,5122,5123,5124,5125,5126,5127,5128,5121,5122,5123,5124,5125,5126,5127,5128,5121,5122,5123,5124,5125,5126,5127,5128,5121,5122,5123,5124,5125,5126,5127,5128,5121,5122,5123,5124,5125,5126,5127,5128,5121,5122,5123,5124,5125,5126,5127,5128,5121,5122,5123,5124,5125,5126,5127,5128,5121,5122,5123,5124,5125,5126,5127,5128,5121,5122,5123,5124,5125,5126,5127,5128,5121,5122,5123,5124,5125,5126,5127,5128,5121,5122,5123,5124,5125,5126,5127,5128,5121,5122,5123,5124,5125,5126,5127,5128,5121,5122,5123,5124,5125,5126,5127,5128,5121,5122,5123,5124,5125,5126,5127,5128,5121,5122,5123,5124,5125,5126,5127,5128,5121,5122,5123,5124,5125,5126,5127,5128,5121,5122,5123,5124,5125,5126,5127,5128,5121,5122,5123,5124,5125,5126,5127,5128,
5137,5138,5139,5140,5141,5142,5143,5144,5137,5138,5139,5140,5141,5142,5143,5144,5137,5138,5139,5140,5141,5142,5143,5144,5137,5138,5139,5140,5141,5142,5143,5144,5137,5138,5139,5140,5141,5142,5143,5144,5137,5138,5139,5140,5141,5142,5143,5144,5137,5138,5139,5140,5141,5142,5143,5144,5137,5138,5139,5140,5141,5142,5143,5144,5137,5138,5139,5140,5141,5142,5143,5144,5137,5138,5139,5140,5141,5142,5143,5144,5137,5138,5139,5140,5141,5142,5143,5144,5137,5138,5139,5140,5141,5142,5143,5144,5137,5138,5139,5140,5141,5142,5143,5144,5137,5138,5139,5140,5141,5142,5143,5144,5137,5138,5139,5140,5141,5142,5143,5144,5137,5138,5139,5140,5141,5142,5143,5144,5137,5138,5139,5140,5141,5142,5143,5144,5137,5138,5139,5140,5141,5142,5143,5144,5137,5138,5139,5140,5141,5142,5143,5144,5137,5138,5139,5140,5141,5142,5143,5144,5137,5138,5139,5140,5141,5142,5143,5144,5137,5138,5139,5140,5141,5142,5143,5144,5137,5138,5139,5140,5141,5142,5143,5144,5137,5138,5139,5140,5141,5142,5143,5144,5137,5138,5139,5140,5141,5142,5143,5144,
5153,5154,5155,5156,5157,5158,5159,5160,5153,5154,5155,5156,5157,5158,5159,5160,5153,5154,5155,5156,5157,5158,5159,5160,5153,5154,5155,5156,5157,5158,5159,5160,5153,5154,5155,5156,5157,5158,5159,5160,5153,5154,5155,5156,5157,5158,5159,5160,5153,5154,5155,5156,5157,5158,5159,5160,5153,5154,5155,5156,5157,5158,5159,5160,5153,5154,5155,5156,5157,5158,5159,5160,5153,5154,5155,5156,5157,5158,5159,5160,5153,5154,5155,5156,5157,5158,5159,5160,5153,5154,5155,5156,5157,5158,5159,5160,5153,5154,5155,5156,5157,5158,5159,5160,5153,5154,5155,5156,5157,5158,5159,5160,5153,5154,5155,5156,5157,5158,5159,5160,5153,5154,5155,5156,5157,5158,5159,5160,5153,5154,5155,5156,5157,5158,5159,5160,5153,5154,5155,5156,5157,5158,5159,5160,5153,5154,5155,5156,5157,5158,5159,5160,5153,5154,5155,5156,5157,5158,5159,5160,5153,5154,5155,5156,5157,5158,5159,5160,5153,5154,5155,5156,5157,5158,5159,5160,5153,5154,5155,5156,5157,5158,5159,5160,5153,5154,5155,5156,5157,5158,5159,5160,5153,5154,5155,5156,5157,5158,5159,5160,
5169,5170,5171,5172,5173,5174,5175,5176,5169,5170,5171,5172,5173,5174,5175,5176,5169,5170,5171,5172,5173,5174,5175,5176,5169,5170,5171,5172,5173,5174,5175,5176,5169,5170,5171,5172,5173,5174,5175,5176,5169,5170,5171,5172,5173,5174,5175,5176,5169,5170,5171,5172,5173,5174,5175,5176,5169,5170,5171,5172,5173,5174,5175,5176,5169,5170,5171,5172,5173,5174,5175,5176,5169,5170,5171,5172,5173,5174,5175,5176,5169,5170,5171,5172,5173,5174,5175,5176,5169,5170,5171,5172,5173,5174,5175,5176,5169,5170,5171,5172,5173,5174,5175,5176,5169,5170,5171,5172,5173,5174,5175,5176,5169,5170,5171,5172,5173,5174,5175,5176,5169,5170,5171,5172,5173,5174,5175,5176,5169,5170,5171,5172,5173,5174,5175,5176,5169,5170,5171,5172,5173,5174,5175,5176,5169,5170,5171,5172,5173,5174,5175,5176,5169,5170,5171,5172,5173,5174,5175,5176,5169,5170,5171,5172,5173,5174,5175,5176,5169,5170,5171,5172,5173,5174,5175,5176,5169,5170,5171,5172,5173,5174,5175,5176,5169,5170,5171,5172,5173,5174,5175,5176,5169,5170,5171,5172,5173,5174,5175,5176,
5185,5186,5187,5188,5189,5190,5191,5192,5185,5186,5187,5188,5189,5190,5191,5192,5185,5186,5187,5188,5189,5190,5191,5192,5185,5186,5187,5188,5189,5190,5191,5192,5185,5186,5187,5188,5189,5190,5191,5192,5185,5186,5187,5188,5189,5190,5191,5192,5185,5186,5187,5188,5189,5190,5191,5192,5185,5186,5187,5188,5189,5190,5191,5192,5185,5186,5187,5188,5189,5190,5191,5192,5185,5186,5187,5188,5189,5190,5191,5192,5185,5186,5187,5188,5189,5190,5191,5192,5185,5186,5187,5188,5189,5190,5191,5192,5185,5186,5187,5188,5189,5190,5191,5192,5185,5186,5187,5188,5189,5190,5191,5192,5185,5186,5187,5188,5189,5190,5191,5192,5185,5186,5187,5188,5189,5190,5191,5192,5185,5186,5187,5188,5189,5190,5191,5192,5185,5186,5187,5188,5189,5190,5191,5192,5185,5186,5187,5188,5189,5190,5191,5192,5185,5186,5187,5188,5189,5190,5191,5192,5185,5186,5187,5188,5189,5190,5191,5192,5185,5186,5187,5188,5189,5190,5191,5192,5185,5186,5187,5188,5189,5190,5191,5192,5185,5186,5187,5188,5189,5190,5191,5192,5185,5186,5187,5188,5189,5190,5191,5192,
5201,5202,5203,5204,5205,5206,5207,5208,5201,5202,5203,5204,5205,5206,5207,5208,5201,5202,5203,5204,5205,5206,5207,5208,5201,5202,5203,5204,5205,5206,5207,5208,5201,5202,5203,5204,5205,5206,5207,5208,5201,5202,5203,5204,5205,5206,5207,5208,5201,5202,5203,5204,5205,5206,5207,5208,5201,5202,5203,5204,5205,5206,5207,5208,5201,5202,5203,5204,5205,5206,5207,5208,5201,5202,5203,5204,5205,5206,5207,5208,5201,5202,5203,5204,5205,5206,5207,5208,5201,5202,5203,5204,5205,5206,5207,5208,5201,5202,5203,5204,5205,5206,5207,5208,5201,5202,5203,5204,5205,5206,5207,5208,5201,5202,5203,5204,5205,5206,5207,5208,5201,5202,5203,5204,5205,5206,5207,5208,5201,5202,5203,5204,5205,5206,5207,5208,5201,5202,5203,5204,5205,5206,5207,5208,5201,5202,5203,5204,5205,5206,5207,5208,5201,5202,5203,5204,5205,5206,5207,5208,5201,5202,5203,5204,5205,5206,5207,5208,5201,5202,5203,5204,5205,5206,5207,5208,5201,5202,5203,5204,5205,5206,5207,5208,5201,5202,5203,5204,5205,5206,5207,5208,5201,5202,5203,5204,5205,5206,5207,5208,
5217,5218,5219,5220,5221,5222,5223,5224,5217,5218,5219,5220,5221,5222,5223,5224,5217,5218,5219,5220,5221,5222,5223,5224,5217,5218,5219,5220,5221,5222,5223,5224,5217,5218,5219,5220,5221,5222,5223,5224,5217,5218,5219,5220,5221,5222,5223,5224,5217,5218,5219,5220,5221,5222,5223,5224,5217,5218,5219,5220,5221,5222,5223,5224,5217,5218,5219,5220,5221,5222,5223,5224,5217,5218,5219,5220,5221,5222,5223,5224,5217,5218,5219,5220,5221,5222,5223,5224,5217,5218,5219,5220,5221,5222,5223,5224,5217,5218,5219,5220,5221,5222,5223,5224,5217,5218,5219,5220,5221,5222,5223,5224,5217,5218,5219,5220,5221,5222,5223,5224,5217,5218,5219,5220,5221,5222,5223,5224,5217,5218,5219,5220,5221,5222,5223,5224,5217,5218,5219,5220,5221,5222,5223,5224,5217,5218,5219,5220,5221,5222,5223,5224,5217,5218,5219,5220,5221,5222,5223,5224,5217,5218,5219,5220,5221,5222,5223,5224,5217,5218,5219,5220,5221,5222,5223,5224,5217,5218,5219,5220,5221,5222,5223,5224,5217,5218,5219,5220,5221,5222,5223,5224,5217,5218,5219,5220,5221,5222,5223,5224,
5233,5234,5235,5236,5237,5238,5239,5240,5233,5234,5235,5236,5237,5238,5239,5240,5233,5234,5235,5236,5237,5238,5239,5240,5233,5234,5235,5236,5237,5238,5239,5240,5233,5234,5235,5236,5237,5238,5239,5240,5233,5234,5235,5236,5237,5238,5239,5240,5233,5234,5235,5236,5237,5238,5239,5240,5233,5234,5235,5236,5237,5238,5239,5240,5233,5234,5235,5236,5237,5238,5239,5240,5233,5234,5235,5236,5237,5238,5239,5240,5233,5234,5235,5236,5237,5238,5239,5240,5233,5234,5235,5236,5237,5238,5239,5240,5233,5234,5235,5236,5237,5238,5239,5240,5233,5234,5235,5236,5237,5238,5239,5240,5233,5234,5235,5236,5237,5238,5239,5240,5233,5234,5235,5236,5237,5238,5239,5240,5233,5234,5235,5236,5237,5238,5239,5240,5233,5234,5235,5236,5237,5238,5239,5240,5233,5234,5235,5236,5237,5238,5239,5240,5233,5234,5235,5236,5237,5238,5239,5240,5233,5234,5235,5236,5237,5238,5239,5240,5233,5234,5235,5236,5237,5238,5239,5240,5233,5234,5235,5236,5237,5238,5239,5240,5233,5234,5235,5236,5237,5238,5239,5240,5233,5234,5235,5236,5237,5238,5239,5240,
5121,5122,5123,5124,5125,5126,5127,5128,5121,5122,5123,5124,5125,5126,5127,5128,5121,5122,5123,5124,5125,5126,5127,5128,5121,5122,5123,5124,5125,5126,5127,5128,5121,5122,5123,5124,5125,5126,5127,5128,5121,5122,5123,5124,5125,5126,5127,5128,5121,5122,5123,5124,5125,5126,5127,5128,5121,5122,5123,5124,5125,5126,5127,5128,5121,5122,5123,5124,5125,5126,5127,5128,5121,5122,5123,5124,5125,5126,5127,5128,5121,5122,5123,5124,5125,5126,5127,5128,5121,5122,5123,5124,5125,5126,5127,5128,5121,5122,5123,5124,5125,5126,5127,5128,5121,5122,5123,5124,5125,5126,5127,5128,5121,5122,5123,5124,5125,5126,5127,5128,5121,5122,5123,5124,5125,5126,5127,5128,5121,5122,5123,5124,5125,5126,5127,5128,5121,5122,5123,5124,5125,5126,5127,5128,5121,5122,5123,5124,5125,5126,5127,5128,5121,5122,5123,5124,5125,5126,5127,5128,5121,5122,5123,5124,5125,5126,5127,5128,5121,5122,5123,5124,5125,5126,5127,5128,5121,5122,5123,5124,5125,5126,5127,5128,5121,5122,5123,5124,5125,5126,5127,5128,5121,5122,5123,5124,5125,5126,5127,5128,
5137,5138,5139,5140,5141,5142,5143,5144,5137,5138,5139,5140,5141,5142,5143,5144,5137,5138,5139,5140,5141,5142,5143,5144,5137,5138,5139,5140,5141,5142,5143,5144,5137,5138,5139,5140,5141,5142,5143,5144,5137,5138,5139,5140,5141,5142,5143,5144,5137,5138,5139,5140,5141,5142,5143,5144,5137,5138,5139,5140,5141,5142,5143,5144,5137,5138,5139,5140,5141,5142,5143,5144,5137,5138,5139,5140,5141,5142,5143,5144,5137,5138,5139,5140,5141,5142,5143,5144,5137,5138,5139,5140,5141,5142,5143,5144,5137,5138,5139,5140,5141,5142,5143,5144,5137,5138,5139,5140,5141,5142,5143,5144,5137,5138,5139,5140,5141,5142,5143,5144,5137,5138,5139,5140,5141,5142,5143,5144,5137,5138,5139,5140,5141,5142,5143,5144,5137,5138,5139,5140,5141,5142,5143,5144,5137,5138,5139,5140,5141,5142,5143,5144,5137,5138,5139,5140,5141,5142,5143,5144,5137,5138,5139,5140,5141,5142,5143,5144,5137,5138,5139,5140,5141,5142,5143,5144,5137,5138,5139,5140,5141,5142,5143,5144,5137,5138,5139,5140,5141,5142,5143,5144,5137,5138,5139,5140,5141,5142,5143,5144,
5153,5154,5155,5156,5157,5158,5159,5160,5153,5154,5155,5156,5157,5158,5159,5160,5153,5154,5155,5156,5157,5158,5159,5160,5153,5154,5155,5156,5157,5158,5159,5160,5153,5154,5155,5156,5157,5158,5159,5160,5153,5154,5155,5156,5157,5158,5159,5160,5153,5154,5155,5156,5157,5158,5159,5160,5153,5154,5155,5156,5157,5158,5159,5160,5153,5154,5155,5156,5157,5158,5159,5160,5153,5154,5155,5156,5157,5158,5159,5160,5153,5154,5155,5156,5157,5158,5159,5160,5153,5154,5155,5156,5157,5158,5159,5160,5153,5154,5155,5156,5157,5158,5159,5160,5153,5154,5155,5156,5157,5158,5159,5160,5153,5154,5155,5156,5157,5158,5159,5160,5153,5154,5155,5156,5157,5158,5159,5160,5153,5154,5155,5156,5157,5158,5159,5160,5153,5154,5155,5156,5157,5158,5159,5160,5153,5154,5155,5156,5157,5158,5159,5160,5153,5154,5155,5156,5157,5158,5159,5160,5153,5154,5155,5156,5157,5158,5159,5160,5153,5154,5155,5156,5157,5158,5159,5160,5153,5154,5155,5156,5157,5158,5159,5160,5153,5154,5155,5156,5157,5158,5159,5160,5153,5154,5155,5156,5157,5158,5159,5160,
5169,5170,5171,5172,5173,5174,5175,5176,5169,5170,5171,5172,5173,5174,5175,5176,5169,5170,5171,5172,5173,5174,5175,5176,5169,5170,5171,5172,5173,5174,5175,5176,5169,5170,5171,5172,5173,5174,5175,5176,5169,5170,5171,5172,5173,5174,5175,5176,5169,5170,5171,5172,5173,5174,5175,5176,5169,5170,5171,5172,5173,5174,5175,5176,5169,5170,5171,5172,5173,5174,5175,5176,5169,5170,5171,5172,5173,5174,5175,5176,5169,5170,5171,5172,5173,5174,5175,5176,5169,5170,5171,5172,5173,5174,5175,5176,5169,5170,5171,5172,5173,5174,5175,5176,5169,5170,5171,5172,5173,5174,5175,5176,5169,5170,5171,5172,5173,5174,5175,5176,5169,5170,5171,5172,5173,5174,5175,5176,5169,5170,5171,5172,5173,5174,5175,5176,5169,5170,5171,5172,5173,5174,5175,5176,5169,5170,5171,5172,5173,5174,5175,5176,5169,5170,5171,5172,5173,5174,5175,5176,5169,5170,5171,5172,5173,5174,5175,5176,5169,5170,5171,5172,5173,5174,5175,5176,5169,5170,5171,5172,5173,5174,5175,5176,5169,5170,5171,5172,5173,5174,5175,5176,5169,5170,5171,5172,5173,5174,5175,5176,
5185,5186,5187,5188,5189,5190,5191,5192,5185,5186,5187,5188,5189,5190,5191,5192,5185,5186,5187,5188,5189,5190,5191,5192,5185,5186,5187,5188,5189,5190,5191,5192,5185,5186,5187,5188,5189,5190,5191,5192,5185,5186,5187,5188,5189,5190,5191,5192,5185,5186,5187,5188,5189,5190,5191,5192,5185,5186,5187,5188,5189,5190,5191,5192,5185,5186,5187,5188,5189,5190,5191,5192,5185,5186,5187,5188,5189,5190,5191,5192,5185,5186,5187,5188,5189,5190,5191,5192,5185,5186,5187,5188,5189,5190,5191,5192,5185,5186,5187,5188,5189,5190,5191,5192,5185,5186,5187,5188,5189,5190,5191,5192,5185,5186,5187,5188,5189,5190,5191,5192,5185,5186,5187,5188,5189,5190,5191,5192,5185,5186,5187,5188,5189,5190,5191,5192,5185,5186,5187,5188,5189,5190,5191,5192,5185,5186,5187,5188,5189,5190,5191,5192,5185,5186,5187,5188,5189,5190,5191,5192,5185,5186,5187,5188,5189,5190,5191,5192,5185,5186,5187,5188,5189,5190,5191,5192,5185,5186,5187,5188,5189,5190,5191,5192,5185,5186,5187,5188,5189,5190,5191,5192,5185,5186,5187,5188,5189,5190,5191,5192,
5201,5202,5203,5204,5205,5206,5207,5208,5201,5202,5203,5204,5205,5206,5207,5208,5201,5202,5203,5204,5205,5206,5207,5208,5201,5202,5203,5204,5205,5206,5207,5208,5201,5202,5203,5204,5205,5206,5207,5208,5201,5202,5203,5204,5205,5206,5207,5208,5201,5202,5203,5204,5205,5206,5207,5208,5201,5202,5203,5204,5205,5206,5207,5208,5201,5202,5203,5204,5205,5206,5207,5208,5201,5202,5203,5204,5205,5206,5207,5208,5201,5202,5203,5204,5205,5206,5207,5208,5201,5202,5203,5204,5205,5206,5207,5208,5201,5202,5203,5204,5205,5206,5207,5208,5201,5202,5203,5204,5205,5206,5207,5208,5201,5202,5203,5204,5205,5206,5207,5208,5201,5202,5203,5204,5205,5206,5207,5208,5201,5202,5203,5204,5205,5206,5207,5208,5201,5202,5203,5204,5205,5206,5207,5208,5201,5202,5203,5204,5205,5206,5207,5208,5201,5202,5203,5204,5205,5206,5207,5208,5201,5202,5203,5204,5205,5206,5207,5208,5201,5202,5203,5204,5205,5206,5207,5208,5201,5202,5203,5204,5205,5206,5207,5208,5201,5202,5203,5204,5205,5206,5207,5208,5201,5202,5203,5204,5205,5206,5207,5208,
5217,5218,5219,5220,5221,5222,5223,5224,5217,5218,5219,5220,5221,5222,5223,5224,5217,5218,5219,5220,5221,5222,5223,5224,5217,5218,5219,5220,5221,5222,5223,5224,5217,5218,5219,5220,5221,5222,5223,5224,5217,5218,5219,5220,5221,5222,5223,5224,5217,5218,5219,5220,5221,5222,5223,5224,5217,5218,5219,5220,5221,5222,5223,5224,5217,5218,5219,5220,5221,5222,5223,5224,5217,5218,5219,5220,5221,5222,5223,5224,5217,5218,5219,5220,5221,5222,5223,5224,5217,5218,5219,5220,5221,5222,5223,5224,5217,5218,5219,5220,5221,5222,5223,5224,5217,5218,5219,5220,5221,5222,5223,5224,5217,5218,5219,5220,5221,5222,5223,5224,5217,5218,5219,5220,5221,5222,5223,5224,5217,5218,5219,5220,5221,5222,5223,5224,5217,5218,5219,5220,5221,5222,5223,5224,5217,5218,5219,5220,5221,5222,5223,5224,5217,5218,5219,5220,5221,5222,5223,5224,5217,5218,5219,5220,5221,5222,5223,5224,5217,5218,5219,5220,5221,5222,5223,5224,5217,5218,5219,5220,5221,5222,5223,5224,5217,5218,5219,5220,5221,5222,5223,5224,5217,5218,5219,5220,5221,5222,5223,5224,
5233,5234,5235,5236,5237,5238,5239,5240,5233,5234,5235,5236,5237,5238,5239,5240,5233,5234,5235,5236,5237,5238,5239,5240,5233,5234,5235,5236,5237,5238,5239,5240,5233,5234,5235,5236,5237,5238,5239,5240,5233,5234,5235,5236,5237,5238,5239,5240,5233,5234,5235,5236,5237,5238,5239,5240,5233,5234,5235,5236,5237,5238,5239,5240,5233,5234,5235,5236,5237,5238,5239,5240,5233,5234,5235,5236,5237,5238,5239,5240,5233,5234,5235,5236,5237,5238,5239,5240,5233,5234,5235,5236,5237,5238,5239,5240,5233,5234,5235,5236,5237,5238,5239,5240,5233,5234,5235,5236,5237,5238,5239,5240,5233,5234,5235,5236,5237,5238,5239,5240,5233,5234,5235,5236,5237,5238,5239,5240,5233,5234,5235,5236,5237,5238,5239,5240,5233,5234,5235,5236,5237,5238,5239,5240,5233,5234,5235,5236,5237,5238,5239,5240,5233,5234,5235,5236,5237,5238,5239,5240,5233,5234,5235,5236,5237,5238,5239,5240,5233,5234,5235,5236,5237,5238,5239,5240,5233,5234,5235,5236,5237,5238,5239,5240,5233,5234,5235,5236,5237,5238,5239,5240,5233,5234,5235,5236,5237,5238,5239,5240,
5121,5122,5123,5124,5125,5126,5127,5128,5121,5122,5123,5124,5125,5126,5127,5128,5121,5122,5123,5124,5125,5126,5127,5128,5121,5122,5123,5124,5125,5126,5127,5128,5121,5122,5123,5124,5125,5126,5127,5128,5121,5122,5123,5124,5125,5126,5127,5128,5121,5122,5123,5124,5125,5126,5127,5128,5121,5122,5123,5124,5125,5126,5127,5128,5121,5122,5123,5124,5125,5126,5127,5128,5121,5122,5123,5124,5125,5126,5127,5128,5121,5122,5123,5124,5125,5126,5127,5128,5121,5122,5123,5124,5125,5126,5127,5128,5121,5122,5123,5124,5125,5126,5127,5128,5121,5122,5123,5124,5125,5126,5127,5128,5121,5122,5123,5124,5125,5126,5127,5128,5121,5122,5123,5124,5125,5126,5127,5128,5121,5122,5123,5124,5125,5126,5127,5128,5121,5122,5123,5124,5125,5126,5127,5128,5121,5122,5123,5124,5125,5126,5127,5128,5121,5122,5123,5124,5125,5126,5127,5128,5121,5122,5123,5124,5125,5126,5127,5128,5121,5122,5123,5124,5125,5126,5127,5128,5121,5122,5123,5124,5125,5126,5127,5128,5121,5122,5123,5124,5125,5126,5127,5128,5121,5122,5123,5124,5125,5126,5127,5128,
5137,5138,5139,5140,5141,5142,5143,5144,5137,5138,5139,5140,5141,5142,5143,5144,5137,5138,5139,5140,5141,5142,5143,5144,5137,5138,5139,5140,5141,5142,5143,5144,5137,5138,5139,5140,5141,5142,5143,5144,5137,5138,5139,5140,5141,5142,5143,5144,5137,5138,5139,5140,5141,5142,5143,5144,5137,5138,5139,5140,5141,5142,5143,5144,5137,5138,5139,5140,5141,5142,5143,5144,5137,5138,5139,5140,5141,5142,5143,5144,5137,5138,5139,5140,5141,5142,5143,5144,5137,5138,5139,5140,5141,5142,5143,5144,5137,5138,5139,5140,5141,5142,5143,5144,5137,5138,5139,5140,5141,5142,5143,5144,5137,5138,5139,5140,5141,5142,5143,5144,5137,5138,5139,5140,5141,5142,5143,5144,5137,5138,5139,5140,5141,5142,5143,5144,5137,5138,5139,5140,5141,5142,5143,5144,5137,5138,5139,5140,5141,5142,5143,5144,5137,5138,5139,5140,5141,5142,5143,5144,5137,5138,5139,5140,5141,5142,5143,5144,5137,5138,5139,5140,5141,5142,5143,5144,5137,5138,5139,5140,5141,5142,5143,5144,5137,5138,5139,5140,5141,5142,5143,5144,5137,5138,5139,5140,5141,5142,5143,5144,
5153,5154,5155,5156,5157,5158,5159,5160,5153,5154,5155,5156,5157,5158,5159,5160,5153,5154,5155,5156,5157,5158,5159,5160,5153,5154,5155,5156,5157,5158,5159,5160,5153,5154,5155,5156,5157,5158,5159,5160,5153,5154,5155,5156,5157,5158,5159,5160,5153,5154,5155,5156,5157,5158,5159,5160,5153,5154,5155,5156,5157,5158,5159,5160,5153,5154,5155,5156,5157,5158,5159,5160,5153,5154,5155,5156,5157,5158,5159,5160,5153,5154,5155,5156,5157,5158,5159,5160,5153,5154,5155,5156,5157,5158,5159,5160,5153,5154,5155,5156,5157,5158,5159,5160,5153,5154,5155,5156,5157,5158,5159,5160,5153,5154,5155,5156,5157,5158,5159,5160,5153,5154,5155,5156,5157,5158,5159,5160,5153,5154,5155,5156,5157,5158,5159,5160,5153,5154,5155,5156,5157,5158,5159,5160,5153,5154,5155,5156,5157,5158,5159,5160,5153,5154,5155,5156,5157,5158,5159,5160,5153,5154,5155,5156,5157,5158,5159,5160,5153,5154,5155,5156,5157,5158,5159,5160,5153,5154,5155,5156,5157,5158,5159,5160,5153,5154,5155,5156,5157,5158,5159,5160,5153,5154,5155,5156,5157,5158,5159,5160,
5169,5170,5171,5172,5173,5174,5175,5176,5169,5170,5171,5172,5173,5174,5175,5176,5169,5170,5171,5172,5173,5174,5175,5176,5169,5170,5171,5172,5173,5174,5175,5176,5169,5170,5171,5172,5173,5174,5175,5176,5169,5170,5171,5172,5173,5174,5175,5176,5169,5170,5171,5172,5173,5174,5175,5176,5169,5170,5171,5172,5173,5174,5175,5176,5169,5170,5171,5172,5173,5174,5175,5176,5169,5170,5171,5172,5173,5174,5175,5176,5169,5170,5171,5172,5173,5174,5175,5176,5169,5170,5171,5172,5173,5174,5175,5176,5169,5170,5171,5172,5173,5174,5175,5176,5169,5170,5171,5172,5173,5174,5175,5176,5169,5170,5171,5172,5173,5174,5175,5176,5169,5170,5171,5172,5173,5174,5175,5176,5169,5170,5171,5172,5173,5174,5175,5176,5169,5170,5171,5172,5173,5174,5175,5176,5169,5170,5171,5172,5173,5174,5175,5176,5169,5170,5171,5172,5173,5174,5175,5176,5169,5170,5171,5172,5173,5174,5175,5176,5169,5170,5171,5172,5173,5174,5175,5176,5169,5170,5171,5172,5173,5174,5175,5176,5169,5170,5171,5172,5173,5174,5175,5176,5169,5170,5171,5172,5173,5174,5175,5176,
5185,5186,5187,5188,5189,5190,5191,5192,5185,5186,5187,5188,5189,5190,5191,5192,5185,5186,5187,5188,5189,5190,5191,5192,5185,5186,5187,5188,5189,5190,5191,5192,5185,5186,5187,5188,5189,5190,5191,5192,5185,5186,5187,5188,5189,5190,5191,5192,5185,5186,5187,5188,5189,5190,5191,5192,5185,5186,5187,5188,5189,5190,5191,5192,5185,5186,5187,5188,5189,5190,5191,5192,5185,5186,5187,5188,5189,5190,5191,5192,5185,5186,5187,5188,5189,5190,5191,5192,5185,5186,5187,5188,5189,5190,5191,5192,5185,5186,5187,5188,5189,5190,5191,5192,5185,5186,5187,5188,5189,5190,5191,5192,5185,5186,5187,5188,5189,5190,5191,5192,5185,5186,5187,5188,5189,5190,5191,5192,5185,5186,5187,5188,5189,5190,5191,5192,5185,5186,5187,5188,5189,5190,5191,5192,5185,5186,5187,5188,5189,5190,5191,5192,5185,5186,5187,5188,5189,5190,5191,5192,5185,5186,5187,5188,5189,5190,5191,5192,5185,5186,5187,5188,5189,5190,5191,5192,5185,5186,5187,5188,5189,5190,5191,5192,5185,5186,5187,5188,5189,5190,5191,5192,5185,5186,5187,5188,5189,5190,5191,5192,
5201,5202,5203,5204,5205,5206,5207,5208,5201,5202,5203,5204,5205,5206,5207,5208,5201,5202,5203,5204,5205,5206,5207,5208,5201,5202,5203,5204,5205,5206,5207,5208,5201,5202,5203,5204,5205,5206,5207,5208,5201,5202,5203,5204,5205,5206,5207,5208,5201,5202,5203,5204,5205,5206,5207,5208,5201,5202,5203,5204,5205,5206,5207,5208,5201,5202,5203,5204,5205,5206,5207,5208,5201,5202,5203,5204,5205,5206,5207,5208,5201,5202,5203,5204,5205,5206,5207,5208,5201,5202,5203,5204,5205,5206,5207,5208,5201,5202,5203,5204,5205,5206,5207,5208,5201,5202,5203,5204,5205,5206,5207,5208,5201,5202,5203,5204,5205,5206,5207,5208,5201,5202,5203,5204,5205,5206,5207,5208,5201,5202,5203,5204,5205,5206,5207,5208,5201,5202,5203,5204,5205,5206,5207,5208,5201,5202,5203,5204,5205,5206,5207,5208,5201,5202,5203,5204,5205,5206,5207,5208,5201,5202,5203,5204,5205,5206,5207,5208,5201,5202,5203,5204,5205,5206,5207,5208,5201,5202,5203,5204,5205,5206,5207,5208,5201,5202,5203,5204,5205,5206,5207,5208,5201,5202,5203,5204,5205,5206,5207,5208,
5217,5218,5219,5220,5221,5222,5223,5224,5217,5218,5219,5220,5221,5222,5223,5224,5217,5218,5219,5220,5221,5222,5223,5224,5217,5218,5219,5220,5221,5222,5223,5224,5217,5218,5219,5220,5221,5222,5223,5224,5217,5218,5219,5220,5221,5222,5223,5224,5217,5218,5219,5220,5221,5222,5223,5224,5217,5218,5219,5220,5221,5222,5223,5224,5217,5218,5219,5220,5221,5222,5223,5224,5217,5218,5219,5220,5221,5222,5223,5224,5217,5218,5219,5220,5221,5222,5223,5224,5217,5218,5219,5220,5221,5222,5223,5224,5217,5218,5219,5220,5221,5222,5223,5224,5217,5218,5219,5220,5221,5222,5223,5224,5217,5218,5219,5220,5221,5222,5223,5224,5217,5218,5219,5220,5221,5222,5223,5224,5217,5218,5219,5220,5221,5222,5223,5224,5217,5218,5219,5220,5221,5222,5223,5224,5217,5218,5219,5220,5221,5222,5223,5224,5217,5218,5219,5220,5221,5222,5223,5224,5217,5218,5219,5220,5221,5222,5223,5224,5217,5218,5219,5220,5221,5222,5223,5224,5217,5218,5219,5220,5221,5222,5223,5224,5217,5218,5219,5220,5221,5222,5223,5224,5217,5218,5219,5220,5221,5222,5223,5224,
5233,5234,5235,5236,5237,5238,5239,5240,5233,5234,5235,5236,5237,5238,5239,5240,5233,5234,5235,5236,5237,5238,5239,5240,5233,5234,5235,5236,5237,5238,5239,5240,5233,5234,5235,5236,5237,5238,5239,5240,5233,5234,5235,5236,5237,5238,5239,5240,5233,5234,5235,5236,5237,5238,5239,5240,5233,5234,5235,5236,5237,5238,5239,5240,5233,5234,5235,5236,5237,5238,5239,5240,5233,5234,5235,5236,5237,5238,5239,5240,5233,5234,5235,5236,5237,5238,5239,5240,5233,5234,5235,5236,5237,5238,5239,5240,5233,5234,5235,5236,5237,5238,5239,5240,5233,5234,5235,5236,5237,5238,5239,5240,5233,5234,5235,5236,5237,5238,5239,5240,5233,5234,5235,5236,5237,5238,5239,5240,5233,5234,5235,5236,5237,5238,5239,5240,5233,5234,5235,5236,5237,5238,5239,5240,5233,5234,5235,5236,5237,5238,5239,5240,5233,5234,5235,5236,5237,5238,5239,5240,5233,5234,5235,5236,5237,5238,5239,5240,5233,5234,5235,5236,5237,5238,5239,5240,5233,5234,5235,5236,5237,5238,5239,5240,5233,5234,5235,5236,5237,5238,5239,5240,5233,5234,5235,5236,5237,5238,5239,5240,
5121,5122,5123,5124,5125,5126,5127,5128,5121,5122,5123,5124,5125,5126,5127,5128,5121,5122,5123,5124,5125,5126,5127,5128,5121,5122,5123,5124,5125,5126,5127,5128,5121,5122,5123,5124,5125,5126,5127,5128,5121,5122,5123,5124,5125,5126,5127,5128,5121,5122,5123,5124,5125,5126,5127,5128,5121,5122,5123,5124,5125,5126,5127,5128,5121,5122,5123,5124,5125,5126,5127,5128,5121,5122,5123,5124,5125,5126,5127,5128,5121,5122,5123,5124,5125,5126,5127,5128,5121,5122,5123,5124,5125,5126,5127,5128,5121,5122,5123,5124,5125,5126,5127,5128,5121,5122,5123,5124,5125,5126,5127,5128,5121,5122,5123,5124,5125,5126,5127,5128,5121,5122,5123,5124,5125,5126,5127,5128,5121,5122,5123,5124,5125,5126,5127,5128,5121,5122,5123,5124,5125,5126,5127,5128,5121,5122,5123,5124,5125,5126,5127,5128,5121,5122,5123,5124,5125,5126,5127,5128,5121,5122,5123,5124,5125,5126,5127,5128,5121,5122,5123,5124,5125,5126,5127,5128,5121,5122,5123,5124,5125,5126,5127,5128,5121,5122,5123,5124,5125,5126,5127,5128,5121,5122,5123,5124,5125,5126,5127,5128,
5137,5138,5139,5140,5141,5142,5143,5144,5137,5138,5139,5140,5141,5142,5143,5144,5137,5138,5139,5140,5141,5142,5143,5144,5137,5138,5139,5140,5141,5142,5143,5144,5137,5138,5139,5140,5141,5142,5143,5144,5137,5138,5139,5140,5141,5142,5143,5144,5137,5138,5139,5140,5141,5142,5143,5144,5137,5138,5139,5140,5141,5142,5143,5144,5137,5138,5139,5140,5141,5142,5143,5144,5137,5138,5139,5140,5141,5142,5143,5144,5137,5138,5139,5140,5141,5142,5143,5144,5137,5138,5139,5140,5141,5142,5143,5144,5137,5138,5139,5140,5141,5142,5143,5144,5137,5138,5139,5140,5141,5142,5143,5144,5137,5138,5139,5140,5141,5142,5143,5144,5137,5138,5139,5140,5141,5142,5143,5144,5137,5138,5139,5140,5141,5142,5143,5144,5137,5138,5139,5140,5141,5142,5143,5144,5137,5138,5139,5140,5141,5142,5143,5144,5137,5138,5139,5140,5141,5142,5143,5144,5137,5138,5139,5140,5141,5142,5143,5144,5137,5138,5139,5140,5141,5142,5143,5144,5137,5138,5139,5140,5141,5142,5143,5144,5137,5138,5139,5140,5141,5142,5143,5144,5137,5138,5139,5140,5141,5142,5143,5144,
5153,5154,5155,5156,5157,5158,5159,5160,5153,5154,5155,5156,5157,5158,5159,5160,5153,5154,5155,5156,5157,5158,5159,5160,5153,5154,5155,5156,5157,5158,5159,5160,5153,5154,5155,5156,5157,5158,5159,5160,5153,5154,5155,5156,5157,5158,5159,5160,5153,5154,5155,5156,5157,5158,5159,5160,5153,5154,5155,5156,5157,5158,5159,5160,5153,5154,5155,5156,5157,5158,5159,5160,5153,5154,5155,5156,5157,5158,5159,5160,5153,5154,5155,5156,5157,5158,5159,5160,5153,5154,5155,5156,5157,5158,5159,5160,5153,5154,5155,5156,5157,5158,5159,5160,5153,5154,5155,5156,5157,5158,5159,5160,5153,5154,5155,5156,5157,5158,5159,5160,5153,5154,5155,5156,5157,5158,5159,5160,5153,5154,5155,5156,5157,5158,5159,5160,5153,5154,5155,5156,5157,5158,5159,5160,5153,5154,5155,5156,5157,5158,5159,5160,5153,5154,5155,5156,5157,5158,5159,5160,5153,5154,5155,5156,5157,5158,5159,5160,5153,5154,5155,5156,5157,5158,5159,5160,5153,5154,5155,5156,5157,5158,5159,5160,5153,5154,5155,5156,5157,5158,5159,5160,5153,5154,5155,5156,5157,5158,5159,5160,
5169,5170,5171,5172,5173,5174,5175,5176,5169,5170,5171,5172,5173,5174,5175,5176,5169,5170,5171,5172,5173,5174,5175,5176,5169,5170,5171,5172,5173,5174,5175,5176,5169,5170,5171,5172,5173,5174,5175,5176,5169,5170,5171,5172,5173,5174,5175,5176,5169,5170,5171,5172,5173,5174,5175,5176,5169,5170,5171,5172,5173,5174,5175,5176,5169,5170,5171,5172,5173,5174,5175,5176,5169,5170,5171,5172,5173,5174,5175,5176,5169,5170,5171,5172,5173,5174,5175,5176,5169,5170,5171,5172,5173,5174,5175,5176,5169,5170,5171,5172,5173,5174,5175,5176,5169,5170,5171,5172,5173,5174,5175,5176,5169,5170,5171,5172,5173,5174,5175,5176,5169,5170,5171,5172,5173,5174,5175,5176,5169,5170,5171,5172,5173,5174,5175,5176,5169,5170,5171,5172,5173,5174,5175,5176,5169,5170,5171,5172,5173,5174,5175,5176,5169,5170,5171,5172,5173,5174,5175,5176,5169,5170,5171,5172,5173,5174,5175,5176,5169,5170,5171,5172,5173,5174,5175,5176,5169,5170,5171,5172,5173,5174,5175,5176,5169,5170,5171,5172,5173,5174,5175,5176,5169,5170,5171,5172,5173,5174,5175,5176,
5185,5186,5187,5188,5189,5190,5191,5192,5185,5186,5187,5188,5189,5190,5191,5192,5185,5186,5187,5188,5189,5190,5191,5192,5185,5186,5187,5188,5189,5190,5191,5192,5185,5186,5187,5188,5189,5190,5191,5192,5185,5186,5187,5188,5189,5190,5191,5192,5185,5186,5187,5188,5189,5190,5191,5192,5185,5186,5187,5188,5189,5190,5191,5192,5185,5186,5187,5188,5189,5190,5191,5192,5185,5186,5187,5188,5189,5190,5191,5192,5185,5186,5187,5188,5189,5190,5191,5192,5185,5186,5187,5188,5189,5190,5191,5192,5185,5186,5187,5188,5189,5190,5191,5192,5185,5186,5187,5188,5189,5190,5191,5192,5185,5186,5187,5188,5189,5190,5191,5192,5185,5186,5187,5188,5189,5190,5191,5192,5185,5186,5187,5188,5189,5190,5191,5192,5185,5186,5187,5188,5189,5190,5191,5192,5185,5186,5187,5188,5189,5190,5191,5192,5185,5186,5187,5188,5189,5190,5191,5192,5185,5186,5187,5188,5189,5190,5191,5192,5185,5186,5187,5188,5189,5190,5191,5192,5185,5186,5187,5188,5189,5190,5191,5192,5185,5186,5187,5188,5189,5190,5191,5192,5185,5186,5187,5188,5189,5190,5191,5192,
5201,5202,5203,5204,5205,5206,5207,5208,5201,5202,5203,5204,5205,5206,5207,5208,5201,5202,5203,5204,5205,5206,5207,5208,5201,5202,5203,5204,5205,5206,5207,5208,5201,5202,5203,5204,5205,5206,5207,5208,5201,5202,5203,5204,5205,5206,5207,5208,5201,5202,5203,5204,5205,5206,5207,5208,5201,5202,5203,5204,5205,5206,5207,5208,5201,5202,5203,5204,5205,5206,5207,5208,5201,5202,5203,5204,5205,5206,5207,5208,5201,5202,5203,5204,5205,5206,5207,5208,5201,5202,5203,5204,5205,5206,5207,5208,5201,5202,5203,5204,5205,5206,5207,5208,5201,5202,5203,5204,5205,5206,5207,5208,5201,5202,5203,5204,5205,5206,5207,5208,5201,5202,5203,5204,5205,5206,5207,5208,5201,5202,5203,5204,5205,5206,5207,5208,5201,5202,5203,5204,5205,5206,5207,5208,5201,5202,5203,5204,5205,5206,5207,5208,5201,5202,5203,5204,5205,5206,5207,5208,5201,5202,5203,5204,5205,5206,5207,5208,5201,5202,5203,5204,5205,5206,5207,5208,5201,5202,5203,5204,5205,5206,5207,5208,5201,5202,5203,5204,5205,5206,5207,5208,5201,5202,5203,5204,5205,5206,5207,5208,
5217,5218,5219,5220,5221,5222,5223,5224,5217,5218,5219,5220,5221,5222,5223,5224,5217,5218,5219,5220,5221,5222,5223,5224,5217,5218,5219,5220,5221,5222,5223,5224,5217,5218,5219,5220,5221,5222,5223,5224,5217,5218,5219,5220,5221,5222,5223,5224,5217,5218,5219,5220,5221,5222,5223,5224,5217,5218,5219,5220,5221,5222,5223,5224,5217,5218,5219,5220,5221,5222,5223,5224,5217,5218,5219,5220,5221,5222,5223,5224,5217,5218,5219,5220,5221,5222,5223,5224,5217,5218,5219,5220,5221,5222,5223,5224,5217,5218,5219,5220,5221,5222,5223,5224,5217,5218,5219,5220,5221,5222,5223,5224,5217,5218,5219,5220,5221,5222,5223,5224,5217,5218,5219,5220,5221,5222,5223,5224,5217,5218,5219,5220,5221,5222,5223,5224,5217,5218,5219,5220,5221,5222,5223,5224,5217,5218,5219,5220,5221,5222,5223,5224,5217,5218,5219,5220,5221,5222,5223,5224,5217,5218,5219,5220,5221,5222,5223,5224,5217,5218,5219,5220,5221,5222,5223,5224,5217,5218,5219,5220,5221,5222,5223,5224,5217,5218,5219,5220,5221,5222,5223,5224,5217,5218,5219,5220,5221,5222,5223,5224,
5233,5234,5235,5236,5237,5238,5239,5240,5233,5234,5235,5236,5237,5238,5239,5240,5233,5234,5235,5236,5237,5238,5239,5240,5233,5234,5235,5236,5237,5238,5239,5240,5233,5234,5235,5236,5237,5238,5239,5240,5233,5234,5235,5236,5237,5238,5239,5240,5233,5234,5235,5236,5237,5238,5239,5240,5233,5234,5235,5236,5237,5238,5239,5240,5233,5234,5235,5236,5237,5238,5239,5240,5233,5234,5235,5236,5237,5238,5239,5240,5233,5234,5235,5236,5237,5238,5239,5240,5233,5234,5235,5236,5237,5238,5239,5240,5233,5234,5235,5236,5237,5238,5239,5240,5233,5234,5235,5236,5237,5238,5239,5240,5233,5234,5235,5236,5237,5238,5239,5240,5233,5234,5235,5236,5237,5238,5239,5240,5233,5234,5235,5236,5237,5238,5239,5240,5233,5234,5235,5236,5237,5238,5239,5240,5233,5234,5235,5236,5237,5238,5239,5240,5233,5234,5235,5236,5237,5238,5239,5240,5233,5234,5235,5236,5237,5238,5239,5240,5233,5234,5235,5236,5237,5238,5239,5240,5233,5234,5235,5236,5237,5238,5239,5240,5233,5234,5235,5236,5237,5238,5239,5240,5233,5234,5235,5236,5237,5238,5239,5240,
5121,5122,5123,5124,5125,5126,5127,5128,5121,5122,5123,5124,5125,5126,5127,5128,5121,5122,5123,5124,5125,5126,5127,5128,5121,5122,5123,5124,5125,5126,5127,5128,5121,5122,5123,5124,5125,5126,5127,5128,5121,5122,5123,5124,5125,5126,5127,5128,5121,5122,5123,5124,5125,5126,5127,5128,5121,5122,5123,5124,5125,5126,5127,5128,5121,5122,5123,5124,5125,5126,5127,5128,5121,5122,5123,5124,5125,5126,5127,5128,5121,5122,5123,5124,5125,5126,5127,5128,5121,5122,5123,5124,5125,5126,5127,5128,5121,5122,5123,5124,5125,5126,5127,5128,5121,5122,5123,5124,5125,5126,5127,5128,5121,5122,5123,5124,5125,5126,5127,5128,5121,5122,5123,5124,5125,5126,5127,5128,5121,5122,5123,5124,5125,5126,5127,5128,5121,5122,5123,5124,5125,5126,5127,5128,5121,5122,5123,5124,5125,5126,5127,5128,5121,5122,5123,5124,5125,5126,5127,5128,5121,5122,5123,5124,5125,5126,5127,5128,5121,5122,5123,5124,5125,5126,5127,5128,5121,5122,5123,5124,5125,5126,5127,5128,5121,5122,5123,5124,5125,5126,5127,5128,5121,5122,5123,5124,5125,5126,5127,5128,
5137,5138,5139,5140,5141,5142,5143,5144,5137,5138,5139,5140,5141,5142,5143,5144,5137,5138,5139,5140,5141,5142,5143,5144,5137,5138,5139,5140,5141,5142,5143,5144,5137,5138,5139,5140,5141,5142,5143,5144,5137,5138,5139,5140,5141,5142,5143,5144,5137,5138,5139,5140,5141,5142,5143,5144,5137,5138,5139,5140,5141,5142,5143,5144,5137,5138,5139,5140,5141,5142,5143,5144,5137,5138,5139,5140,5141,5142,5143,5144,5137,5138,5139,5140,5141,5142,5143,5144,5137,5138,5139,5140,5141,5142,5143,5144,5137,5138,5139,5140,5141,5142,5143,5144,5137,5138,5139,5140,5141,5142,5143,5144,5137,5138,5139,5140,5141,5142,5143,5144,5137,5138,5139,5140,5141,5142,5143,5144,5137,5138,5139,5140,5141,5142,5143,5144,5137,5138,5139,5140,5141,5142,5143,5144,5137,5138,5139,5140,5141,5142,5143,5144,5137,5138,5139,5140,5141,5142,5143,5144,5137,5138,5139,5140,5141,5142,5143,5144,5137,5138,5139,5140,5141,5142,5143,5144,5137,5138,5139,5140,5141,5142,5143,5144,5137,5138,5139,5140,5141,5142,5143,5144,5137,5138,5139,5140,5141,5142,5143,5144,
5153,5154,5155,5156,5157,5158,5159,5160,5153,5154,5155,5156,5157,5158,5159,5160,5153,5154,5155,5156,5157,5158,5159,5160,5153,5154,5155,5156,5157,5158,5159,5160,5153,5154,5155,5156,5157,5158,5159,5160,5153,5154,5155,5156,5157,5158,5159,5160,5153,5154,5155,5156,5157,5158,5159,5160,5153,5154,5155,5156,5157,5158,5159,5160,5153,5154,5155,5156,5157,5158,5159,5160,5153,5154,5155,5156,5157,5158,5159,5160,5153,5154,5155,5156,5157,5158,5159,5160,5153,5154,5155,5156,5157,5158,5159,5160,5153,5154,5155,5156,5157,5158,5159,5160,5153,5154,5155,5156,5157,5158,5159,5160,5153,5154,5155,5156,5157,5158,5159,5160,5153,5154,5155,5156,5157,5158,5159,5160,5153,5154,5155,5156,5157,5158,5159,5160,5153,5154,5155,5156,5157,5158,5159,5160,5153,5154,5155,5156,5157,5158,5159,5160,5153,5154,5155,5156,5157,5158,5159,5160,5153,5154,5155,5156,5157,5158,5159,5160,5153,5154,5155,5156,5157,5158,5159,5160,5153,5154,5155,5156,5157,5158,5159,5160,5153,5154,5155,5156,5157,5158,5159,5160,5153,5154,5155,5156,5157,5158,5159,5160,
5169,5170,5171,5172,5173,5174,5175,5176,5169,5170,5171,5172,5173,5174,5175,5176,5169,5170,5171,5172,5173,5174,5175,5176,5169,5170,5171,5172,5173,5174,5175,5176,5169,5170,5171,5172,5173,5174,5175,5176,5169,5170,5171,5172,5173,5174,5175,5176,5169,5170,5171,5172,5173,5174,5175,5176,5169,5170,5171,5172,5173,5174,5175,5176,5169,5170,5171,5172,5173,5174,5175,5176,5169,5170,5171,5172,5173,5174,5175,5176,5169,5170,5171,5172,5173,5174,5175,5176,5169,5170,5171,5172,5173,5174,5175,5176,5169,5170,5171,5172,5173,5174,5175,5176,5169,5170,5171,5172,5173,5174,5175,5176,5169,5170,5171,5172,5173,5174,5175,5176,5169,5170,5171,5172,5173,5174,5175,5176,5169,5170,5171,5172,5173,5174,5175,5176,5169,5170,5171,5172,5173,5174,5175,5176,5169,5170,5171,5172,5173,5174,5175,5176,5169,5170,5171,5172,5173,5174,5175,5176,5169,5170,5171,5172,5173,5174,5175,5176,5169,5170,5171,5172,5173,5174,5175,5176,5169,5170,5171,5172,5173,5174,5175,5176,5169,5170,5171,5172,5173,5174,5175,5176,5169,5170,5171,5172,5173,5174,5175,5176,
5185,5186,5187,5188,5189,5190,5191,5192,5185,5186,5187,5188,5189,5190,5191,5192,5185,5186,5187,5188,5189,5190,5191,5192,5185,5186,5187,5188,5189,5190,5191,5192,5185,5186,5187,5188,5189,5190,5191,5192,5185,5186,5187,5188,5189,5190,5191,5192,5185,5186,5187,5188,5189,5190,5191,5192,5185,5186,5187,5188,5189,5190,5191,5192,5185,5186,5187,5188,5189,5190,5191,5192,5185,5186,5187,5188,5189,5190,5191,5192,5185,5186,5187,5188,5189,5190,5191,5192,5185,5186,5187,5188,5189,5190,5191,5192,5185,5186,5187,5188,5189,5190,5191,5192,5185,5186,5187,5188,5189,5190,5191,5192,5185,5186,5187,5188,5189,5190,5191,5192,5185,5186,5187,5188,5189,5190,5191,5192,5185,5186,5187,5188,5189,5190,5191,5192,5185,5186,5187,5188,5189,5190,5191,5192,5185,5186,5187,5188,5189,5190,5191,5192,5185,5186,5187,5188,5189,5190,5191,5192,5185,5186,5187,5188,5189,5190,5191,5192,5185,5186,5187,5188,5189,5190,5191,5192,5185,5186,5187,5188,5189,5190,5191,5192,5185,5186,5187,5188,5189,5190,5191,5192,5185,5186,5187,5188,5189,5190,5191,5192,
5201,5202,5203,5204,5205,5206,5207,5208,5201,5202,5203,5204,5205,5206,5207,5208,5201,5202,5203,5204,5205,5206,5207,5208,5201,5202,5203,5204,5205,5206,5207,5208,5201,5202,5203,5204,5205,5206,5207,5208,5201,5202,5203,5204,5205,5206,5207,5208,5201,5202,5203,5204,5205,5206,5207,5208,5201,5202,5203,5204,5205,5206,5207,5208,5201,5202,5203,5204,5205,5206,5207,5208,5201,5202,5203,5204,5205,5206,5207,5208,5201,5202,5203,5204,5205,5206,5207,5208,5201,5202,5203,5204,5205,5206,5207,5208,5201,5202,5203,5204,5205,5206,5207,5208,5201,5202,5203,5204,5205,5206,5207,5208,5201,5202,5203,5204,5205,5206,5207,5208,5201,5202,5203,5204,5205,5206,5207,5208,5201,5202,5203,5204,5205,5206,5207,5208,5201,5202,5203,5204,5205,5206,5207,5208,5201,5202,5203,5204,5205,5206,5207,5208,5201,5202,5203,5204,5205,5206,5207,5208,5201,5202,5203,5204,5205,5206,5207,5208,5201,5202,5203,5204,5205,5206,5207,5208,5201,5202,5203,5204,5205,5206,5207,5208,5201,5202,5203,5204,5205,5206,5207,5208,5201,5202,5203,5204,5205,5206,5207,5208,
5217,5218,5219,5220,5221,5222,5223,5224,5217,5218,5219,5220,5221,5222,5223,5224,5217,5218,5219,5220,5221,5222,5223,5224,5217,5218,5219,5220,5221,5222,5223,5224,5217,5218,5219,5220,5221,5222,5223,5224,5217,5218,5219,5220,5221,5222,5223,5224,5217,5218,5219,5220,5221,5222,5223,5224,5217,5218,5219,5220,5221,5222,5223,5224,5217,5218,5219,5220,5221,5222,5223,5224,5217,5218,5219,5220,5221,5222,5223,5224,5217,5218,5219,5220,5221,5222,5223,5224,5217,5218,5219,5220,5221,5222,5223,5224,5217,5218,5219,5220,5221,5222,5223,5224,5217,5218,5219,5220,5221,5222,5223,5224,5217,5218,5219,5220,5221,5222,5223,5224,5217,5218,5219,5220,5221,5222,5223,5224,5217,5218,5219,5220,5221,5222,5223,5224,5217,5218,5219,5220,5221,5222,5223,5224,5217,5218,5219,5220,5221,5222,5223,5224,5217,5218,5219,5220,5221,5222,5223,5224,5217,5218,5219,5220,5221,5222,5223,5224,5217,5218,5219,5220,5221,5222,5223,5224,5217,5218,5219,5220,5221,5222,5223,5224,5217,5218,5219,5220,5221,5222,5223,5224,5217,5218,5219,5220,5221,5222,5223,5224,
5233,5234,5235,5236,5237,5238,5239,5240,5233,5234,5235,5236,5237,5238,5239,5240,5233,5234,5235,5236,5237,5238,5239,5240,5233,5234,5235,5236,5237,5238,5239,5240,5233,5234,5235,5236,5237,5238,5239,5240,5233,5234,5235,5236,5237,5238,5239,5240,5233,5234,5235,5236,5237,5238,5239,5240,5233,5234,5235,5236,5237,5238,5239,5240,5233,5234,5235,5236,5237,5238,5239,5240,5233,5234,5235,5236,5237,5238,5239,5240,5233,5234,5235,5236,5237,5238,5239,5240,5233,5234,5235,5236,5237,5238,5239,5240,5233,5234,5235,5236,5237,5238,5239,5240,5233,5234,5235,5236,5237,5238,5239,5240,5233,5234,5235,5236,5237,5238,5239,5240,5233,5234,5235,5236,5237,5238,5239,5240,5233,5234,5235,5236,5237,5238,5239,5240,5233,5234,5235,5236,5237,5238,5239,5240,5233,5234,5235,5236,5237,5238,5239,5240,5233,5234,5235,5236,5237,5238,5239,5240,5233,5234,5235,5236,5237,5238,5239,5240,5233,5234,5235,5236,5237,5238,5239,5240,5233,5234,5235,5236,5237,5238,5239,5240,5233,5234,5235,5236,5237,5238,5239,5240,5233,5234,5235,5236,5237,5238,5239,5240,
5121,5122,5123,5124,5125,5126,5127,5128,5121,5122,5123,5124,5125,5126,5127,5128,5121,5122,5123,5124,5125,5126,5127,5128,5121,5122,5123,5124,5125,5126,5127,5128,5121,5122,5123,5124,5125,5126,5127,5128,5121,5122,5123,5124,5125,5126,5127,5128,5121,5122,5123,5124,5125,5126,5127,5128,5121,5122,5123,5124,5125,5126,5127,5128,5121,5122,5123,5124,5125,5126,5127,5128,5121,5122,5123,5124,5125,5126,5127,5128,5121,5122,5123,5124,5125,5126,5127,5128,5121,5122,5123,5124,5125,5126,5127,5128,5121,5122,5123,5124,5125,5126,5127,5128,5121,5122,5123,5124,5125,5126,5127,5128,5121,5122,5123,5124,5125,5126,5127,5128,5121,5122,5123,5124,5125,5126,5127,5128,5121,5122,5123,5124,5125,5126,5127,5128,5121,5122,5123,5124,5125,5126,5127,5128,5121,5122,5123,5124,5125,5126,5127,5128,5121,5122,5123,5124,5125,5126,5127,5128,5121,5122,5123,5124,5125,5126,5127,5128,5121,5122,5123,5124,5125,5126,5127,5128,5121,5122,5123,5124,5125,5126,5127,5128,5121,5122,5123,5124,5125,5126,5127,5128,5121,5122,5123,5124,5125,5126,5127,5128,
5137,5138,5139,5140,5141,5142,5143,5144,5137,5138,5139,5140,5141,5142,5143,5144,5137,5138,5139,5140,5141,5142,5143,5144,5137,5138,5139,5140,5141,5142,5143,5144,5137,5138,5139,5140,5141,5142,5143,5144,5137,5138,5139,5140,5141,5142,5143,5144,5137,5138,5139,5140,5141,5142,5143,5144,5137,5138,5139,5140,5141,5142,5143,5144,5137,5138,5139,5140,5141,5142,5143,5144,5137,5138,5139,5140,5141,5142,5143,5144,5137,5138,5139,5140,5141,5142,5143,5144,5137,5138,5139,5140,5141,5142,5143,5144,5137,5138,5139,5140,5141,5142,5143,5144,5137,5138,5139,5140,5141,5142,5143,5144,5137,5138,5139,5140,5141,5142,5143,5144,5137,5138,5139,5140,5141,5142,5143,5144,5137,5138,5139,5140,5141,5142,5143,5144,5137,5138,5139,5140,5141,5142,5143,5144,5137,5138,5139,5140,5141,5142,5143,5144,5137,5138,5139,5140,5141,5142,5143,5144,5137,5138,5139,5140,5141,5142,5143,5144,5137,5138,5139,5140,5141,5142,5143,5144,5137,5138,5139,5140,5141,5142,5143,5144,5137,5138,5139,5140,5141,5142,5143,5144,5137,5138,5139,5140,5141,5142,5143,5144,
5153,5154,5155,5156,5157,5158,5159,5160,5153,5154,5155,5156,5157,5158,5159,5160,5153,5154,5155,5156,5157,5158,5159,5160,5153,5154,5155,5156,5157,5158,5159,5160,5153,5154,5155,5156,5157,5158,5159,5160,5153,5154,5155,5156,5157,5158,5159,5160,5153,5154,5155,5156,5157,5158,5159,5160,5153,5154,5155,5156,5157,5158,5159,5160,5153,5154,5155,5156,5157,5158,5159,5160,5153,5154,5155,5156,5157,5158,5159,5160,5153,5154,5155,5156,5157,5158,5159,5160,5153,5154,5155,5156,5157,5158,5159,5160,5153,5154,5155,5156,5157,5158,5159,5160,5153,5154,5155,5156,5157,5158,5159,5160,5153,5154,5155,5156,5157,5158,5159,5160,5153,5154,5155,5156,5157,5158,5159,5160,5153,5154,5155,5156,5157,5158,5159,5160,5153,5154,5155,5156,5157,5158,5159,5160,5153,5154,5155,5156,5157,5158,5159,5160,5153,5154,5155,5156,5157,5158,5159,5160,5153,5154,5155,5156,5157,5158,5159,5160,5153,5154,5155,5156,5157,5158,5159,5160,5153,5154,5155,5156,5157,5158,5159,5160,5153,5154,5155,5156,5157,5158,5159,5160,5153,5154,5155,5156,5157,5158,5159,5160,
5169,5170,5171,5172,5173,5174,5175,5176,5169,5170,5171,5172,5173,5174,5175,5176,5169,5170,5171,5172,5173,5174,5175,5176,5169,5170,5171,5172,5173,5174,5175,5176,5169,5170,5171,5172,5173,5174,5175,5176,5169,5170,5171,5172,5173,5174,5175,5176,5169,5170,5171,5172,5173,5174,5175,5176,5169,5170,5171,5172,5173,5174,5175,5176,5169,5170,5171,5172,5173,5174,5175,5176,5169,5170,5171,5172,5173,5174,5175,5176,5169,5170,5171,5172,5173,5174,5175,5176,5169,5170,5171,5172,5173,5174,5175,5176,5169,5170,5171,5172,5173,5174,5175,5176,5169,5170,5171,5172,5173,5174,5175,5176,5169,5170,5171,5172,5173,5174,5175,5176,5169,5170,5171,5172,5173,5174,5175,5176,5169,5170,5171,5172,5173,5174,5175,5176,5169,5170,5171,5172,5173,5174,5175,5176,5169,5170,5171,5172,5173,5174,5175,5176,5169,5170,5171,5172,5173,5174,5175,5176,5169,5170,5171,5172,5173,5174,5175,5176,5169,5170,5171,5172,5173,5174,5175,5176,5169,5170,5171,5172,5173,5174,5175,5176,5169,5170,5171,5172,5173,5174,5175,5176,5169,5170,5171,5172,5173,5174,5175,5176,
5185,5186,5187,5188,5189,5190,5191,5192,5185,5186,5187,5188,5189,5190,5191,5192,5185,5186,5187,5188,5189,5190,5191,5192,5185,5186,5187,5188,5189,5190,5191,5192,5185,5186,5187,5188,5189,5190,5191,5192,5185,5186,5187,5188,5189,5190,5191,5192,5185,5186,5187,5188,5189,5190,5191,5192,5185,5186,5187,5188,5189,5190,5191,5192,5185,5186,5187,5188,5189,5190,5191,5192,5185,5186,5187,5188,5189,5190,5191,5192,5185,5186,5187,5188,5189,5190,5191,5192,5185,5186,5187,5188,5189,5190,5191,5192,5185,5186,5187,5188,5189,5190,5191,5192,5185,5186,5187,5188,5189,5190,5191,5192,5185,5186,5187,5188,5189,5190,5191,5192,5185,5186,5187,5188,5189,5190,5191,5192,5185,5186,5187,5188,5189,5190,5191,5192,5185,5186,5187,5188,5189,5190,5191,5192,5185,5186,5187,5188,5189,5190,5191,5192,5185,5186,5187,5188,5189,5190,5191,5192,5185,5186,5187,5188,5189,5190,5191,5192,5185,5186,5187,5188,5189,5190,5191,5192,5185,5186,5187,5188,5189,5190,5191,5192,5185,5186,5187,5188,5189,5190,5191,5192,5185,5186,5187,5188,5189,5190,5191,5192,
5201,5202,5203,5204,5205,5206,5207,5208,5201,5202,5203,5204,5205,5206,5207,5208,5201,5202,5203,5204,5205,5206,5207,5208,5201,5202,5203,5204,5205,5206,5207,5208,5201,5202,5203,5204,5205,5206,5207,5208,5201,5202,5203,5204,5205,5206,5207,5208,5201,5202,5203,5204,5205,5206,5207,5208,5201,5202,5203,5204,5205,5206,5207,5208,5201,5202,5203,5204,5205,5206,5207,5208,5201,5202,5203,5204,5205,5206,5207,5208,5201,5202,5203,5204,5205,5206,5207,5208,5201,5202,5203,5204,5205,5206,5207,5208,5201,5202,5203,5204,5205,5206,5207,5208,5201,5202,5203,5204,5205,5206,5207,5208,5201,5202,5203,5204,5205,5206,5207,5208,5201,5202,5203,5204,5205,5206,5207,5208,5201,5202,5203,5204,5205,5206,5207,5208,5201,5202,5203,5204,5205,5206,5207,5208,5201,5202,5203,5204,5205,5206,5207,5208,5201,5202,5203,5204,5205,5206,5207,5208,5201,5202,5203,5204,5205,5206,5207,5208,5201,5202,5203,5204,5205,5206,5207,5208,5201,5202,5203,5204,5205,5206,5207,5208,5201,5202,5203,5204,5205,5206,5207,5208,5201,5202,5203,5204,5205,5206,5207,5208,
5217,5218,5219,5220,5221,5222,5223,5224,5217,5218,5219,5220,5221,5222,5223,5224,5217,5218,5219,5220,5221,5222,5223,5224,5217,5218,5219,5220,5221,5222,5223,5224,5217,5218,5219,5220,5221,5222,5223,5224,5217,5218,5219,5220,5221,5222,5223,5224,5217,5218,5219,5220,5221,5222,5223,5224,5217,5218,5219,5220,5221,5222,5223,5224,5217,5218,5219,5220,5221,5222,5223,5224,5217,5218,5219,5220,5221,5222,5223,5224,5217,5218,5219,5220,5221,5222,5223,5224,5217,5218,5219,5220,5221,5222,5223,5224,5217,5218,5219,5220,5221,5222,5223,5224,5217,5218,5219,5220,5221,5222,5223,5224,5217,5218,5219,5220,5221,5222,5223,5224,5217,5218,5219,5220,5221,5222,5223,5224,5217,5218,5219,5220,5221,5222,5223,5224,5217,5218,5219,5220,5221,5222,5223,5224,5217,5218,5219,5220,5221,5222,5223,5224,5217,5218,5219,5220,5221,5222,5223,5224,5217,5218,5219,5220,5221,5222,5223,5224,5217,5218,5219,5220,5221,5222,5223,5224,5217,5218,5219,5220,5221,5222,5223,5224,5217,5218,5219,5220,5221,5222,5223,5224,5217,5218,5219,5220,5221,5222,5223,5224,
5233,5234,5235,5236,5237,5238,5239,5240,5233,5234,5235,5236,5237,5238,5239,5240,5233,5234,5235,5236,5237,5238,5239,5240,5233,5234,5235,5236,5237,5238,5239,5240,5233,5234,5235,5236,5237,5238,5239,5240,5233,5234,5235,5236,5237,5238,5239,5240,5233,5234,5235,5236,5237,5238,5239,5240,5233,5234,5235,5236,5237,5238,5239,5240,5233,5234,5235,5236,5237,5238,5239,5240,5233,5234,5235,5236,5237,5238,5239,5240,5233,5234,5235,5236,5237,5238,5239,5240,5233,5234,5235,5236,5237,5238,5239,5240,5233,5234,5235,5236,5237,5238,5239,5240,5233,5234,5235,5236,5237,5238,5239,5240,5233,5234,5235,5236,5237,5238,5239,5240,5233,5234,5235,5236,5237,5238,5239,5240,5233,5234,5235,5236,5237,5238,5239,5240,5233,5234,5235,5236,5237,5238,5239,5240,5233,5234,5235,5236,5237,5238,5239,5240,5233,5234,5235,5236,5237,5238,5239,5240,5233,5234,5235,5236,5237,5238,5239,5240,5233,5234,5235,5236,5237,5238,5239,5240,5233,5234,5235,5236,5237,5238,5239,5240,5233,5234,5235,5236,5237,5238,5239,5240,5233,5234,5235,5236,5237,5238,5239,5240,
5121,5122,5123,5124,5125,5126,5127,5128,5121,5122,5123,5124,5125,5126,5127,5128,5121,5122,5123,5124,5125,5126,5127,5128,5121,5122,5123,5124,5125,5126,5127,5128,5121,5122,5123,5124,5125,5126,5127,5128,5121,5122,5123,5124,5125,5126,5127,5128,5121,5122,5123,5124,5125,5126,5127,5128,5121,5122,5123,5124,5125,5126,5127,5128,5121,5122,5123,5124,5125,5126,5127,5128,5121,5122,5123,5124,5125,5126,5127,5128,5121,5122,5123,5124,5125,5126,5127,5128,5121,5122,5123,5124,5125,5126,5127,5128,5121,5122,5123,5124,5125,5126,5127,5128,5121,5122,5123,5124,5125,5126,5127,5128,5121,5122,5123,5124,5125,5126,5127,5128,5121,5122,5123,5124,5125,5126,5127,5128,5121,5122,5123,5124,5125,5126,5127,5128,5121,5122,5123,5124,5125,5126,5127,5128,5121,5122,5123,5124,5125,5126,5127,5128,5121,5122,5123,5124,5125,5126,5127,5128,5121,5122,5123,5124,5125,5126,5127,5128,5121,5122,5123,5124,5125,5126,5127,5128,5121,5122,5123,5124,5125,5126,5127,5128,5121,5122,5123,5124,5125,5126,5127,5128,5121,5122,5123,5124,5125,5126,5127,5128,
5137,5138,5139,5140,5141,5142,5143,5144,5137,5138,5139,5140,5141,5142,5143,5144,5137,5138,5139,5140,5141,5142,5143,5144,5137,5138,5139,5140,5141,5142,5143,5144,5137,5138,5139,5140,5141,5142,5143,5144,5137,5138,5139,5140,5141,5142,5143,5144,5137,5138,5139,5140,5141,5142,5143,5144,5137,5138,5139,5140,5141,5142,5143,5144,5137,5138,5139,5140,5141,5142,5143,5144,5137,5138,5139,5140,5141,5142,5143,5144,5137,5138,5139,5140,5141,5142,5143,5144,5137,5138,5139,5140,5141,5142,5143,5144,5137,5138,5139,5140,5141,5142,5143,5144,5137,5138,5139,5140,5141,5142,5143,5144,5137,5138,5139,5140,5141,5142,5143,5144,5137,5138,5139,5140,5141,5142,5143,5144,5137,5138,5139,5140,5141,5142,5143,5144,5137,5138,5139,5140,5141,5142,5143,5144,5137,5138,5139,5140,5141,5142,5143,5144,5137,5138,5139,5140,5141,5142,5143,5144,5137,5138,5139,5140,5141,5142,5143,5144,5137,5138,5139,5140,5141,5142,5143,5144,5137,5138,5139,5140,5141,5142,5143,5144,5137,5138,5139,5140,5141,5142,5143,5144,5137,5138,5139,5140,5141,5142,5143,5144,
5153,5154,5155,5156,5157,5158,5159,5160,5153,5154,5155,5156,5157,5158,5159,5160,5153,5154,5155,5156,5157,5158,5159,5160,5153,5154,5155,5156,5157,5158,5159,5160,5153,5154,5155,5156,5157,5158,5159,5160,5153,5154,5155,5156,5157,5158,5159,5160,5153,5154,5155,5156,5157,5158,5159,5160,5153,5154,5155,5156,5157,5158,5159,5160,5153,5154,5155,5156,5157,5158,5159,5160,5153,5154,5155,5156,5157,5158,5159,5160,5153,5154,5155,5156,5157,5158,5159,5160,5153,5154,5155,5156,5157,5158,5159,5160,5153,5154,5155,5156,5157,5158,5159,5160,5153,5154,5155,5156,5157,5158,5159,5160,5153,5154,5155,5156,5157,5158,5159,5160,5153,5154,5155,5156,5157,5158,5159,5160,5153,5154,5155,5156,5157,5158,5159,5160,5153,5154,5155,5156,5157,5158,5159,5160,5153,5154,5155,5156,5157,5158,5159,5160,5153,5154,5155,5156,5157,5158,5159,5160,5153,5154,5155,5156,5157,5158,5159,5160,5153,5154,5155,5156,5157,5158,5159,5160,5153,5154,5155,5156,5157,5158,5159,5160,5153,5154,5155,5156,5157,5158,5159,5160,5153,5154,5155,5156,5157,5158,5159,5160,
5169,5170,5171,5172,5173,5174,5175,5176,5169,5170,5171,5172,5173,5174,5175,5176,5169,5170,5171,5172,5173,5174,5175,5176,5169,5170,5171,5172,5173,5174,5175,5176,5169,5170,5171,5172,5173,5174,5175,5176,5169,5170,5171,5172,5173,5174,5175,5176,5169,5170,5171,5172,5173,5174,5175,5176,5169,5170,5171,5172,5173,5174,5175,5176,5169,5170,5171,5172,5173,5174,5175,5176,5169,5170,5171,5172,5173,5174,5175,5176,5169,5170,5171,5172,5173,5174,5175,5176,5169,5170,5171,5172,5173,5174,5175,5176,5169,5170,5171,5172,5173,5174,5175,5176,5169,5170,5171,5172,5173,5174,5175,5176,5169,5170,5171,5172,5173,5174,5175,5176,5169,5170,5171,5172,5173,5174,5175,5176,5169,5170,5171,5172,5173,5174,5175,5176,5169,5170,5171,5172,5173,5174,5175,5176,5169,5170,5171,5172,5173,5174,5175,5176,5169,5170,5171,5172,5173,5174,5175,5176,5169,5170,5171,5172,5173,5174,5175,5176,5169,5170,5171,5172,5173,5174,5175,5176,5169,5170,5171,5172,5173,5174,5175,5176,5169,5170,5171,5172,5173,5174,5175,5176,5169,5170,5171,5172,5173,5174,5175,5176,
5185,5186,5187,5188,5189,5190,5191,5192,5185,5186,5187,5188,5189,5190,5191,5192,5185,5186,5187,5188,5189,5190,5191,5192,5185,5186,5187,5188,5189,5190,5191,5192,5185,5186,5187,5188,5189,5190,5191,5192,5185,5186,5187,5188,5189,5190,5191,5192,5185,5186,5187,5188,5189,5190,5191,5192,5185,5186,5187,5188,5189,5190,5191,5192,5185,5186,5187,5188,5189,5190,5191,5192,5185,5186,5187,5188,5189,5190,5191,5192,5185,5186,5187,5188,5189,5190,5191,5192,5185,5186,5187,5188,5189,5190,5191,5192,5185,5186,5187,5188,5189,5190,5191,5192,5185,5186,5187,5188,5189,5190,5191,5192,5185,5186,5187,5188,5189,5190,5191,5192,5185,5186,5187,5188,5189,5190,5191,5192,5185,5186,5187,5188,5189,5190,5191,5192,5185,5186,5187,5188,5189,5190,5191,5192,5185,5186,5187,5188,5189,5190,5191,5192,5185,5186,5187,5188,5189,5190,5191,5192,5185,5186,5187,5188,5189,5190,5191,5192,5185,5186,5187,5188,5189,5190,5191,5192,5185,5186,5187,5188,5189,5190,5191,5192,5185,5186,5187,5188,5189,5190,5191,5192,5185,5186,5187,5188,5189,5190,5191,5192,
5201,5202,5203,5204,5205,5206,5207,5208,5201,5202,5203,5204,5205,5206,5207,5208,5201,5202,5203,5204,5205,5206,5207,5208,5201,5202,5203,5204,5205,5206,5207,5208,5201,5202,5203,5204,5205,5206,5207,5208,5201,5202,5203,5204,5205,5206,5207,5208,5201,5202,5203,5204,5205,5206,5207,5208,5201,5202,5203,5204,5205,5206,5207,5208,5201,5202,5203,5204,5205,5206,5207,5208,5201,5202,5203,5204,5205,5206,5207,5208,5201,5202,5203,5204,5205,5206,5207,5208,5201,5202,5203,5204,5205,5206,5207,5208,5201,5202,5203,5204,5205,5206,5207,5208,5201,5202,5203,5204,5205,5206,5207,5208,5201,5202,5203,5204,5205,5206,5207,5208,5201,5202,5203,5204,5205,5206,5207,5208,5201,5202,5203,5204,5205,5206,5207,5208,5201,5202,5203,5204,5205,5206,5207,5208,5201,5202,5203,5204,5205,5206,5207,5208,5201,5202,5203,5204,5205,5206,5207,5208,5201,5202,5203,5204,5205,5206,5207,5208,5201,5202,5203,5204,5205,5206,5207,5208,5201,5202,5203,5204,5205,5206,5207,5208,5201,5202,5203,5204,5205,5206,5207,5208,5201,5202,5203,5204,5205,5206,5207,5208,
5217,5218,5219,5220,5221,5222,5223,5224,5217,5218,5219,5220,5221,5222,5223,5224,5217,5218,5219,5220,5221,5222,5223,5224,5217,5218,5219,5220,5221,5222,5223,5224,5217,5218,5219,5220,5221,5222,5223,5224,5217,5218,5219,5220,5221,5222,5223,5224,5217,5218,5219,5220,5221,5222,5223,5224,5217,5218,5219,5220,5221,5222,5223,5224,5217,5218,5219,5220,5221,5222,5223,5224,5217,5218,5219,5220,5221,5222,5223,5224,5217,5218,5219,5220,5221,5222,5223,5224,5217,5218,5219,5220,5221,5222,5223,5224,5217,5218,5219,5220,5221,5222,5223,5224,5217,5218,5219,5220,5221,5222,5223,5224,5217,5218,5219,5220,5221,5222,5223,5224,5217,5218,5219,5220,5221,5222,5223,5224,5217,5218,5219,5220,5221,5222,5223,5224,5217,5218,5219,5220,5221,5222,5223,5224,5217,5218,5219,5220,5221,5222,5223,5224,5217,5218,5219,5220,5221,5222,5223,5224,5217,5218,5219,5220,5221,5222,5223,5224,5217,5218,5219,5220,5221,5222,5223,5224,5217,5218,5219,5220,5221,5222,5223,5224,5217,5218,5219,5220,5221,5222,5223,5224,5217,5218,5219,5220,5221,5222,5223,5224,
5233,5234,5235,5236,5237,5238,5239,5240,5233,5234,5235,5236,5237,5238,5239,5240,5233,5234,5235,5236,5237,5238,5239,5240,5233,5234,5235,5236,5237,5238,5239,5240,5233,5234,5235,5236,5237,5238,5239,5240,5233,5234,5235,5236,5237,5238,5239,5240,5233,5234,5235,5236,5237,5238,5239,5240,5233,5234,5235,5236,5237,5238,5239,5240,5233,5234,5235,5236,5237,5238,5239,5240,5233,5234,5235,5236,5237,5238,5239,5240,5233,5234,5235,5236,5237,5238,5239,5240,5233,5234,5235,5236,5237,5238,5239,5240,5233,5234,5235,5236,5237,5238,5239,5240,5233,5234,5235,5236,5237,5238,5239,5240,5233,5234,5235,5236,5237,5238,5239,5240,5233,5234,5235,5236,5237,5238,5239,5240,5233,5234,5235,5236,5237,5238,5239,5240,5233,5234,5235,5236,5237,5238,5239,5240,5233,5234,5235,5236,5237,5238,5239,5240,5233,5234,5235,5236,5237,5238,5239,5240,5233,5234,5235,5236,5237,5238,5239,5240,5233,5234,5235,5236,5237,5238,5239,5240,5233,5234,5235,5236,5237,5238,5239,5240,5233,5234,5235,5236,5237,5238,5239,5240,5233,5234,5235,5236,5237,5238,5239,5240,
5121,5122,5123,5124,5125,5126,5127,5128,5121,5122,5123,5124,5125,5126,5127,5128,5121,5122,5123,5124,5125,5126,5127,5128,5121,5122,5123,5124,5125,5126,5127,5128,5121,5122,5123,5124,5125,5126,5127,5128,5121,5122,5123,5124,5125,5126,5127,5128,5121,5122,5123,5124,5125,5126,5127,5128,5121,5122,5123,5124,5125,5126,5127,5128,5121,5122,5123,5124,5125,5126,5127,5128,5121,5122,5123,5124,5125,5126,5127,5128,5121,5122,5123,5124,5125,5126,5127,5128,5121,5122,5123,5124,5125,5126,5127,5128,5121,5122,5123,5124,5125,5126,5127,5128,5121,5122,5123,5124,5125,5126,5127,5128,5121,5122,5123,5124,5125,5126,5127,5128,5121,5122,5123,5124,5125,5126,5127,5128,5121,5122,5123,5124,5125,5126,5127,5128,5121,5122,5123,5124,5125,5126,5127,5128,5121,5122,5123,5124,5125,5126,5127,5128,5121,5122,5123,5124,5125,5126,5127,5128,5121,5122,5123,5124,5125,5126,5127,5128,5121,5122,5123,5124,5125,5126,5127,5128,5121,5122,5123,5124,5125,5126,5127,5128,5121,5122,5123,5124,5125,5126,5127,5128,5121,5122,5123,5124,5125,5126,5127,5128,
5137,5138,5139,5140,5141,5142,5143,5144,5137,5138,5139,5140,5141,5142,5143,5144,5137,5138,5139,5140,5141,5142,5143,5144,5137,5138,5139,5140,5141,5142,5143,5144,5137,5138,5139,5140,5141,5142,5143,5144,5137,5138,5139,5140,5141,5142,5143,5144,5137,5138,5139,5140,5141,5142,5143,5144,5137,5138,5139,5140,5141,5142,5143,5144,5137,5138,5139,5140,5141,5142,5143,5144,5137,5138,5139,5140,5141,5142,5143,5144,5137,5138,5139,5140,5141,5142,5143,5144,5137,5138,5139,5140,5141,5142,5143,5144,5137,5138,5139,5140,5141,5142,5143,5144,5137,5138,5139,5140,5141,5142,5143,5144,5137,5138,5139,5140,5141,5142,5143,5144,5137,5138,5139,5140,5141,5142,5143,5144,5137,5138,5139,5140,5141,5142,5143,5144,5137,5138,5139,5140,5141,5142,5143,5144,5137,5138,5139,5140,5141,5142,5143,5144,5137,5138,5139,5140,5141,5142,5143,5144,5137,5138,5139,5140,5141,5142,5143,5144,5137,5138,5139,5140,5141,5142,5143,5144,5137,5138,5139,5140,5141,5142,5143,5144,5137,5138,5139,5140,5141,5142,5143,5144,5137,5138,5139,5140,5141,5142,5143,5144,
5153,5154,5155,5156,5157,5158,5159,5160,5153,5154,5155,5156,5157,5158,5159,5160,5153,5154,5155,5156,5157,5158,5159,5160,5153,5154,5155,5156,5157,5158,5159,5160,5153,5154,5155,5156,5157,5158,5159,5160,5153,5154,5155,5156,5157,5158,5159,5160,5153,5154,5155,5156,5157,5158,5159,5160,5153,5154,5155,5156,5157,5158,5159,5160,5153,5154,5155,5156,5157,5158,5159,5160,5153,5154,5155,5156,5157,5158,5159,5160,5153,5154,5155,5156,5157,5158,5159,5160,5153,5154,5155,5156,5157,5158,5159,5160,5153,5154,5155,5156,5157,5158,5159,5160,5153,5154,5155,5156,5157,5158,5159,5160,5153,5154,5155,5156,5157,5158,5159,5160,5153,5154,5155,5156,5157,5158,5159,5160,5153,5154,5155,5156,5157,5158,5159,5160,5153,5154,5155,5156,5157,5158,5159,5160,5153,5154,5155,5156,5157,5158,5159,5160,5153,5154,5155,5156,5157,5158,5159,5160,5153,5154,5155,5156,5157,5158,5159,5160,5153,5154,5155,5156,5157,5158,5159,5160,5153,5154,5155,5156,5157,5158,5159,5160,5153,5154,5155,5156,5157,5158,5159,5160,5153,5154,5155,5156,5157,5158,5159,5160,
5169,5170,5171,5172,5173,5174,5175,5176,5169,5170,5171,5172,5173,5174,5175,5176,5169,5170,5171,5172,5173,5174,5175,5176,5169,5170,5171,5172,5173,5174,5175,5176,5169,5170,5171,5172,5173,5174,5175,5176,5169,5170,5171,5172,5173,5174,5175,5176,5169,5170,5171,5172,5173,5174,5175,5176,5169,5170,5171,5172,5173,5174,5175,5176,5169,5170,5171,5172,5173,5174,5175,5176,5169,5170,5171,5172,5173,5174,5175,5176,5169,5170,5171,5172,5173,5174,5175,5176,5169,5170,5171,5172,5173,5174,5175,5176,5169,5170,5171,5172,5173,5174,5175,5176,5169,5170,5171,5172,5173,5174,5175,5176,5169,5170,5171,5172,5173,5174,5175,5176,5169,5170,5171,5172,5173,5174,5175,5176,5169,5170,5171,5172,5173,5174,5175,5176,5169,5170,5171,5172,5173,5174,5175,5176,5169,5170,5171,5172,5173,5174,5175,5176,5169,5170,5171,5172,5173,5174,5175,5176,5169,5170,5171,5172,5173,5174,5175,5176,5169,5170,5171,5172,5173,5174,5175,5176,5169,5170,5171,5172,5173,5174,5175,5176,5169,5170,5171,5172,5173,5174,5175,5176,5169,5170,5171,5172,5173,5174,5175,5176,
5185,5186,5187,5188,5189,5190,5191,5192,5185,5186,5187,5188,5189,5190,5191,5192,5185,5186,5187,5188,5189,5190,5191,5192,5185,5186,5187,5188,5189,5190,5191,5192,5185,5186,5187,5188,5189,5190,5191,5192,5185,5186,5187,5188,5189,5190,5191,5192,5185,5186,5187,5188,5189,5190,5191,5192,5185,5186,5187,5188,5189,5190,5191,5192,5185,5186,5187,5188,5189,5190,5191,5192,5185,5186,5187,5188,5189,5190,5191,5192,5185,5186,5187,5188,5189,5190,5191,5192,5185,5186,5187,5188,5189,5190,5191,5192,5185,5186,5187,5188,5189,5190,5191,5192,5185,5186,5187,5188,5189,5190,5191,5192,5185,5186,5187,5188,5189,5190,5191,5192,5185,5186,5187,5188,5189,5190,5191,5192,5185,5186,5187,5188,5189,5190,5191,5192,5185,5186,5187,5188,5189,5190,5191,5192,5185,5186,5187,5188,5189,5190,5191,5192,5185,5186,5187,5188,5189,5190,5191,5192,5185,5186,5187,5188,5189,5190,5191,5192,5185,5186,5187,5188,5189,5190,5191,5192,5185,5186,5187,5188,5189,5190,5191,5192,5185,5186,5187,5188,5189,5190,5191,5192,5185,5186,5187,5188,5189,5190,5191,5192,
5201,5202,5203,5204,5205,5206,5207,5208,5201,5202,5203,5204,5205,5206,5207,5208,5201,5202,5203,5204,5205,5206,5207,5208,5201,5202,5203,5204,5205,5206,5207,5208,5201,5202,5203,5204,5205,5206,5207,5208,5201,5202,5203,5204,5205,5206,5207,5208,5201,5202,5203,5204,5205,5206,5207,5208,5201,5202,5203,5204,5205,5206,5207,5208,5201,5202,5203,5204,5205,5206,5207,5208,5201,5202,5203,5204,5205,5206,5207,5208,5201,5202,5203,5204,5205,5206,5207,5208,5201,5202,5203,5204,5205,5206,5207,5208,5201,5202,5203,5204,5205,5206,5207,5208,5201,5202,5203,5204,5205,5206,5207,5208,5201,5202,5203,5204,5205,5206,5207,5208,5201,5202,5203,5204,5205,5206,5207,5208,5201,5202,5203,5204,5205,5206,5207,5208,5201,5202,5203,5204,5205,5206,5207,5208,5201,5202,5203,5204,5205,5206,5207,5208,5201,5202,5203,5204,5205,5206,5207,5208,5201,5202,5203,5204,5205,5206,5207,5208,5201,5202,5203,5204,5205,5206,5207,5208,5201,5202,5203,5204,5205,5206,5207,5208,5201,5202,5203,5204,5205,5206,5207,5208,5201,5202,5203,5204,5205,5206,5207,5208,
5217,5218,5219,5220,5221,5222,5223,5224,5217,5218,5219,5220,5221,5222,5223,5224,5217,5218,5219,5220,5221,5222,5223,5224,5217,5218,5219,5220,5221,5222,5223,5224,5217,5218,5219,5220,5221,5222,5223,5224,5217,5218,5219,5220,5221,5222,5223,5224,5217,5218,5219,5220,5221,5222,5223,5224,5217,5218,5219,5220,5221,5222,5223,5224,5217,5218,5219,5220,5221,5222,5223,5224,5217,5218,5219,5220,5221,5222,5223,5224,5217,5218,5219,5220,5221,5222,5223,5224,5217,5218,5219,5220,5221,5222,5223,5224,5217,5218,5219,5220,5221,5222,5223,5224,5217,5218,5219,5220,5221,5222,5223,5224,5217,5218,5219,5220,5221,5222,5223,5224,5217,5218,5219,5220,5221,5222,5223,5224,5217,5218,5219,5220,5221,5222,5223,5224,5217,5218,5219,5220,5221,5222,5223,5224,5217,5218,5219,5220,5221,5222,5223,5224,5217,5218,5219,5220,5221,5222,5223,5224,5217,5218,5219,5220,5221,5222,5223,5224,5217,5218,5219,5220,5221,5222,5223,5224,5217,5218,5219,5220,5221,5222,5223,5224,5217,5218,5219,5220,5221,5222,5223,5224,5217,5218,5219,5220,5221,5222,5223,5224,
5233,5234,5235,5236,5237,5238,5239,5240,5233,5234,5235,5236,5237,5238,5239,5240,5233,5234,5235,5236,5237,5238,5239,5240,5233,5234,5235,5236,5237,5238,5239,5240,5233,5234,5235,5236,5237,5238,5239,5240,5233,5234,5235,5236,5237,5238,5239,5240,5233,5234,5235,5236,5237,5238,5239,5240,5233,5234,5235,5236,5237,5238,5239,5240,5233,5234,5235,5236,5237,5238,5239,5240,5233,5234,5235,5236,5237,5238,5239,5240,5233,5234,5235,5236,5237,5238,5239,5240,5233,5234,5235,5236,5237,5238,5239,5240,5233,5234,5235,5236,5237,5238,5239,5240,5233,5234,5235,5236,5237,5238,5239,5240,5233,5234,5235,5236,5237,5238,5239,5240,5233,5234,5235,5236,5237,5238,5239,5240,5233,5234,5235,5236,5237,5238,5239,5240,5233,5234,5235,5236,5237,5238,5239,5240,5233,5234,5235,5236,5237,5238,5239,5240,5233,5234,5235,5236,5237,5238,5239,5240,5233,5234,5235,5236,5237,5238,5239,5240,5233,5234,5235,5236,5237,5238,5239,5240,5233,5234,5235,5236,5237,5238,5239,5240,5233,5234,5235,5236,5237,5238,5239,5240,5233,5234,5235,5236,5237,5238,5239,5240,
5121,5122,5123,5124,5125,5126,5127,5128,5121,5122,5123,5124,5125,5126,5127,5128,5121,5122,5123,5124,5125,5126,5127,5128,5121,5122,5123,5124,5125,5126,5127,5128,5121,5122,5123,5124,5125,5126,5127,5128,5121,5122,5123,5124,5125,5126,5127,5128,5121,5122,5123,5124,5125,5126,5127,5128,5121,5122,5123,5124,5125,5126,5127,5128,5121,5122,5123,5124,5125,5126,5127,5128,5121,5122,5123,5124,5125,5126,5127,5128,5121,5122,5123,5124,5125,5126,5127,5128,5121,5122,5123,5124,5125,5126,5127,5128,5121,5122,5123,5124,5125,5126,5127,5128,5121,5122,5123,5124,5125,5126,5127,5128,5121,5122,5123,5124,5125,5126,5127,5128,5121,5122,5123,5124,5125,5126,5127,5128,5121,5122,5123,5124,5125,5126,5127,5128,5121,5122,5123,5124,5125,5126,5127,5128,5121,5122,5123,5124,5125,5126,5127,5128,5121,5122,5123,5124,5125,5126,5127,5128,5121,5122,5123,5124,5125,5126,5127,5128,5121,5122,5123,5124,5125,5126,5127,5128,5121,5122,5123,5124,5125,5126,5127,5128,5121,5122,5123,5124,5125,5126,5127,5128,5121,5122,5123,5124,5125,5126,5127,5128,
5137,5138,5139,5140,5141,5142,5143,5144,5137,5138,5139,5140,5141,5142,5143,5144,5137,5138,5139,5140,5141,5142,5143,5144,5137,5138,5139,5140,5141,5142,5143,5144,5137,5138,5139,5140,5141,5142,5143,5144,5137,5138,5139,5140,5141,5142,5143,5144,5137,5138,5139,5140,5141,5142,5143,5144,5137,5138,5139,5140,5141,5142,5143,5144,5137,5138,5139,5140,5141,5142,5143,5144,5137,5138,5139,5140,5141,5142,5143,5144,5137,5138,5139,5140,5141,5142,5143,5144,5137,5138,5139,5140,5141,5142,5143,5144,5137,5138,5139,5140,5141,5142,5143,5144,5137,5138,5139,5140,5141,5142,5143,5144,5137,5138,5139,5140,5141,5142,5143,5144,5137,5138,5139,5140,5141,5142,5143,5144,5137,5138,5139,5140,5141,5142,5143,5144,5137,5138,5139,5140,5141,5142,5143,5144,5137,5138,5139,5140,5141,5142,5143,5144,5137,5138,5139,5140,5141,5142,5143,5144,5137,5138,5139,5140,5141,5142,5143,5144,5137,5138,5139,5140,5141,5142,5143,5144,5137,5138,5139,5140,5141,5142,5143,5144,5137,5138,5139,5140,5141,5142,5143,5144,5137,5138,5139,5140,5141,5142,5143,5144,
5153,5154,5155,5156,5157,5158,5159,5160,5153,5154,5155,5156,5157,5158,5159,5160,5153,5154,5155,5156,5157,5158,5159,5160,5153,5154,5155,5156,5157,5158,5159,5160,5153,5154,5155,5156,5157,5158,5159,5160,5153,5154,5155,5156,5157,5158,5159,5160,5153,5154,5155,5156,5157,5158,5159,5160,5153,5154,5155,5156,5157,5158,5159,5160,5153,5154,5155,5156,5157,5158,5159,5160,5153,5154,5155,5156,5157,5158,5159,5160,5153,5154,5155,5156,5157,5158,5159,5160,5153,5154,5155,5156,5157,5158,5159,5160,5153,5154,5155,5156,5157,5158,5159,5160,5153,5154,5155,5156,5157,5158,5159,5160,5153,5154,5155,5156,5157,5158,5159,5160,5153,5154,5155,5156,5157,5158,5159,5160,5153,5154,5155,5156,5157,5158,5159,5160,5153,5154,5155,5156,5157,5158,5159,5160,5153,5154,5155,5156,5157,5158,5159,5160,5153,5154,5155,5156,5157,5158,5159,5160,5153,5154,5155,5156,5157,5158,5159,5160,5153,5154,5155,5156,5157,5158,5159,5160,5153,5154,5155,5156,5157,5158,5159,5160,5153,5154,5155,5156,5157,5158,5159,5160,5153,5154,5155,5156,5157,5158,5159,5160,
5169,5170,5171,5172,5173,5174,5175,5176,5169,5170,5171,5172,5173,5174,5175,5176,5169,5170,5171,5172,5173,5174,5175,5176,5169,5170,5171,5172,5173,5174,5175,5176,5169,5170,5171,5172,5173,5174,5175,5176,5169,5170,5171,5172,5173,5174,5175,5176,5169,5170,5171,5172,5173,5174,5175,5176,5169,5170,5171,5172,5173,5174,5175,5176,5169,5170,5171,5172,5173,5174,5175,5176,5169,5170,5171,5172,5173,5174,5175,5176,5169,5170,5171,5172,5173,5174,5175,5176,5169,5170,5171,5172,5173,5174,5175,5176,5169,5170,5171,5172,5173,5174,5175,5176,5169,5170,5171,5172,5173,5174,5175,5176,5169,5170,5171,5172,5173,5174,5175,5176,5169,5170,5171,5172,5173,5174,5175,5176,5169,5170,5171,5172,5173,5174,5175,5176,5169,5170,5171,5172,5173,5174,5175,5176,5169,5170,5171,5172,5173,5174,5175,5176,5169,5170,5171,5172,5173,5174,5175,5176,5169,5170,5171,5172,5173,5174,5175,5176,5169,5170,5171,5172,5173,5174,5175,5176,5169,5170,5171,5172,5173,5174,5175,5176,5169,5170,5171,5172,5173,5174,5175,5176,5169,5170,5171,5172,5173,5174,5175,5176,
5185,5186,5187,5188,5189,5190,5191,5192,5185,5186,5187,5188,5189,5190,5191,5192,5185,5186,5187,5188,5189,5190,5191,5192,5185,5186,5187,5188,5189,5190,5191,5192,5185,5186,5187,5188,5189,5190,5191,5192,5185,5186,5187,5188,5189,5190,5191,5192,5185,5186,5187,5188,5189,5190,5191,5192,5185,5186,5187,5188,5189,5190,5191,5192,5185,5186,5187,5188,5189,5190,5191,5192,5185,5186,5187,5188,5189,5190,5191,5192,5185,5186,5187,5188,5189,5190,5191,5192,5185,5186,5187,5188,5189,5190,5191,5192,5185,5186,5187,5188,5189,5190,5191,5192,5185,5186,5187,5188,5189,5190,5191,5192,5185,5186,5187,5188,5189,5190,5191,5192,5185,5186,5187,5188,5189,5190,5191,5192,5185,5186,5187,5188,5189,5190,5191,5192,5185,5186,5187,5188,5189,5190,5191,5192,5185,5186,5187,5188,5189,5190,5191,5192,5185,5186,5187,5188,5189,5190,5191,5192,5185,5186,5187,5188,5189,5190,5191,5192,5185,5186,5187,5188,5189,5190,5191,5192,5185,5186,5187,5188,5189,5190,5191,5192,5185,5186,5187,5188,5189,5190,5191,5192,5185,5186,5187,5188,5189,5190,5191,5192,
5201,5202,5203,5204,5205,5206,5207,5208,5201,5202,5203,5204,5205,5206,5207,5208,5201,5202,5203,5204,5205,5206,5207,5208,5201,5202,5203,5204,5205,5206,5207,5208,5201,5202,5203,5204,5205,5206,5207,5208,5201,5202,5203,5204,5205,5206,5207,5208,5201,5202,5203,5204,5205,5206,5207,5208,5201,5202,5203,5204,5205,5206,5207,5208,5201,5202,5203,5204,5205,5206,5207,5208,5201,5202,5203,5204,5205,5206,5207,5208,5201,5202,5203,5204,5205,5206,5207,5208,5201,5202,5203,5204,5205,5206,5207,5208,5201,5202,5203,5204,5205,5206,5207,5208,5201,5202,5203,5204,5205,5206,5207,5208,5201,5202,5203,5204,5205,5206,5207,5208,5201,5202,5203,5204,5205,5206,5207,5208,5201,5202,5203,5204,5205,5206,5207,5208,5201,5202,5203,5204,5205,5206,5207,5208,5201,5202,5203,5204,5205,5206,5207,5208,5201,5202,5203,5204,5205,5206,5207,5208,5201,5202,5203,5204,5205,5206,5207,5208,5201,5202,5203,5204,5205,5206,5207,5208,5201,5202,5203,5204,5205,5206,5207,5208,5201,5202,5203,5204,5205,5206,5207,5208,5201,5202,5203,5204,5205,5206,5207,5208,
5217,5218,5219,5220,5221,5222,5223,5224,5217,5218,5219,5220,5221,5222,5223,5224,5217,5218,5219,5220,5221,5222,5223,5224,5217,5218,5219,5220,5221,5222,5223,5224,5217,5218,5219,5220,5221,5222,5223,5224,5217,5218,5219,5220,5221,5222,5223,5224,5217,5218,5219,5220,5221,5222,5223,5224,5217,5218,5219,5220,5221,5222,5223,5224,5217,5218,5219,5220,5221,5222,5223,5224,5217,5218,5219,5220,5221,5222,5223,5224,5217,5218,5219,5220,5221,5222,5223,5224,5217,5218,5219,5220,5221,5222,5223,5224,5217,5218,5219,5220,5221,5222,5223,5224,5217,5218,5219,5220,5221,5222,5223,5224,5217,5218,5219,5220,5221,5222,5223,5224,5217,5218,5219,5220,5221,5222,5223,5224,5217,5218,5219,5220,5221,5222,5223,5224,5217,5218,5219,5220,5221,5222,5223,5224,5217,5218,5219,5220,5221,5222,5223,5224,5217,5218,5219,5220,5221,5222,5223,5224,5217,5218,5219,5220,5221,5222,5223,5224,5217,5218,5219,5220,5221,5222,5223,5224,5217,5218,5219,5220,5221,5222,5223,5224,5217,5218,5219,5220,5221,5222,5223,5224,5217,5218,5219,5220,5221,5222,5223,5224,
5233,5234,5235,5236,5237,5238,5239,5240,5233,5234,5235,5236,5237,5238,5239,5240,5233,5234,5235,5236,5237,5238,5239,5240,5233,5234,5235,5236,5237,5238,5239,5240,5233,5234,5235,5236,5237,5238,5239,5240,5233,5234,5235,5236,5237,5238,5239,5240,5233,5234,5235,5236,5237,5238,5239,5240,5233,5234,5235,5236,5237,5238,5239,5240,5233,5234,5235,5236,5237,5238,5239,5240,5233,5234,5235,5236,5237,5238,5239,5240,5233,5234,5235,5236,5237,5238,5239,5240,5233,5234,5235,5236,5237,5238,5239,5240,5233,5234,5235,5236,5237,5238,5239,5240,5233,5234,5235,5236,5237,5238,5239,5240,5233,5234,5235,5236,5237,5238,5239,5240,5233,5234,5235,5236,5237,5238,5239,5240,5233,5234,5235,5236,5237,5238,5239,5240,5233,5234,5235,5236,5237,5238,5239,5240,5233,5234,5235,5236,5237,5238,5239,5240,5233,5234,5235,5236,5237,5238,5239,5240,5233,5234,5235,5236,5237,5238,5239,5240,5233,5234,5235,5236,5237,5238,5239,5240,5233,5234,5235,5236,5237,5238,5239,5240,5233,5234,5235,5236,5237,5238,5239,5240,5233,5234,5235,5236,5237,5238,5239,5240,
5121,5122,5123,5124,5125,5126,5127,5128,5121,5122,5123,5124,5125,5126,5127,5128,5121,5122,5123,5124,5125,5126,5127,5128,5121,5122,5123,5124,5125,5126,5127,5128,5121,5122,5123,5124,5125,5126,5127,5128,5121,5122,5123,5124,5125,5126,5127,5128,5121,5122,5123,5124,5125,5126,5127,5128,5121,5122,5123,5124,5125,5126,5127,5128,5121,5122,5123,5124,5125,5126,5127,5128,5121,5122,5123,5124,5125,5126,5127,5128,5121,5122,5123,5124,5125,5126,5127,5128,5121,5122,5123,5124,5125,5126,5127,5128,5121,5122,5123,5124,5125,5126,5127,5128,5121,5122,5123,5124,5125,5126,5127,5128,5121,5122,5123,5124,5125,5126,5127,5128,5121,5122,5123,5124,5125,5126,5127,5128,5121,5122,5123,5124,5125,5126,5127,5128,5121,5122,5123,5124,5125,5126,5127,5128,5121,5122,5123,5124,5125,5126,5127,5128,5121,5122,5123,5124,5125,5126,5127,5128,5121,5122,5123,5124,5125,5126,5127,5128,5121,5122,5123,5124,5125,5126,5127,5128,5121,5122,5123,5124,5125,5126,5127,5128,5121,5122,5123,5124,5125,5126,5127,5128,5121,5122,5123,5124,5125,5126,5127,5128,
5137,5138,5139,5140,5141,5142,5143,5144,5137,5138,5139,5140,5141,5142,5143,5144,5137,5138,5139,5140,5141,5142,5143,5144,5137,5138,5139,5140,5141,5142,5143,5144,5137,5138,5139,5140,5141,5142,5143,5144,5137,5138,5139,5140,5141,5142,5143,5144,5137,5138,5139,5140,5141,5142,5143,5144,5137,5138,5139,5140,5141,5142,5143,5144,5137,5138,5139,5140,5141,5142,5143,5144,5137,5138,5139,5140,5141,5142,5143,5144,5137,5138,5139,5140,5141,5142,5143,5144,5137,5138,5139,5140,5141,5142,5143,5144,5137,5138,5139,5140,5141,5142,5143,5144,5137,5138,5139,5140,5141,5142,5143,5144,5137,5138,5139,5140,5141,5142,5143,5144,5137,5138,5139,5140,5141,5142,5143,5144,5137,5138,5139,5140,5141,5142,5143,5144,5137,5138,5139,5140,5141,5142,5143,5144,5137,5138,5139,5140,5141,5142,5143,5144,5137,5138,5139,5140,5141,5142,5143,5144,5137,5138,5139,5140,5141,5142,5143,5144,5137,5138,5139,5140,5141,5142,5143,5144,5137,5138,5139,5140,5141,5142,5143,5144,5137,5138,5139,5140,5141,5142,5143,5144,5137,5138,5139,5140,5141,5142,5143,5144,
5153,5154,5155,5156,5157,5158,5159,5160,5153,5154,5155,5156,5157,5158,5159,5160,5153,5154,5155,5156,5157,5158,5159,5160,5153,5154,5155,5156,5157,5158,5159,5160,5153,5154,5155,5156,5157,5158,5159,5160,5153,5154,5155,5156,5157,5158,5159,5160,5153,5154,5155,5156,5157,5158,5159,5160,5153,5154,5155,5156,5157,5158,5159,5160,5153,5154,5155,5156,5157,5158,5159,5160,5153,5154,5155,5156,5157,5158,5159,5160,5153,5154,5155,5156,5157,5158,5159,5160,5153,5154,5155,5156,5157,5158,5159,5160,5153,5154,5155,5156,5157,5158,5159,5160,5153,5154,5155,5156,5157,5158,5159,5160,5153,5154,5155,5156,5157,5158,5159,5160,5153,5154,5155,5156,5157,5158,5159,5160,5153,5154,5155,5156,5157,5158,5159,5160,5153,5154,5155,5156,5157,5158,5159,5160,5153,5154,5155,5156,5157,5158,5159,5160,5153,5154,5155,5156,5157,5158,5159,5160,5153,5154,5155,5156,5157,5158,5159,5160,5153,5154,5155,5156,5157,5158,5159,5160,5153,5154,5155,5156,5157,5158,5159,5160,5153,5154,5155,5156,5157,5158,5159,5160,5153,5154,5155,5156,5157,5158,5159,5160,
5169,5170,5171,5172,5173,5174,5175,5176,5169,5170,5171,5172,5173,5174,5175,5176,5169,5170,5171,5172,5173,5174,5175,5176,5169,5170,5171,5172,5173,5174,5175,5176,5169,5170,5171,5172,5173,5174,5175,5176,5169,5170,5171,5172,5173,5174,5175,5176,5169,5170,5171,5172,5173,5174,5175,5176,5169,5170,5171,5172,5173,5174,5175,5176,5169,5170,5171,5172,5173,5174,5175,5176,5169,5170,5171,5172,5173,5174,5175,5176,5169,5170,5171,5172,5173,5174,5175,5176,5169,5170,5171,5172,5173,5174,5175,5176,5169,5170,5171,5172,5173,5174,5175,5176,5169,5170,5171,5172,5173,5174,5175,5176,5169,5170,5171,5172,5173,5174,5175,5176,5169,5170,5171,5172,5173,5174,5175,5176,5169,5170,5171,5172,5173,5174,5175,5176,5169,5170,5171,5172,5173,5174,5175,5176,5169,5170,5171,5172,5173,5174,5175,5176,5169,5170,5171,5172,5173,5174,5175,5176,5169,5170,5171,5172,5173,5174,5175,5176,5169,5170,5171,5172,5173,5174,5175,5176,5169,5170,5171,5172,5173,5174,5175,5176,5169,5170,5171,5172,5173,5174,5175,5176,5169,5170,5171,5172,5173,5174,5175,5176,
5185,5186,5187,5188,5189,5190,5191,5192,5185,5186,5187,5188,5189,5190,5191,5192,5185,5186,5187,5188,5189,5190,5191,5192,5185,5186,5187,5188,5189,5190,5191,5192,5185,5186,5187,5188,5189,5190,5191,5192,5185,5186,5187,5188,5189,5190,5191,5192,5185,5186,5187,5188,5189,5190,5191,5192,5185,5186,5187,5188,5189,5190,5191,5192,5185,5186,5187,5188,5189,5190,5191,5192,5185,5186,5187,5188,5189,5190,5191,5192,5185,5186,5187,5188,5189,5190,5191,5192,5185,5186,5187,5188,5189,5190,5191,5192,5185,5186,5187,5188,5189,5190,5191,5192,5185,5186,5187,5188,5189,5190,5191,5192,5185,5186,5187,5188,5189,5190,5191,5192,5185,5186,5187,5188,5189,5190,5191,5192,5185,5186,5187,5188,5189,5190,5191,5192,5185,5186,5187,5188,5189,5190,5191,5192,5185,5186,5187,5188,5189,5190,5191,5192,5185,5186,5187,5188,5189,5190,5191,5192,5185,5186,5187,5188,5189,5190,5191,5192,5185,5186,5187,5188,5189,5190,5191,5192,5185,5186,5187,5188,5189,5190,5191,5192,5185,5186,5187,5188,5189,5190,5191,5192,5185,5186,5187,5188,5189,5190,5191,5192,
5201,5202,5203,5204,5205,5206,5207,5208,5201,5202,5203,5204,5205,5206,5207,5208,5201,5202,5203,5204,5205,5206,5207,5208,5201,5202,5203,5204,5205,5206,5207,5208,5201,5202,5203,5204,5205,5206,5207,5208,5201,5202,5203,5204,5205,5206,5207,5208,5201,5202,5203,5204,5205,5206,5207,5208,5201,5202,5203,5204,5205,5206,5207,5208,5201,5202,5203,5204,5205,5206,5207,5208,5201,5202,5203,5204,5205,5206,5207,5208,5201,5202,5203,5204,5205,5206,5207,5208,5201,5202,5203,5204,5205,5206,5207,5208,5201,5202,5203,5204,5205,5206,5207,5208,5201,5202,5203,5204,5205,5206,5207,5208,5201,5202,5203,5204,5205,5206,5207,5208,5201,5202,5203,5204,5205,5206,5207,5208,5201,5202,5203,5204,5205,5206,5207,5208,5201,5202,5203,5204,5205,5206,5207,5208,5201,5202,5203,5204,5205,5206,5207,5208,5201,5202,5203,5204,5205,5206,5207,5208,5201,5202,5203,5204,5205,5206,5207,5208,5201,5202,5203,5204,5205,5206,5207,5208,5201,5202,5203,5204,5205,5206,5207,5208,5201,5202,5203,5204,5205,5206,5207,5208,5201,5202,5203,5204,5205,5206,5207,5208,
5217,5218,5219,5220,5221,5222,5223,5224,5217,5218,5219,5220,5221,5222,5223,5224,5217,5218,5219,5220,5221,5222,5223,5224,5217,5218,5219,5220,5221,5222,5223,5224,5217,5218,5219,5220,5221,5222,5223,5224,5217,5218,5219,5220,5221,5222,5223,5224,5217,5218,5219,5220,5221,5222,5223,5224,5217,5218,5219,5220,5221,5222,5223,5224,5217,5218,5219,5220,5221,5222,5223,5224,5217,5218,5219,5220,5221,5222,5223,5224,5217,5218,5219,5220,5221,5222,5223,5224,5217,5218,5219,5220,5221,5222,5223,5224,5217,5218,5219,5220,5221,5222,5223,5224,5217,5218,5219,5220,5221,5222,5223,5224,5217,5218,5219,5220,5221,5222,5223,5224,5217,5218,5219,5220,5221,5222,5223,5224,5217,5218,5219,5220,5221,5222,5223,5224,5217,5218,5219,5220,5221,5222,5223,5224,5217,5218,5219,5220,5221,5222,5223,5224,5217,5218,5219,5220,5221,5222,5223,5224,5217,5218,5219,5220,5221,5222,5223,5224,5217,5218,5219,5220,5221,5222,5223,5224,5217,5218,5219,5220,5221,5222,5223,5224,5217,5218,5219,5220,5221,5222,5223,5224,5217,5218,5219,5220,5221,5222,5223,5224,
5233,5234,5235,5236,5237,5238,5239,5240,5233,5234,5235,5236,5237,5238,5239,5240,5233,5234,5235,5236,5237,5238,5239,5240,5233,5234,5235,5236,5237,5238,5239,5240,5233,5234,5235,5236,5237,5238,5239,5240,5233,5234,5235,5236,5237,5238,5239,5240,5233,5234,5235,5236,5237,5238,5239,5240,5233,5234,5235,5236,5237,5238,5239,5240,5233,5234,5235,5236,5237,5238,5239,5240,5233,5234,5235,5236,5237,5238,5239,5240,5233,5234,5235,5236,5237,5238,5239,5240,5233,5234,5235,5236,5237,5238,5239,5240,5233,5234,5235,5236,5237,5238,5239,5240,5233,5234,5235,5236,5237,5238,5239,5240,5233,5234,5235,5236,5237,5238,5239,5240,5233,5234,5235,5236,5237,5238,5239,5240,5233,5234,5235,5236,5237,5238,5239,5240,5233,5234,5235,5236,5237,5238,5239,5240,5233,5234,5235,5236,5237,5238,5239,5240,5233,5234,5235,5236,5237,5238,5239,5240,5233,5234,5235,5236,5237,5238,5239,5240,5233,5234,5235,5236,5237,5238,5239,5240,5233,5234,5235,5236,5237,5238,5239,5240,5233,5234,5235,5236,5237,5238,5239,5240,5233,5234,5235,5236,5237,5238,5239,5240,
5121,5122,5123,5124,5125,5126,5127,5128,5121,5122,5123,5124,5125,5126,5127,5128,5121,5122,5123,5124,5125,5126,5127,5128,5121,5122,5123,5124,5125,5126,5127,5128,5121,5122,5123,5124,5125,5126,5127,5128,5121,5122,5123,5124,5125,5126,5127,5128,5121,5122,5123,5124,5125,5126,5127,5128,5121,5122,5123,5124,5125,5126,5127,5128,5121,5122,5123,5124,5125,5126,5127,5128,5121,5122,5123,5124,5125,5126,5127,5128,5121,5122,5123,5124,5125,5126,5127,5128,5121,5122,5123,5124,5125,5126,5127,5128,5121,5122,5123,5124,5125,5126,5127,5128,5121,5122,5123,5124,5125,5126,5127,5128,5121,5122,5123,5124,5125,5126,5127,5128,5121,5122,5123,5124,5125,5126,5127,5128,5121,5122,5123,5124,5125,5126,5127,5128,5121,5122,5123,5124,5125,5126,5127,5128,5121,5122,5123,5124,5125,5126,5127,5128,5121,5122,5123,5124,5125,5126,5127,5128,5121,5122,5123,5124,5125,5126,5127,5128,5121,5122,5123,5124,5125,5126,5127,5128,5121,5122,5123,5124,5125,5126,5127,5128,5121,5122,5123,5124,5125,5126,5127,5128,5121,5122,5123,5124,5125,5126,5127,5128,
5137,5138,5139,5140,5141,5142,5143,5144,5137,5138,5139,5140,5141,5142,5143,5144,5137,5138,5139,5140,5141,5142,5143,5144,5137,5138,5139,5140,5141,5142,5143,5144,5137,5138,5139,5140,5141,5142,5143,5144,5137,5138,5139,5140,5141,5142,5143,5144,5137,5138,5139,5140,5141,5142,5143,5144,5137,5138,5139,5140,5141,5142,5143,5144,5137,5138,5139,5140,5141,5142,5143,5144,5137,5138,5139,5140,5141,5142,5143,5144,5137,5138,5139,5140,5141,5142,5143,5144,5137,5138,5139,5140,5141,5142,5143,5144,5137,5138,5139,5140,5141,5142,5143,5144,5137,5138,5139,5140,5141,5142,5143,5144,5137,5138,5139,5140,5141,5142,5143,5144,5137,5138,5139,5140,5141,5142,5143,5144,5137,5138,5139,5140,5141,5142,5143,5144,5137,5138,5139,5140,5141,5142,5143,5144,5137,5138,5139,5140,5141,5142,5143,5144,5137,5138,5139,5140,5141,5142,5143,5144,5137,5138,5139,5140,5141,5142,5143,5144,5137,5138,5139,5140,5141,5142,5143,5144,5137,5138,5139,5140,5141,5142,5143,5144,5137,5138,5139,5140,5141,5142,5143,5144,5137,5138,5139,5140,5141,5142,5143,5144,
5153,5154,5155,5156,5157,5158,5159,5160,5153,5154,5155,5156,5157,5158,5159,5160,5153,5154,5155,5156,5157,5158,5159,5160,5153,5154,5155,5156,5157,5158,5159,5160,5153,5154,5155,5156,5157,5158,5159,5160,5153,5154,5155,5156,5157,5158,5159,5160,5153,5154,5155,5156,5157,5158,5159,5160,5153,5154,5155,5156,5157,5158,5159,5160,5153,5154,5155,5156,5157,5158,5159,5160,5153,5154,5155,5156,5157,5158,5159,5160,5153,5154,5155,5156,5157,5158,5159,5160,5153,5154,5155,5156,5157,5158,5159,5160,5153,5154,5155,5156,5157,5158,5159,5160,5153,5154,5155,5156,5157,5158,5159,5160,5153,5154,5155,5156,5157,5158,5159,5160,5153,5154,5155,5156,5157,5158,5159,5160,5153,5154,5155,5156,5157,5158,5159,5160,5153,5154,5155,5156,5157,5158,5159,5160,5153,5154,5155,5156,5157,5158,5159,5160,5153,5154,5155,5156,5157,5158,5159,5160,5153,5154,5155,5156,5157,5158,5159,5160,5153,5154,5155,5156,5157,5158,5159,5160,5153,5154,5155,5156,5157,5158,5159,5160,5153,5154,5155,5156,5157,5158,5159,5160,5153,5154,5155,5156,5157,5158,5159,5160,
5169,5170,5171,5172,5173,5174,5175,5176,5169,5170,5171,5172,5173,5174,5175,5176,5169,5170,5171,5172,5173,5174,5175,5176,5169,5170,5171,5172,5173,5174,5175,5176,5169,5170,5171,5172,5173,5174,5175,5176,5169,5170,5171,5172,5173,5174,5175,5176,5169,5170,5171,5172,5173,5174,5175,5176,5169,5170,5171,5172,5173,5174,5175,5176,5169,5170,5171,5172,5173,5174,5175,5176,5169,5170,5171,5172,5173,5174,5175,5176,5169,5170,5171,5172,5173,5174,5175,5176,5169,5170,5171,5172,5173,5174,5175,5176,5169,5170,5171,5172,5173,5174,5175,5176,5169,5170,5171,5172,5173,5174,5175,5176,5169,5170,5171,5172,5173,5174,5175,5176,5169,5170,5171,5172,5173,5174,5175,5176,5169,5170,5171,5172,5173,5174,5175,5176,5169,5170,5171,5172,5173,5174,5175,5176,5169,5170,5171,5172,5173,5174,5175,5176,5169,5170,5171,5172,5173,5174,5175,5176,5169,5170,5171,5172,5173,5174,5175,5176,5169,5170,5171,5172,5173,5174,5175,5176,5169,5170,5171,5172,5173,5174,5175,5176,5169,5170,5171,5172,5173,5174,5175,5176,5169,5170,5171,5172,5173,5174,5175,5176,
5185,5186,5187,5188,5189,5190,5191,5192,5185,5186,5187,5188,5189,5190,5191,5192,5185,5186,5187,5188,5189,5190,5191,5192,5185,5186,5187,5188,5189,5190,5191,5192,5185,5186,5187,5188,5189,5190,5191,5192,5185,5186,5187,5188,5189,5190,5191,5192,5185,5186,5187,5188,5189,5190,5191,5192,5185,5186,5187,5188,5189,5190,5191,5192,5185,5186,5187,5188,5189,5190,5191,5192,5185,5186,5187,5188,5189,5190,5191,5192,5185,5186,5187,5188,5189,5190,5191,5192,5185,5186,5187,5188,5189,5190,5191,5192,5185,5186,5187,5188,5189,5190,5191,5192,5185,5186,5187,5188,5189,5190,5191,5192,5185,5186,5187,5188,5189,5190,5191,5192,5185,5186,5187,5188,5189,5190,5191,5192,5185,5186,5187,5188,5189,5190,5191,5192,5185,5186,5187,5188,5189,5190,5191,5192,5185,5186,5187,5188,5189,5190,5191,5192,5185,5186,5187,5188,5189,5190,5191,5192,5185,5186,5187,5188,5189,5190,5191,5192,5185,5186,5187,5188,5189,5190,5191,5192,5185,5186,5187,5188,5189,5190,5191,5192,5185,5186,5187,5188,5189,5190,5191,5192,5185,5186,5187,5188,5189,5190,5191,5192,
5201,5202,5203,5204,5205,5206,5207,5208,5201,5202,5203,5204,5205,5206,5207,5208,5201,5202,5203,5204,5205,5206,5207,5208,5201,5202,5203,5204,5205,5206,5207,5208,5201,5202,5203,5204,5205,5206,5207,5208,5201,5202,5203,5204,5205,5206,5207,5208,5201,5202,5203,5204,5205,5206,5207,5208,5201,5202,5203,5204,5205,5206,5207,5208,5201,5202,5203,5204,5205,5206,5207,5208,5201,5202,5203,5204,5205,5206,5207,5208,5201,5202,5203,5204,5205,5206,5207,5208,5201,5202,5203,5204,5205,5206,5207,5208,5201,5202,5203,5204,5205,5206,5207,5208,5201,5202,5203,5204,5205,5206,5207,5208,5201,5202,5203,5204,5205,5206,5207,5208,5201,5202,5203,5204,5205,5206,5207,5208,5201,5202,5203,5204,5205,5206,5207,5208,5201,5202,5203,5204,5205,5206,5207,5208,5201,5202,5203,5204,5205,5206,5207,5208,5201,5202,5203,5204,5205,5206,5207,5208,5201,5202,5203,5204,5205,5206,5207,5208,5201,5202,5203,5204,5205,5206,5207,5208,5201,5202,5203,5204,5205,5206,5207,5208,5201,5202,5203,5204,5205,5206,5207,5208,5201,5202,5203,5204,5205,5206,5207,5208,
5217,5218,5219,5220,5221,5222,5223,5224,5217,5218,5219,5220,5221,5222,5223,5224,5217,5218,5219,5220,5221,5222,5223,5224,5217,5218,5219,5220,5221,5222,5223,5224,5217,5218,5219,5220,5221,5222,5223,5224,5217,5218,5219,5220,5221,5222,5223,5224,5217,5218,5219,5220,5221,5222,5223,5224,5217,5218,5219,5220,5221,5222,5223,5224,5217,5218,5219,5220,5221,5222,5223,5224,5217,5218,5219,5220,5221,5222,5223,5224,5217,5218,5219,5220,5221,5222,5223,5224,5217,5218,5219,5220,5221,5222,5223,5224,5217,5218,5219,5220,5221,5222,5223,5224,5217,5218,5219,5220,5221,5222,5223,5224,5217,5218,5219,5220,5221,5222,5223,5224,5217,5218,5219,5220,5221,5222,5223,5224,5217,5218,5219,5220,5221,5222,5223,5224,5217,5218,5219,5220,5221,5222,5223,5224,5217,5218,5219,5220,5221,5222,5223,5224,5217,5218,5219,5220,5221,5222,5223,5224,5217,5218,5219,5220,5221,5222,5223,5224,5217,5218,5219,5220,5221,5222,5223,5224,5217,5218,5219,5220,5221,5222,5223,5224,5217,5218,5219,5220,5221,5222,5223,5224,5217,5218,5219,5220,5221,5222,5223,5224,
5233,5234,5235,5236,5237,5238,5239,5240,5233,5234,5235,5236,5237,5238,5239,5240,5233,5234,5235,5236,5237,5238,5239,5240,5233,5234,5235,5236,5237,5238,5239,5240,5233,5234,5235,5236,5237,5238,5239,5240,5233,5234,5235,5236,5237,5238,5239,5240,5233,5234,5235,5236,5237,5238,5239,5240,5233,5234,5235,5236,5237,5238,5239,5240,5233,5234,5235,5236,5237,5238,5239,5240,5233,5234,5235,5236,5237,5238,5239,5240,5233,5234,5235,5236,5237,5238,5239,5240,5233,5234,5235,5236,5237,5238,5239,5240,5233,5234,5235,5236,5237,5238,5239,5240,5233,5234,5235,5236,5237,5238,5239,5240,5233,5234,5235,5236,5237,5238,5239,5240,5233,5234,5235,5236,5237,5238,5239,5240,5233,5234,5235,5236,5237,5238,5239,5240,5233,5234,5235,5236,5237,5238,5239,5240,5233,5234,5235,5236,5237,5238,5239,5240,5233,5234,5235,5236,5237,5238,5239,5240,5233,5234,5235,5236,5237,5238,5239,5240,5233,5234,5235,5236,5237,5238,5239,5240,5233,5234,5235,5236,5237,5238,5239,5240,5233,5234,5235,5236,5237,5238,5239,5240,5233,5234,5235,5236,5237,5238,5239,5240,
5121,5122,5123,5124,5125,5126,5127,5128,5121,5122,5123,5124,5125,5126,5127,5128,5121,5122,5123,5124,5125,5126,5127,5128,5121,5122,5123,5124,5125,5126,5127,5128,5121,5122,5123,5124,5125,5126,5127,5128,5121,5122,5123,5124,5125,5126,5127,5128,5121,5122,5123,5124,5125,5126,5127,5128,5121,5122,5123,5124,5125,5126,5127,5128,5121,5122,5123,5124,5125,5126,5127,5128,5121,5122,5123,5124,5125,5126,5127,5128,5121,5122,5123,5124,5125,5126,5127,5128,5121,5122,5123,5124,5125,5126,5127,5128,5121,5122,5123,5124,5125,5126,5127,5128,5121,5122,5123,5124,5125,5126,5127,5128,5121,5122,5123,5124,5125,5126,5127,5128,5121,5122,5123,5124,5125,5126,5127,5128,5121,5122,5123,5124,5125,5126,5127,5128,5121,5122,5123,5124,5125,5126,5127,5128,5121,5122,5123,5124,5125,5126,5127,5128,5121,5122,5123,5124,5125,5126,5127,5128,5121,5122,5123,5124,5125,5126,5127,5128,5121,5122,5123,5124,5125,5126,5127,5128,5121,5122,5123,5124,5125,5126,5127,5128,5121,5122,5123,5124,5125,5126,5127,5128,5121,5122,5123,5124,5125,5126,5127,5128,
5137,5138,5139,5140,5141,5142,5143,5144,5137,5138,5139,5140,5141,5142,5143,5144,5137,5138,5139,5140,5141,5142,5143,5144,5137,5138,5139,5140,5141,5142,5143,5144,5137,5138,5139,5140,5141,5142,5143,5144,5137,5138,5139,5140,5141,5142,5143,5144,5137,5138,5139,5140,5141,5142,5143,5144,5137,5138,5139,5140,5141,5142,5143,5144,5137,5138,5139,5140,5141,5142,5143,5144,5137,5138,5139,5140,5141,5142,5143,5144,5137,5138,5139,5140,5141,5142,5143,5144,5137,5138,5139,5140,5141,5142,5143,5144,5137,5138,5139,5140,5141,5142,5143,5144,5137,5138,5139,5140,5141,5142,5143,5144,5137,5138,5139,5140,5141,5142,5143,5144,5137,5138,5139,5140,5141,5142,5143,5144,5137,5138,5139,5140,5141,5142,5143,5144,5137,5138,5139,5140,5141,5142,5143,5144,5137,5138,5139,5140,5141,5142,5143,5144,5137,5138,5139,5140,5141,5142,5143,5144,5137,5138,5139,5140,5141,5142,5143,5144,5137,5138,5139,5140,5141,5142,5143,5144,5137,5138,5139,5140,5141,5142,5143,5144,5137,5138,5139,5140,5141,5142,5143,5144,5137,5138,5139,5140,5141,5142,5143,5144,
5153,5154,5155,5156,5157,5158,5159,5160,5153,5154,5155,5156,5157,5158,5159,5160,5153,5154,5155,5156,5157,5158,5159,5160,5153,5154,5155,5156,5157,5158,5159,5160,5153,5154,5155,5156,5157,5158,5159,5160,5153,5154,5155,5156,5157,5158,5159,5160,5153,5154,5155,5156,5157,5158,5159,5160,5153,5154,5155,5156,5157,5158,5159,5160,5153,5154,5155,5156,5157,5158,5159,5160,5153,5154,5155,5156,5157,5158,5159,5160,5153,5154,5155,5156,5157,5158,5159,5160,5153,5154,5155,5156,5157,5158,5159,5160,5153,5154,5155,5156,5157,5158,5159,5160,5153,5154,5155,5156,5157,5158,5159,5160,5153,5154,5155,5156,5157,5158,5159,5160,5153,5154,5155,5156,5157,5158,5159,5160,5153,5154,5155,5156,5157,5158,5159,5160,5153,5154,5155,5156,5157,5158,5159,5160,5153,5154,5155,5156,5157,5158,5159,5160,5153,5154,5155,5156,5157,5158,5159,5160,5153,5154,5155,5156,5157,5158,5159,5160,5153,5154,5155,5156,5157,5158,5159,5160,5153,5154,5155,5156,5157,5158,5159,5160,5153,5154,5155,5156,5157,5158,5159,5160,5153,5154,5155,5156,5157,5158,5159,5160,
5169,5170,5171,5172,5173,5174,5175,5176,5169,5170,5171,5172,5173,5174,5175,5176,5169,5170,5171,5172,5173,5174,5175,5176,5169,5170,5171,5172,5173,5174,5175,5176,5169,5170,5171,5172,5173,5174,5175,5176,5169,5170,5171,5172,5173,5174,5175,5176,5169,5170,5171,5172,5173,5174,5175,5176,5169,5170,5171,5172,5173,5174,5175,5176,5169,5170,5171,5172,5173,5174,5175,5176,5169,5170,5171,5172,5173,5174,5175,5176,5169,5170,5171,5172,5173,5174,5175,5176,5169,5170,5171,5172,5173,5174,5175,5176,5169,5170,5171,5172,5173,5174,5175,5176,5169,5170,5171,5172,5173,5174,5175,5176,5169,5170,5171,5172,5173,5174,5175,5176,5169,5170,5171,5172,5173,5174,5175,5176,5169,5170,5171,5172,5173,5174,5175,5176,5169,5170,5171,5172,5173,5174,5175,5176,5169,5170,5171,5172,5173,5174,5175,5176,5169,5170,5171,5172,5173,5174,5175,5176,5169,5170,5171,5172,5173,5174,5175,5176,5169,5170,5171,5172,5173,5174,5175,5176,5169,5170,5171,5172,5173,5174,5175,5176,5169,5170,5171,5172,5173,5174,5175,5176,5169,5170,5171,5172,5173,5174,5175,5176,
5185,5186,5187,5188,5189,5190,5191,5192,5185,5186,5187,5188,5189,5190,5191,5192,5185,5186,5187,5188,5189,5190,5191,5192,5185,5186,5187,5188,5189,5190,5191,5192,5185,5186,5187,5188,5189,5190,5191,5192,5185,5186,5187,5188,5189,5190,5191,5192,5185,5186,5187,5188,5189,5190,5191,5192,5185,5186,5187,5188,5189,5190,5191,5192,5185,5186,5187,5188,5189,5190,5191,5192,5185,5186,5187,5188,5189,5190,5191,5192,5185,5186,5187,5188,5189,5190,5191,5192,5185,5186,5187,5188,5189,5190,5191,5192,5185,5186,5187,5188,5189,5190,5191,5192,5185,5186,5187,5188,5189,5190,5191,5192,5185,5186,5187,5188,5189,5190,5191,5192,5185,5186,5187,5188,5189,5190,5191,5192,5185,5186,5187,5188,5189,5190,5191,5192,5185,5186,5187,5188,5189,5190,5191,5192,5185,5186,5187,5188,5189,5190,5191,5192,5185,5186,5187,5188,5189,5190,5191,5192,5185,5186,5187,5188,5189,5190,5191,5192,5185,5186,5187,5188,5189,5190,5191,5192,5185,5186,5187,5188,5189,5190,5191,5192,5185,5186,5187,5188,5189,5190,5191,5192,5185,5186,5187,5188,5189,5190,5191,5192,
5201,5202,5203,5204,5205,5206,5207,5208,5201,5202,5203,5204,5205,5206,5207,5208,5201,5202,5203,5204,5205,5206,5207,5208,5201,5202,5203,5204,5205,5206,5207,5208,5201,5202,5203,5204,5205,5206,5207,5208,5201,5202,5203,5204,5205,5206,5207,5208,5201,5202,5203,5204,5205,5206,5207,5208,5201,5202,5203,5204,5205,5206,5207,5208,5201,5202,5203,5204,5205,5206,5207,5208,5201,5202,5203,5204,5205,5206,5207,5208,5201,5202,5203,5204,5205,5206,5207,5208,5201,5202,5203,5204,5205,5206,5207,5208,5201,5202,5203,5204,5205,5206,5207,5208,5201,5202,5203,5204,5205,5206,5207,5208,5201,5202,5203,5204,5205,5206,5207,5208,5201,5202,5203,5204,5205,5206,5207,5208,5201,5202,5203,5204,5205,5206,5207,5208,5201,5202,5203,5204,5205,5206,5207,5208,5201,5202,5203,5204,5205,5206,5207,5208,5201,5202,5203,5204,5205,5206,5207,5208,5201,5202,5203,5204,5205,5206,5207,5208,5201,5202,5203,5204,5205,5206,5207,5208,5201,5202,5203,5204,5205,5206,5207,5208,5201,5202,5203,5204,5205,5206,5207,5208,5201,5202,5203,5204,5205,5206,5207,5208,
5217,5218,5219,5220,5221,5222,5223,5224,5217,5218,5219,5220,5221,5222,5223,5224,5217,5218,5219,5220,5221,5222,5223,5224,5217,5218,5219,5220,5221,5222,5223,5224,5217,5218,5219,5220,5221,5222,5223,5224,5217,5218,5219,5220,5221,5222,5223,5224,5217,5218,5219,5220,5221,5222,5223,5224,5217,5218,5219,5220,5221,5222,5223,5224,5217,5218,5219,5220,5221,5222,5223,5224,5217,5218,5219,5220,5221,5222,5223,5224,5217,5218,5219,5220,5221,5222,5223,5224,5217,5218,5219,5220,5221,5222,5223,5224,5217,5218,5219,5220,5221,5222,5223,5224,5217,5218,5219,5220,5221,5222,5223,5224,5217,5218,5219,5220,5221,5222,5223,5224,5217,5218,5219,5220,5221,5222,5223,5224,5217,5218,5219,5220,5221,5222,5223,5224,5217,5218,5219,5220,5221,5222,5223,5224,5217,5218,5219,5220,5221,5222,5223,5224,5217,5218,5219,5220,5221,5222,5223,5224,5217,5218,5219,5220,5221,5222,5223,5224,5217,5218,5219,5220,5221,5222,5223,5224,5217,5218,5219,5220,5221,5222,5223,5224,5217,5218,5219,5220,5221,5222,5223,5224,5217,5218,5219,5220,5221,5222,5223,5224,
5233,5234,5235,5236,5237,5238,5239,5240,5233,5234,5235,5236,5237,5238,5239,5240,5233,5234,5235,5236,5237,5238,5239,5240,5233,5234,5235,5236,5237,5238,5239,5240,5233,5234,5235,5236,5237,5238,5239,5240,5233,5234,5235,5236,5237,5238,5239,5240,5233,5234,5235,5236,5237,5238,5239,5240,5233,5234,5235,5236,5237,5238,5239,5240,5233,5234,5235,5236,5237,5238,5239,5240,5233,5234,5235,5236,5237,5238,5239,5240,5233,5234,5235,5236,5237,5238,5239,5240,5233,5234,5235,5236,5237,5238,5239,5240,5233,5234,5235,5236,5237,5238,5239,5240,5233,5234,5235,5236,5237,5238,5239,5240,5233,5234,5235,5236,5237,5238,5239,5240,5233,5234,5235,5236,5237,5238,5239,5240,5233,5234,5235,5236,5237,5238,5239,5240,5233,5234,5235,5236,5237,5238,5239,5240,5233,5234,5235,5236,5237,5238,5239,5240,5233,5234,5235,5236,5237,5238,5239,5240,5233,5234,5235,5236,5237,5238,5239,5240,5233,5234,5235,5236,5237,5238,5239,5240,5233,5234,5235,5236,5237,5238,5239,5240,5233,5234,5235,5236,5237,5238,5239,5240,5233,5234,5235,5236,5237,5238,5239,5240,
5121,5122,5123,5124,5125,5126,5127,5128,5121,5122,5123,5124,5125,5126,5127,5128,5121,5122,5123,5124,5125,5126,5127,5128,5121,5122,5123,5124,5125,5126,5127,5128,5121,5122,5123,5124,5125,5126,5127,5128,5121,5122,5123,5124,5125,5126,5127,5128,5121,5122,5123,5124,5125,5126,5127,5128,5121,5122,5123,5124,5125,5126,5127,5128,5121,5122,5123,5124,5125,5126,5127,5128,5121,5122,5123,5124,5125,5126,5127,5128,5121,5122,5123,5124,5125,5126,5127,5128,5121,5122,5123,5124,5125,5126,5127,5128,5121,5122,5123,5124,5125,5126,5127,5128,5121,5122,5123,5124,5125,5126,5127,5128,5121,5122,5123,5124,5125,5126,5127,5128,5121,5122,5123,5124,5125,5126,5127,5128,5121,5122,5123,5124,5125,5126,5127,5128,5121,5122,5123,5124,5125,5126,5127,5128,5121,5122,5123,5124,5125,5126,5127,5128,5121,5122,5123,5124,5125,5126,5127,5128,5121,5122,5123,5124,5125,5126,5127,5128,5121,5122,5123,5124,5125,5126,5127,5128,5121,5122,5123,5124,5125,5126,5127,5128,5121,5122,5123,5124,5125,5126,5127,5128,5121,5122,5123,5124,5125,5126,5127,5128,
5137,5138,5139,5140,5141,5142,5143,5144,5137,5138,5139,5140,5141,5142,5143,5144,5137,5138,5139,5140,5141,5142,5143,5144,5137,5138,5139,5140,5141,5142,5143,5144,5137,5138,5139,5140,5141,5142,5143,5144,5137,5138,5139,5140,5141,5142,5143,5144,5137,5138,5139,5140,5141,5142,5143,5144,5137,5138,5139,5140,5141,5142,5143,5144,5137,5138,5139,5140,5141,5142,5143,5144,5137,5138,5139,5140,5141,5142,5143,5144,5137,5138,5139,5140,5141,5142,5143,5144,5137,5138,5139,5140,5141,5142,5143,5144,5137,5138,5139,5140,5141,5142,5143,5144,5137,5138,5139,5140,5141,5142,5143,5144,5137,5138,5139,5140,5141,5142,5143,5144,5137,5138,5139,5140,5141,5142,5143,5144,5137,5138,5139,5140,5141,5142,5143,5144,5137,5138,5139,5140,5141,5142,5143,5144,5137,5138,5139,5140,5141,5142,5143,5144,5137,5138,5139,5140,5141,5142,5143,5144,5137,5138,5139,5140,5141,5142,5143,5144,5137,5138,5139,5140,5141,5142,5143,5144,5137,5138,5139,5140,5141,5142,5143,5144,5137,5138,5139,5140,5141,5142,5143,5144,5137,5138,5139,5140,5141,5142,5143,5144,
5153,5154,5155,5156,5157,5158,5159,5160,5153,5154,5155,5156,5157,5158,5159,5160,5153,5154,5155,5156,5157,5158,5159,5160,5153,5154,5155,5156,5157,5158,5159,5160,5153,5154,5155,5156,5157,5158,5159,5160,5153,5154,5155,5156,5157,5158,5159,5160,5153,5154,5155,5156,5157,5158,5159,5160,5153,5154,5155,5156,5157,5158,5159,5160,5153,5154,5155,5156,5157,5158,5159,5160,5153,5154,5155,5156,5157,5158,5159,5160,5153,5154,5155,5156,5157,5158,5159,5160,5153,5154,5155,5156,5157,5158,5159,5160,5153,5154,5155,5156,5157,5158,5159,5160,5153,5154,5155,5156,5157,5158,5159,5160,5153,5154,5155,5156,5157,5158,5159,5160,5153,5154,5155,5156,5157,5158,5159,5160,5153,5154,5155,5156,5157,5158,5159,5160,5153,5154,5155,5156,5157,5158,5159,5160,5153,5154,5155,5156,5157,5158,5159,5160,5153,5154,5155,5156,5157,5158,5159,5160,5153,5154,5155,5156,5157,5158,5159,5160,5153,5154,5155,5156,5157,5158,5159,5160,5153,5154,5155,5156,5157,5158,5159,5160,5153,5154,5155,5156,5157,5158,5159,5160,5153,5154,5155,5156,5157,5158,5159,5160,
5169,5170,5171,5172,5173,5174,5175,5176,5169,5170,5171,5172,5173,5174,5175,5176,5169,5170,5171,5172,5173,5174,5175,5176,5169,5170,5171,5172,5173,5174,5175,5176,5169,5170,5171,5172,5173,5174,5175,5176,5169,5170,5171,5172,5173,5174,5175,5176,5169,5170,5171,5172,5173,5174,5175,5176,5169,5170,5171,5172,5173,5174,5175,5176,5169,5170,5171,5172,5173,5174,5175,5176,5169,5170,5171,5172,5173,5174,5175,5176,5169,5170,5171,5172,5173,5174,5175,5176,5169,5170,5171,5172,5173,5174,5175,5176,5169,5170,5171,5172,5173,5174,5175,5176,5169,5170,5171,5172,5173,5174,5175,5176,5169,5170,5171,5172,5173,5174,5175,5176,5169,5170,5171,5172,5173,5174,5175,5176,5169,5170,5171,5172,5173,5174,5175,5176,5169,5170,5171,5172,5173,5174,5175,5176,5169,5170,5171,5172,5173,5174,5175,5176,5169,5170,5171,5172,5173,5174,5175,5176,5169,5170,5171,5172,5173,5174,5175,5176,5169,5170,5171,5172,5173,5174,5175,5176,5169,5170,5171,5172,5173,5174,5175,5176,5169,5170,5171,5172,5173,5174,5175,5176,5169,5170,5171,5172,5173,5174,5175,5176,
5185,5186,5187,5188,5189,5190,5191,5192,5185,5186,5187,5188,5189,5190,5191,5192,5185,5186,5187,5188,5189,5190,5191,5192,5185,5186,5187,5188,5189,5190,5191,5192,5185,5186,5187,5188,5189,5190,5191,5192,5185,5186,5187,5188,5189,5190,5191,5192,5185,5186,5187,5188,5189,5190,5191,5192,5185,5186,5187,5188,5189,5190,5191,5192,5185,5186,5187,5188,5189,5190,5191,5192,5185,5186,5187,5188,5189,5190,5191,5192,5185,5186,5187,5188,5189,5190,5191,5192,5185,5186,5187,5188,5189,5190,5191,5192,5185,5186,5187,5188,5189,5190,5191,5192,5185,5186,5187,5188,5189,5190,5191,5192,5185,5186,5187,5188,5189,5190,5191,5192,5185,5186,5187,5188,5189,5190,5191,5192,5185,5186,5187,5188,5189,5190,5191,5192,5185,5186,5187,5188,5189,5190,5191,5192,5185,5186,5187,5188,5189,5190,5191,5192,5185,5186,5187,5188,5189,5190,5191,5192,5185,5186,5187,5188,5189,5190,5191,5192,5185,5186,5187,5188,5189,5190,5191,5192,5185,5186,5187,5188,5189,5190,5191,5192,5185,5186,5187,5188,5189,5190,5191,5192,5185,5186,5187,5188,5189,5190,5191,5192,
5201,5202,5203,5204,5205,5206,5207,5208,5201,5202,5203,5204,5205,5206,5207,5208,5201,5202,5203,5204,5205,5206,5207,5208,5201,5202,5203,5204,5205,5206,5207,5208,5201,5202,5203,5204,5205,5206,5207,5208,5201,5202,5203,5204,5205,5206,5207,5208,5201,5202,5203,5204,5205,5206,5207,5208,5201,5202,5203,5204,5205,5206,5207,5208,5201,5202,5203,5204,5205,5206,5207,5208,5201,5202,5203,5204,5205,5206,5207,5208,5201,5202,5203,5204,5205,5206,5207,5208,5201,5202,5203,5204,5205,5206,5207,5208,5201,5202,5203,5204,5205,5206,5207,5208,5201,5202,5203,5204,5205,5206,5207,5208,5201,5202,5203,5204,5205,5206,5207,5208,5201,5202,5203,5204,5205,5206,5207,5208,5201,5202,5203,5204,5205,5206,5207,5208,5201,5202,5203,5204,5205,5206,5207,5208,5201,5202,5203,5204,5205,5206,5207,5208,5201,5202,5203,5204,5205,5206,5207,5208,5201,5202,5203,5204,5205,5206,5207,5208,5201,5202,5203,5204,5205,5206,5207,5208,5201,5202,5203,5204,5205,5206,5207,5208,5201,5202,5203,5204,5205,5206,5207,5208,5201,5202,5203,5204,5205,5206,5207,5208,
5217,5218,5219,5220,5221,5222,5223,5224,5217,5218,5219,5220,5221,5222,5223,5224,5217,5218,5219,5220,5221,5222,5223,5224,5217,5218,5219,5220,5221,5222,5223,5224,5217,5218,5219,5220,5221,5222,5223,5224,5217,5218,5219,5220,5221,5222,5223,5224,5217,5218,5219,5220,5221,5222,5223,5224,5217,5218,5219,5220,5221,5222,5223,5224,5217,5218,5219,5220,5221,5222,5223,5224,5217,5218,5219,5220,5221,5222,5223,5224,5217,5218,5219,5220,5221,5222,5223,5224,5217,5218,5219,5220,5221,5222,5223,5224,5217,5218,5219,5220,5221,5222,5223,5224,5217,5218,5219,5220,5221,5222,5223,5224,5217,5218,5219,5220,5221,5222,5223,5224,5217,5218,5219,5220,5221,5222,5223,5224,5217,5218,5219,5220,5221,5222,5223,5224,5217,5218,5219,5220,5221,5222,5223,5224,5217,5218,5219,5220,5221,5222,5223,5224,5217,5218,5219,5220,5221,5222,5223,5224,5217,5218,5219,5220,5221,5222,5223,5224,5217,5218,5219,5220,5221,5222,5223,5224,5217,5218,5219,5220,5221,5222,5223,5224,5217,5218,5219,5220,5221,5222,5223,5224,5217,5218,5219,5220,5221,5222,5223,5224,
5233,5234,5235,5236,5237,5238,5239,5240,5233,5234,5235,5236,5237,5238,5239,5240,5233,5234,5235,5236,5237,5238,5239,5240,5233,5234,5235,5236,5237,5238,5239,5240,5233,5234,5235,5236,5237,5238,5239,5240,5233,5234,5235,5236,5237,5238,5239,5240,5233,5234,5235,5236,5237,5238,5239,5240,5233,5234,5235,5236,5237,5238,5239,5240,5233,5234,5235,5236,5237,5238,5239,5240,5233,5234,5235,5236,5237,5238,5239,5240,5233,5234,5235,5236,5237,5238,5239,5240,5233,5234,5235,5236,5237,5238,5239,5240,5233,5234,5235,5236,5237,5238,5239,5240,5233,5234,5235,5236,5237,5238,5239,5240,5233,5234,5235,5236,5237,5238,5239,5240,5233,5234,5235,5236,5237,5238,5239,5240,5233,5234,5235,5236,5237,5238,5239,5240,5233,5234,5235,5236,5237,5238,5239,5240,5233,5234,5235,5236,5237,5238,5239,5240,5233,5234,5235,5236,5237,5238,5239,5240,5233,5234,5235,5236,5237,5238,5239,5240,5233,5234,5235,5236,5237,5238,5239,5240,5233,5234,5235,5236,5237,5238,5239,5240,5233,5234,5235,5236,5237,5238,5239,5240,5233,5234,5235,5236,5237,5238,5239,5240,
5121,5122,5123,5124,5125,5126,5127,5128,5121,5122,5123,5124,5125,5126,5127,5128,5121,5122,5123,5124,5125,5126,5127,5128,5121,5122,5123,5124,5125,5126,5127,5128,5121,5122,5123,5124,5125,5126,5127,5128,5121,5122,5123,5124,5125,5126,5127,5128,5121,5122,5123,5124,5125,5126,5127,5128,5121,5122,5123,5124,5125,5126,5127,5128,5121,5122,5123,5124,5125,5126,5127,5128,5121,5122,5123,5124,5125,5126,5127,5128,5121,5122,5123,5124,5125,5126,5127,5128,5121,5122,5123,5124,5125,5126,5127,5128,5121,5122,5123,5124,5125,5126,5127,5128,5121,5122,5123,5124,5125,5126,5127,5128,5121,5122,5123,5124,5125,5126,5127,5128,5121,5122,5123,5124,5125,5126,5127,5128,5121,5122,5123,5124,5125,5126,5127,5128,5121,5122,5123,5124,5125,5126,5127,5128,5121,5122,5123,5124,5125,5126,5127,5128,5121,5122,5123,5124,5125,5126,5127,5128,5121,5122,5123,5124,5125,5126,5127,5128,5121,5122,5123,5124,5125,5126,5127,5128,5121,5122,5123,5124,5125,5126,5127,5128,5121,5122,5123,5124,5125,5126,5127,5128,5121,5122,5123,5124,5125,5126,5127,5128,
5137,5138,5139,5140,5141,5142,5143,5144,5137,5138,5139,5140,5141,5142,5143,5144,5137,5138,5139,5140,5141,5142,5143,5144,5137,5138,5139,5140,5141,5142,5143,5144,5137,5138,5139,5140,5141,5142,5143,5144,5137,5138,5139,5140,5141,5142,5143,5144,5137,5138,5139,5140,5141,5142,5143,5144,5137,5138,5139,5140,5141,5142,5143,5144,5137,5138,5139,5140,5141,5142,5143,5144,5137,5138,5139,5140,5141,5142,5143,5144,5137,5138,5139,5140,5141,5142,5143,5144,5137,5138,5139,5140,5141,5142,5143,5144,5137,5138,5139,5140,5141,5142,5143,5144,5137,5138,5139,5140,5141,5142,5143,5144,5137,5138,5139,5140,5141,5142,5143,5144,5137,5138,5139,5140,5141,5142,5143,5144,5137,5138,5139,5140,5141,5142,5143,5144,5137,5138,5139,5140,5141,5142,5143,5144,5137,5138,5139,5140,5141,5142,5143,5144,5137,5138,5139,5140,5141,5142,5143,5144,5137,5138,5139,5140,5141,5142,5143,5144,5137,5138,5139,5140,5141,5142,5143,5144,5137,5138,5139,5140,5141,5142,5143,5144,5137,5138,5139,5140,5141,5142,5143,5144,5137,5138,5139,5140,5141,5142,5143,5144,
5153,5154,5155,5156,5157,5158,5159,5160,5153,5154,5155,5156,5157,5158,5159,5160,5153,5154,5155,5156,5157,5158,5159,5160,5153,5154,5155,5156,5157,5158,5159,5160,5153,5154,5155,5156,5157,5158,5159,5160,5153,5154,5155,5156,5157,5158,5159,5160,5153,5154,5155,5156,5157,5158,5159,5160,5153,5154,5155,5156,5157,5158,5159,5160,5153,5154,5155,5156,5157,5158,5159,5160,5153,5154,5155,5156,5157,5158,5159,5160,5153,5154,5155,5156,5157,5158,5159,5160,5153,5154,5155,5156,5157,5158,5159,5160,5153,5154,5155,5156,5157,5158,5159,5160,5153,5154,5155,5156,5157,5158,5159,5160,5153,5154,5155,5156,5157,5158,5159,5160,5153,5154,5155,5156,5157,5158,5159,5160,5153,5154,5155,5156,5157,5158,5159,5160,5153,5154,5155,5156,5157,5158,5159,5160,5153,5154,5155,5156,5157,5158,5159,5160,5153,5154,5155,5156,5157,5158,5159,5160,5153,5154,5155,5156,5157,5158,5159,5160,5153,5154,5155,5156,5157,5158,5159,5160,5153,5154,5155,5156,5157,5158,5159,5160,5153,5154,5155,5156,5157,5158,5159,5160,5153,5154,5155,5156,5157,5158,5159,5160,
5169,5170,5171,5172,5173,5174,5175,5176,5169,5170,5171,5172,5173,5174,5175,5176,5169,5170,5171,5172,5173,5174,5175,5176,5169,5170,5171,5172,5173,5174,5175,5176,5169,5170,5171,5172,5173,5174,5175,5176,5169,5170,5171,5172,5173,5174,5175,5176,5169,5170,5171,5172,5173,5174,5175,5176,5169,5170,5171,5172,5173,5174,5175,5176,5169,5170,5171,5172,5173,5174,5175,5176,5169,5170,5171,5172,5173,5174,5175,5176,5169,5170,5171,5172,5173,5174,5175,5176,5169,5170,5171,5172,5173,5174,5175,5176,5169,5170,5171,5172,5173,5174,5175,5176,5169,5170,5171,5172,5173,5174,5175,5176,5169,5170,5171,5172,5173,5174,5175,5176,5169,5170,5171,5172,5173,5174,5175,5176,5169,5170,5171,5172,5173,5174,5175,5176,5169,5170,5171,5172,5173,5174,5175,5176,5169,5170,5171,5172,5173,5174,5175,5176,5169,5170,5171,5172,5173,5174,5175,5176,5169,5170,5171,5172,5173,5174,5175,5176,5169,5170,5171,5172,5173,5174,5175,5176,5169,5170,5171,5172,5173,5174,5175,5176,5169,5170,5171,5172,5173,5174,5175,5176,5169,5170,5171,5172,5173,5174,5175,5176,
5185,5186,5187,5188,5189,5190,5191,5192,5185,5186,5187,5188,5189,5190,5191,5192,5185,5186,5187,5188,5189,5190,5191,5192,5185,5186,5187,5188,5189,5190,5191,5192,5185,5186,5187,5188,5189,5190,5191,5192,5185,5186,5187,5188,5189,5190,5191,5192,5185,5186,5187,5188,5189,5190,5191,5192,5185,5186,5187,5188,5189,5190,5191,5192,5185,5186,5187,5188,5189,5190,5191,5192,5185,5186,5187,5188,5189,5190,5191,5192,5185,5186,5187,5188,5189,5190,5191,5192,5185,5186,5187,5188,5189,5190,5191,5192,5185,5186,5187,5188,5189,5190,5191,5192,5185,5186,5187,5188,5189,5190,5191,5192,5185,5186,5187,5188,5189,5190,5191,5192,5185,5186,5187,5188,5189,5190,5191,5192,5185,5186,5187,5188,5189,5190,5191,5192,5185,5186,5187,5188,5189,5190,5191,5192,5185,5186,5187,5188,5189,5190,5191,5192,5185,5186,5187,5188,5189,5190,5191,5192,5185,5186,5187,5188,5189,5190,5191,5192,5185,5186,5187,5188,5189,5190,5191,5192,5185,5186,5187,5188,5189,5190,5191,5192,5185,5186,5187,5188,5189,5190,5191,5192,5185,5186,5187,5188,5189,5190,5191,5192,
5201,5202,5203,5204,5205,5206,5207,5208,5201,5202,5203,5204,5205,5206,5207,5208,5201,5202,5203,5204,5205,5206,5207,5208,5201,5202,5203,5204,5205,5206,5207,5208,5201,5202,5203,5204,5205,5206,5207,5208,5201,5202,5203,5204,5205,5206,5207,5208,5201,5202,5203,5204,5205,5206,5207,5208,5201,5202,5203,5204,5205,5206,5207,5208,5201,5202,5203,5204,5205,5206,5207,5208,5201,5202,5203,5204,5205,5206,5207,5208,5201,5202,5203,5204,5205,5206,5207,5208,5201,5202,5203,5204,5205,5206,5207,5208,5201,5202,5203,5204,5205,5206,5207,5208,5201,5202,5203,5204,5205,5206,5207,5208,5201,5202,5203,5204,5205,5206,5207,5208,5201,5202,5203,5204,5205,5206,5207,5208,5201,5202,5203,5204,5205,5206,5207,5208,5201,5202,5203,5204,5205,5206,5207,5208,5201,5202,5203,5204,5205,5206,5207,5208,5201,5202,5203,5204,5205,5206,5207,5208,5201,5202,5203,5204,5205,5206,5207,5208,5201,5202,5203,5204,5205,5206,5207,5208,5201,5202,5203,5204,5205,5206,5207,5208,5201,5202,5203,5204,5205,5206,5207,5208,5201,5202,5203,5204,5205,5206,5207,5208,
5217,5218,5219,5220,5221,5222,5223,5224,5217,5218,5219,5220,5221,5222,5223,5224,5217,5218,5219,5220,5221,5222,5223,5224,5217,5218,5219,5220,5221,5222,5223,5224,5217,5218,5219,5220,5221,5222,5223,5224,5217,5218,5219,5220,5221,5222,5223,5224,5217,5218,5219,5220,5221,5222,5223,5224,5217,5218,5219,5220,5221,5222,5223,5224,5217,5218,5219,5220,5221,5222,5223,5224,5217,5218,5219,5220,5221,5222,5223,5224,5217,5218,5219,5220,5221,5222,5223,5224,5217,5218,5219,5220,5221,5222,5223,5224,5217,5218,5219,5220,5221,5222,5223,5224,5217,5218,5219,5220,5221,5222,5223,5224,5217,5218,5219,5220,5221,5222,5223,5224,5217,5218,5219,5220,5221,5222,5223,5224,5217,5218,5219,5220,5221,5222,5223,5224,5217,5218,5219,5220,5221,5222,5223,5224,5217,5218,5219,5220,5221,5222,5223,5224,5217,5218,5219,5220,5221,5222,5223,5224,5217,5218,5219,5220,5221,5222,5223,5224,5217,5218,5219,5220,5221,5222,5223,5224,5217,5218,5219,5220,5221,5222,5223,5224,5217,5218,5219,5220,5221,5222,5223,5224,5217,5218,5219,5220,5221,5222,5223,5224,
5233,5234,5235,5236,5237,5238,5239,5240,5233,5234,5235,5236,5237,5238,5239,5240,5233,5234,5235,5236,5237,5238,5239,5240,5233,5234,5235,5236,5237,5238,5239,5240,5233,5234,5235,5236,5237,5238,5239,5240,5233,5234,5235,5236,5237,5238,5239,5240,5233,5234,5235,5236,5237,5238,5239,5240,5233,5234,5235,5236,5237,5238,5239,5240,5233,5234,5235,5236,5237,5238,5239,5240,5233,5234,5235,5236,5237,5238,5239,5240,5233,5234,5235,5236,5237,5238,5239,5240,5233,5234,5235,5236,5237,5238,5239,5240,5233,5234,5235,5236,5237,5238,5239,5240,5233,5234,5235,5236,5237,5238,5239,5240,5233,5234,5235,5236,5237,5238,5239,5240,5233,5234,5235,5236,5237,5238,5239,5240,5233,5234,5235,5236,5237,5238,5239,5240,5233,5234,5235,5236,5237,5238,5239,5240,5233,5234,5235,5236,5237,5238,5239,5240,5233,5234,5235,5236,5237,5238,5239,5240,5233,5234,5235,5236,5237,5238,5239,5240,5233,5234,5235,5236,5237,5238,5239,5240,5233,5234,5235,5236,5237,5238,5239,5240,5233,5234,5235,5236,5237,5238,5239,5240,5233,5234,5235,5236,5237,5238,5239,5240,
5121,5122,5123,5124,5125,5126,5127,5128,5121,5122,5123,5124,5125,5126,5127,5128,5121,5122,5123,5124,5125,5126,5127,5128,5121,5122,5123,5124,5125,5126,5127,5128,5121,5122,5123,5124,5125,5126,5127,5128,5121,5122,5123,5124,5125,5126,5127,5128,5121,5122,5123,5124,5125,5126,5127,5128,5121,5122,5123,5124,5125,5126,5127,5128,5121,5122,5123,5124,5125,5126,5127,5128,5121,5122,5123,5124,5125,5126,5127,5128,5121,5122,5123,5124,5125,5126,5127,5128,5121,5122,5123,5124,5125,5126,5127,5128,5121,5122,5123,5124,5125,5126,5127,5128,5121,5122,5123,5124,5125,5126,5127,5128,5121,5122,5123,5124,5125,5126,5127,5128,5121,5122,5123,5124,5125,5126,5127,5128,5121,5122,5123,5124,5125,5126,5127,5128,5121,5122,5123,5124,5125,5126,5127,5128,5121,5122,5123,5124,5125,5126,5127,5128,5121,5122,5123,5124,5125,5126,5127,5128,5121,5122,5123,5124,5125,5126,5127,5128,5121,5122,5123,5124,5125,5126,5127,5128,5121,5122,5123,5124,5125,5126,5127,5128,5121,5122,5123,5124,5125,5126,5127,5128,5121,5122,5123,5124,5125,5126,5127,5128,
5137,5138,5139,5140,5141,5142,5143,5144,5137,5138,5139,5140,5141,5142,5143,5144,5137,5138,5139,5140,5141,5142,5143,5144,5137,5138,5139,5140,5141,5142,5143,5144,5137,5138,5139,5140,5141,5142,5143,5144,5137,5138,5139,5140,5141,5142,5143,5144,5137,5138,5139,5140,5141,5142,5143,5144,5137,5138,5139,5140,5141,5142,5143,5144,5137,5138,5139,5140,5141,5142,5143,5144,5137,5138,5139,5140,5141,5142,5143,5144,5137,5138,5139,5140,5141,5142,5143,5144,5137,5138,5139,5140,5141,5142,5143,5144,5137,5138,5139,5140,5141,5142,5143,5144,5137,5138,5139,5140,5141,5142,5143,5144,5137,5138,5139,5140,5141,5142,5143,5144,5137,5138,5139,5140,5141,5142,5143,5144,5137,5138,5139,5140,5141,5142,5143,5144,5137,5138,5139,5140,5141,5142,5143,5144,5137,5138,5139,5140,5141,5142,5143,5144,5137,5138,5139,5140,5141,5142,5143,5144,5137,5138,5139,5140,5141,5142,5143,5144,5137,5138,5139,5140,5141,5142,5143,5144,5137,5138,5139,5140,5141,5142,5143,5144,5137,5138,5139,5140,5141,5142,5143,5144,5137,5138,5139,5140,5141,5142,5143,5144,
5153,5154,5155,5156,5157,5158,5159,5160,5153,5154,5155,5156,5157,5158,5159,5160,5153,5154,5155,5156,5157,5158,5159,5160,5153,5154,5155,5156,5157,5158,5159,5160,5153,5154,5155,5156,5157,5158,5159,5160,5153,5154,5155,5156,5157,5158,5159,5160,5153,5154,5155,5156,5157,5158,5159,5160,5153,5154,5155,5156,5157,5158,5159,5160,5153,5154,5155,5156,5157,5158,5159,5160,5153,5154,5155,5156,5157,5158,5159,5160,5153,5154,5155,5156,5157,5158,5159,5160,5153,5154,5155,5156,5157,5158,5159,5160,5153,5154,5155,5156,5157,5158,5159,5160,5153,5154,5155,5156,5157,5158,5159,5160,5153,5154,5155,5156,5157,5158,5159,5160,5153,5154,5155,5156,5157,5158,5159,5160,5153,5154,5155,5156,5157,5158,5159,5160,5153,5154,5155,5156,5157,5158,5159,5160,5153,5154,5155,5156,5157,5158,5159,5160,5153,5154,5155,5156,5157,5158,5159,5160,5153,5154,5155,5156,5157,5158,5159,5160,5153,5154,5155,5156,5157,5158,5159,5160,5153,5154,5155,5156,5157,5158,5159,5160,5153,5154,5155,5156,5157,5158,5159,5160,5153,5154,5155,5156,5157,5158,5159,5160,
5169,5170,5171,5172,5173,5174,5175,5176,5169,5170,5171,5172,5173,5174,5175,5176,5169,5170,5171,5172,5173,5174,5175,5176,5169,5170,5171,5172,5173,5174,5175,5176,5169,5170,5171,5172,5173,5174,5175,5176,5169,5170,5171,5172,5173,5174,5175,5176,5169,5170,5171,5172,5173,5174,5175,5176,5169,5170,5171,5172,5173,5174,5175,5176,5169,5170,5171,5172,5173,5174,5175,5176,5169,5170,5171,5172,5173,5174,5175,5176,5169,5170,5171,5172,5173,5174,5175,5176,5169,5170,5171,5172,5173,5174,5175,5176,5169,5170,5171,5172,5173,5174,5175,5176,5169,5170,5171,5172,5173,5174,5175,5176,5169,5170,5171,5172,5173,5174,5175,5176,5169,5170,5171,5172,5173,5174,5175,5176,5169,5170,5171,5172,5173,5174,5175,5176,5169,5170,5171,5172,5173,5174,5175,5176,5169,5170,5171,5172,5173,5174,5175,5176,5169,5170,5171,5172,5173,5174,5175,5176,5169,5170,5171,5172,5173,5174,5175,5176,5169,5170,5171,5172,5173,5174,5175,5176,5169,5170,5171,5172,5173,5174,5175,5176,5169,5170,5171,5172,5173,5174,5175,5176,5169,5170,5171,5172,5173,5174,5175,5176,
5185,5186,5187,5188,5189,5190,5191,5192,5185,5186,5187,5188,5189,5190,5191,5192,5185,5186,5187,5188,5189,5190,5191,5192,5185,5186,5187,5188,5189,5190,5191,5192,5185,5186,5187,5188,5189,5190,5191,5192,5185,5186,5187,5188,5189,5190,5191,5192,5185,5186,5187,5188,5189,5190,5191,5192,5185,5186,5187,5188,5189,5190,5191,5192,5185,5186,5187,5188,5189,5190,5191,5192,5185,5186,5187,5188,5189,5190,5191,5192,5185,5186,5187,5188,5189,5190,5191,5192,5185,5186,5187,5188,5189,5190,5191,5192,5185,5186,5187,5188,5189,5190,5191,5192,5185,5186,5187,5188,5189,5190,5191,5192,5185,5186,5187,5188,5189,5190,5191,5192,5185,5186,5187,5188,5189,5190,5191,5192,5185,5186,5187,5188,5189,5190,5191,5192,5185,5186,5187,5188,5189,5190,5191,5192,5185,5186,5187,5188,5189,5190,5191,5192,5185,5186,5187,5188,5189,5190,5191,5192,5185,5186,5187,5188,5189,5190,5191,5192,5185,5186,5187,5188,5189,5190,5191,5192,5185,5186,5187,5188,5189,5190,5191,5192,5185,5186,5187,5188,5189,5190,5191,5192,5185,5186,5187,5188,5189,5190,5191,5192,
5201,5202,5203,5204,5205,5206,5207,5208,5201,5202,5203,5204,5205,5206,5207,5208,5201,5202,5203,5204,5205,5206,5207,5208,5201,5202,5203,5204,5205,5206,5207,5208,5201,5202,5203,5204,5205,5206,5207,5208,5201,5202,5203,5204,5205,5206,5207,5208,5201,5202,5203,5204,5205,5206,5207,5208,5201,5202,5203,5204,5205,5206,5207,5208,5201,5202,5203,5204,5205,5206,5207,5208,5201,5202,5203,5204,5205,5206,5207,5208,5201,5202,5203,5204,5205,5206,5207,5208,5201,5202,5203,5204,5205,5206,5207,5208,5201,5202,5203,5204,5205,5206,5207,5208,5201,5202,5203,5204,5205,5206,5207,5208,5201,5202,5203,5204,5205,5206,5207,5208,5201,5202,5203,5204,5205,5206,5207,5208,5201,5202,5203,5204,5205,5206,5207,5208,5201,5202,5203,5204,5205,5206,5207,5208,5201,5202,5203,5204,5205,5206,5207,5208,5201,5202,5203,5204,5205,5206,5207,5208,5201,5202,5203,5204,5205,5206,5207,5208,5201,5202,5203,5204,5205,5206,5207,5208,5201,5202,5203,5204,5205,5206,5207,5208,5201,5202,5203,5204,5205,5206,5207,5208,5201,5202,5203,5204,5205,5206,5207,5208,
5217,5218,5219,5220,5221,5222,5223,5224,5217,5218,5219,5220,5221,5222,5223,5224,5217,5218,5219,5220,5221,5222,5223,5224,5217,5218,5219,5220,5221,5222,5223,5224,5217,5218,5219,5220,5221,5222,5223,5224,5217,5218,5219,5220,5221,5222,5223,5224,5217,5218,5219,5220,5221,5222,5223,5224,5217,5218,5219,5220,5221,5222,5223,5224,5217,5218,5219,5220,5221,5222,5223,5224,5217,5218,5219,5220,5221,5222,5223,5224,5217,5218,5219,5220,5221,5222,5223,5224,5217,5218,5219,5220,5221,5222,5223,5224,5217,5218,5219,5220,5221,5222,5223,5224,5217,5218,5219,5220,5221,5222,5223,5224,5217,5218,5219,5220,5221,5222,5223,5224,5217,5218,5219,5220,5221,5222,5223,5224,5217,5218,5219,5220,5221,5222,5223,5224,5217,5218,5219,5220,5221,5222,5223,5224,5217,5218,5219,5220,5221,5222,5223,5224,5217,5218,5219,5220,5221,5222,5223,5224,5217,5218,5219,5220,5221,5222,5223,5224,5217,5218,5219,5220,5221,5222,5223,5224,5217,5218,5219,5220,5221,5222,5223,5224,5217,5218,5219,5220,5221,5222,5223,5224,5217,5218,5219,5220,5221,5222,5223,5224,
5233,5234,5235,5236,5237,5238,5239,5240,5233,5234,5235,5236,5237,5238,5239,5240,5233,5234,5235,5236,5237,5238,5239,5240,5233,5234,5235,5236,5237,5238,5239,5240,5233,5234,5235,5236,5237,5238,5239,5240,5233,5234,5235,5236,5237,5238,5239,5240,5233,5234,5235,5236,5237,5238,5239,5240,5233,5234,5235,5236,5237,5238,5239,5240,5233,5234,5235,5236,5237,5238,5239,5240,5233,5234,5235,5236,5237,5238,5239,5240,5233,5234,5235,5236,5237,5238,5239,5240,5233,5234,5235,5236,5237,5238,5239,5240,5233,5234,5235,5236,5237,5238,5239,5240,5233,5234,5235,5236,5237,5238,5239,5240,5233,5234,5235,5236,5237,5238,5239,5240,5233,5234,5235,5236,5237,5238,5239,5240,5233,5234,5235,5236,5237,5238,5239,5240,5233,5234,5235,5236,5237,5238,5239,5240,5233,5234,5235,5236,5237,5238,5239,5240,5233,5234,5235,5236,5237,5238,5239,5240,5233,5234,5235,5236,5237,5238,5239,5240,5233,5234,5235,5236,5237,5238,5239,5240,5233,5234,5235,5236,5237,5238,5239,5240,5233,5234,5235,5236,5237,5238,5239,5240,5233,5234,5235,5236,5237,5238,5239,5240,
5121,5122,5123,5124,5125,5126,5127,5128,5121,5122,5123,5124,5125,5126,5127,5128,5121,5122,5123,5124,5125,5126,5127,5128,5121,5122,5123,5124,5125,5126,5127,5128,5121,5122,5123,5124,5125,5126,5127,5128,5121,5122,5123,5124,5125,5126,5127,5128,5121,5122,5123,5124,5125,5126,5127,5128,5121,5122,5123,5124,5125,5126,5127,5128,5121,5122,5123,5124,5125,5126,5127,5128,5121,5122,5123,5124,5125,5126,5127,5128,5121,5122,5123,5124,5125,5126,5127,5128,5121,5122,5123,5124,5125,5126,5127,5128,5121,5122,5123,5124,5125,5126,5127,5128,5121,5122,5123,5124,5125,5126,5127,5128,5121,5122,5123,5124,5125,5126,5127,5128,5121,5122,5123,5124,5125,5126,5127,5128,5121,5122,5123,5124,5125,5126,5127,5128,5121,5122,5123,5124,5125,5126,5127,5128,5121,5122,5123,5124,5125,5126,5127,5128,5121,5122,5123,5124,5125,5126,5127,5128,5121,5122,5123,5124,5125,5126,5127,5128,5121,5122,5123,5124,5125,5126,5127,5128,5121,5122,5123,5124,5125,5126,5127,5128,5121,5122,5123,5124,5125,5126,5127,5128,5121,5122,5123,5124,5125,5126,5127,5128,
5137,5138,5139,5140,5141,5142,5143,5144,5137,5138,5139,5140,5141,5142,5143,5144,5137,5138,5139,5140,5141,5142,5143,5144,5137,5138,5139,5140,5141,5142,5143,5144,5137,5138,5139,5140,5141,5142,5143,5144,5137,5138,5139,5140,5141,5142,5143,5144,5137,5138,5139,5140,5141,5142,5143,5144,5137,5138,5139,5140,5141,5142,5143,5144,5137,5138,5139,5140,5141,5142,5143,5144,5137,5138,5139,5140,5141,5142,5143,5144,5137,5138,5139,5140,5141,5142,5143,5144,5137,5138,5139,5140,5141,5142,5143,5144,5137,5138,5139,5140,5141,5142,5143,5144,5137,5138,5139,5140,5141,5142,5143,5144,5137,5138,5139,5140,5141,5142,5143,5144,5137,5138,5139,5140,5141,5142,5143,5144,5137,5138,5139,5140,5141,5142,5143,5144,5137,5138,5139,5140,5141,5142,5143,5144,5137,5138,5139,5140,5141,5142,5143,5144,5137,5138,5139,5140,5141,5142,5143,5144,5137,5138,5139,5140,5141,5142,5143,5144,5137,5138,5139,5140,5141,5142,5143,5144,5137,5138,5139,5140,5141,5142,5143,5144,5137,5138,5139,5140,5141,5142,5143,5144,5137,5138,5139,5140,5141,5142,5143,5144,
5153,5154,5155,5156,5157,5158,5159,5160,5153,5154,5155,5156,5157,5158,5159,5160,5153,5154,5155,5156,5157,5158,5159,5160,5153,5154,5155,5156,5157,5158,5159,5160,5153,5154,5155,5156,5157,5158,5159,5160,5153,5154,5155,5156,5157,5158,5159,5160,5153,5154,5155,5156,5157,5158,5159,5160,5153,5154,5155,5156,5157,5158,5159,5160,5153,5154,5155,5156,5157,5158,5159,5160,5153,5154,5155,5156,5157,5158,5159,5160,5153,5154,5155,5156,5157,5158,5159,5160,5153,5154,5155,5156,5157,5158,5159,5160,5153,5154,5155,5156,5157,5158,5159,5160,5153,5154,5155,5156,5157,5158,5159,5160,5153,5154,5155,5156,5157,5158,5159,5160,5153,5154,5155,5156,5157,5158,5159,5160,5153,5154,5155,5156,5157,5158,5159,5160,5153,5154,5155,5156,5157,5158,5159,5160,5153,5154,5155,5156,5157,5158,5159,5160,5153,5154,5155,5156,5157,5158,5159,5160,5153,5154,5155,5156,5157,5158,5159,5160,5153,5154,5155,5156,5157,5158,5159,5160,5153,5154,5155,5156,5157,5158,5159,5160,5153,5154,5155,5156,5157,5158,5159,5160,5153,5154,5155,5156,5157,5158,5159,5160,
5169,5170,5171,5172,5173,5174,5175,5176,5169,5170,5171,5172,5173,5174,5175,5176,5169,5170,5171,5172,5173,5174,5175,5176,5169,5170,5171,5172,5173,5174,5175,5176,5169,5170,5171,5172,5173,5174,5175,5176,5169,5170,5171,5172,5173,5174,5175,5176,5169,5170,5171,5172,5173,5174,5175,5176,5169,5170,5171,5172,5173,5174,5175,5176,5169,5170,5171,5172,5173,5174,5175,5176,5169,5170,5171,5172,5173,5174,5175,5176,5169,5170,5171,5172,5173,5174,5175,5176,5169,5170,5171,5172,5173,5174,5175,5176,5169,5170,5171,5172,5173,5174,5175,5176,5169,5170,5171,5172,5173,5174,5175,5176,5169,5170,5171,5172,5173,5174,5175,5176,5169,5170,5171,5172,5173,5174,5175,5176,5169,5170,5171,5172,5173,5174,5175,5176,5169,5170,5171,5172,5173,5174,5175,5176,5169,5170,5171,5172,5173,5174,5175,5176,5169,5170,5171,5172,5173,5174,5175,5176,5169,5170,5171,5172,5173,5174,5175,5176,5169,5170,5171,5172,5173,5174,5175,5176,5169,5170,5171,5172,5173,5174,5175,5176,5169,5170,5171,5172,5173,5174,5175,5176,5169,5170,5171,5172,5173,5174,5175,5176,
5185,5186,5187,5188,5189,5190,5191,5192,5185,5186,5187,5188,5189,5190,5191,5192,5185,5186,5187,5188,5189,5190,5191,5192,5185,5186,5187,5188,5189,5190,5191,5192,5185,5186,5187,5188,5189,5190,5191,5192,5185,5186,5187,5188,5189,5190,5191,5192,5185,5186,5187,5188,5189,5190,5191,5192,5185,5186,5187,5188,5189,5190,5191,5192,5185,5186,5187,5188,5189,5190,5191,5192,5185,5186,5187,5188,5189,5190,5191,5192,5185,5186,5187,5188,5189,5190,5191,5192,5185,5186,5187,5188,5189,5190,5191,5192,5185,5186,5187,5188,5189,5190,5191,5192,5185,5186,5187,5188,5189,5190,5191,5192,5185,5186,5187,5188,5189,5190,5191,5192,5185,5186,5187,5188,5189,5190,5191,5192,5185,5186,5187,5188,5189,5190,5191,5192,5185,5186,5187,5188,5189,5190,5191,5192,5185,5186,5187,5188,5189,5190,5191,5192,5185,5186,5187,5188,5189,5190,5191,5192,5185,5186,5187,5188,5189,5190,5191,5192,5185,5186,5187,5188,5189,5190,5191,5192,5185,5186,5187,5188,5189,5190,5191,5192,5185,5186,5187,5188,5189,5190,5191,5192,5185,5186,5187,5188,5189,5190,5191,5192,
5201,5202,5203,5204,5205,5206,5207,5208,5201,5202,5203,5204,5205,5206,5207,5208,5201,5202,5203,5204,5205,5206,5207,5208,5201,5202,5203,5204,5205,5206,5207,5208,5201,5202,5203,5204,5205,5206,5207,5208,5201,5202,5203,5204,5205,5206,5207,5208,5201,5202,5203,5204,5205,5206,5207,5208,5201,5202,5203,5204,5205,5206,5207,5208,5201,5202,5203,5204,5205,5206,5207,5208,5201,5202,5203,5204,5205,5206,5207,5208,5201,5202,5203,5204,5205,5206,5207,5208,5201,5202,5203,5204,5205,5206,5207,5208,5201,5202,5203,5204,5205,5206,5207,5208,5201,5202,5203,5204,5205,5206,5207,5208,5201,5202,5203,5204,5205,5206,5207,5208,5201,5202,5203,5204,5205,5206,5207,5208,5201,5202,5203,5204,5205,5206,5207,5208,5201,5202,5203,5204,5205,5206,5207,5208,5201,5202,5203,5204,5205,5206,5207,5208,5201,5202,5203,5204,5205,5206,5207,5208,5201,5202,5203,5204,5205,5206,5207,5208,5201,5202,5203,5204,5205,5206,5207,5208,5201,5202,5203,5204,5205,5206,5207,5208,5201,5202,5203,5204,5205,5206,5207,5208,5201,5202,5203,5204,5205,5206,5207,5208,
5217,5218,5219,5220,5221,5222,5223,5224,5217,5218,5219,5220,5221,5222,5223,5224,5217,5218,5219,5220,5221,5222,5223,5224,5217,5218,5219,5220,5221,5222,5223,5224,5217,5218,5219,5220,5221,5222,5223,5224,5217,5218,5219,5220,5221,5222,5223,5224,5217,5218,5219,5220,5221,5222,5223,5224,5217,5218,5219,5220,5221,5222,5223,5224,5217,5218,5219,5220,5221,5222,5223,5224,5217,5218,5219,5220,5221,5222,5223,5224,5217,5218,5219,5220,5221,5222,5223,5224,5217,5218,5219,5220,5221,5222,5223,5224,5217,5218,5219,5220,5221,5222,5223,5224,5217,5218,5219,5220,5221,5222,5223,5224,5217,5218,5219,5220,5221,5222,5223,5224,5217,5218,5219,5220,5221,5222,5223,5224,5217,5218,5219,5220,5221,5222,5223,5224,5217,5218,5219,5220,5221,5222,5223,5224,5217,5218,5219,5220,5221,5222,5223,5224,5217,5218,5219,5220,5221,5222,5223,5224,5217,5218,5219,5220,5221,5222,5223,5224,5217,5218,5219,5220,5221,5222,5223,5224,5217,5218,5219,5220,5221,5222,5223,5224,5217,5218,5219,5220,5221,5222,5223,5224,5217,5218,5219,5220,5221,5222,5223,5224,
5233,5234,5235,5236,5237,5238,5239,5240,5233,5234,5235,5236,5237,5238,5239,5240,5233,5234,5235,5236,5237,5238,5239,5240,5233,5234,5235,5236,5237,5238,5239,5240,5233,5234,5235,5236,5237,5238,5239,5240,5233,5234,5235,5236,5237,5238,5239,5240,5233,5234,5235,5236,5237,5238,5239,5240,5233,5234,5235,5236,5237,5238,5239,5240,5233,5234,5235,5236,5237,5238,5239,5240,5233,5234,5235,5236,5237,5238,5239,5240,5233,5234,5235,5236,5237,5238,5239,5240,5233,5234,5235,5236,5237,5238,5239,5240,5233,5234,5235,5236,5237,5238,5239,5240,5233,5234,5235,5236,5237,5238,5239,5240,5233,5234,5235,5236,5237,5238,5239,5240,5233,5234,5235,5236,5237,5238,5239,5240,5233,5234,5235,5236,5237,5238,5239,5240,5233,5234,5235,5236,5237,5238,5239,5240,5233,5234,5235,5236,5237,5238,5239,5240,5233,5234,5235,5236,5237,5238,5239,5240,5233,5234,5235,5236,5237,5238,5239,5240,5233,5234,5235,5236,5237,5238,5239,5240,5233,5234,5235,5236,5237,5238,5239,5240,5233,5234,5235,5236,5237,5238,5239,5240,5233,5234,5235,5236,5237,5238,5239,5240
</data>
 </layer>
 <layer id="3" name="roof" width="200" height="200">
  <data encoding="csv">
0,0,0,0,0,0,0,0,0,0,0,0,0,0,0,0,0,0,0,0,0,0,0,0,0,0,0,0,0,0,0,0,0,0,0,0,0,0,0,0,0,0,0,0,0,0,0,0,0,0,0,0,0,0,0,0,0,0,0,0,0,0,0,0,0,0,0,0,0,0,0,0,0,0,0,0,0,0,0,0,0,0,0,0,0,0,0,0,0,0,0,0,0,0,0,0,0,0,0,0,0,0,0,0,0,0,0,0,0,0,0,0,0,0,0,0,0,0,0,0,0,0,0,0,0,0,0,0,0,0,0,0,0,0,0,0,0,0,0,0,0,0,0,0,0,0,0,0,0,0,0,0,0,0,0,0,0,0,0,0,0,0,0,0,0,0,0,0,0,0,0,0,0,0,0,0,0,0,0,0,0,0,0,0,0,0,0,0,0,0,0,0,0,0,0,0,0,0,0,0,
0,0,0,0,0,0,0,0,0,0,0,0,0,0,0,0,0,0,0,0,0,0,0,0,0,0,0,0,0,0,0,0,0,0,0,0,0,0,0,0,0,0,0,0,0,0,0,0,0,0,0,0,0,0,0,0,0,0,0,0,0,0,0,0,0,0,0,0,0,0,0,0,0,0,0,0,0,0,0,0,0,0,0,0,0,0,0,0,0,0,0,0,0,0,0,0,0,0,0,0,0,0,0,0,0,0,0,0,0,0,0,0,0,0,0,0,0,0,0,0,0,0,0,0,0,0,0,0,0,0,0,0,0,0,0,0,0,0,0,0,0,0,0,0,0,0,0,0,0,0,0,0,0,0,0,0,0,0,0,0,0,0,0,0,0,0,0,0,0,0,0,0,0,0,0,0,0,0,0,0,0,0,0,0,0,0,0,0,0,0,0,0,0,0,0,0,0,0,0,0,
0,0,0,0,0,0,0,0,0,0,0,0,0,0,0,0,0,0,0,0,0,0,0,0,0,0,0,0,0,0,0,0,0,0,0,0,0,0,0,0,0,0,0,0,0,0,0,0,0,0,0,0,0,0,0,0,0,0,0,0,0,0,0,0,0,0,0,0,0,0,0,0,0,0,0,0,0,0,0,0,0,0,0,0,0,0,0,0,0,0,0,0,0,0,0,0,0,0,0,0,0,0,0,0,0,0,0,0,0,0,0,0,0,0,0,0,0,0,0,0,0,0,0,0,0,0,0,0,0,0,0,0,0,0,0,0,0,0,0,0,0,0,0,0,0,0,0,0,0,0,0,0,0,0,0,0,0,0,0,0,0,0,0,0,0,0,0,0,0,0,0,0,0,0,0,0,0,0,0,0,0,0,0,0,0,0,0,0,0,0,0,0,0,0,0,0,0,0,0,0,
0,0,0,0,0,0,0,0,0,0,0,0,0,0,0,0,0,0,0,0,0,0,0,0,0,0,0,0,0,0,0,0,0,0,0,0,0,0,0,0,0,0,0,0,0,0,0,0,0,0,0,0,0,0,0,0,0,0,0,0,0,0,0,0,0,0,0,0,0,0,0,0,0,0,0,0,0,0,0,0,0,0,0,0,0,0,0,0,0,0,0,0,0,0,0,0,0,0,0,0,0,0,0,0,0,0,0,0,0,0,0,0,0,0,0,0,0,0,0,0,0,0,0,0,0,0,0,0,0,0,0,0,0,0,0,0,0,0,0,0,0,0,0,0,0,0,0,0,0,0,0,0,0,0,0,0,0,0,0,0,0,0,0,0,0,0,0,0,0,0,0,0,0,0,0,0,0,0,0,0,0,0,0,0,0,0,0,0,0,0,0,0,0,0,0,0,0,0,0,0,
0,0,0,0,0,0,0,0,0,0,0,0,0,0,0,0,0,0,0,0,0,0,0,0,0,0,0,0,0,0,0,0,0,0,0,0,0,0,0,0,0,0,0,0,0,0,0,0,0,0,0,0,0,0,0,0,0,0,0,0,0,0,0,0,0,0,0,0,0,0,0,0,0,0,0,0,0,0,0,0,0,0,0,0,0,0,0,0,0,0,0,0,0,0,0,0,0,0,0,0,0,0,0,0,0,0,0,0,0,0,0,0,0,0,0,0,0,0,0,0,0,0,0,0,0,0,0,0,0,0,0,0,0,0,0,0,0,0,0,0,0,0,0,0,0,0,0,0,0,0,0,0,0,0,0,0,0,0,0,0,0,0,0,0,0,0,0,0,0,0,0,0,0,0,0,0,0,0,0,0,0,0,0,0,0,0,0,0,0,0,0,0,0,0,0,0,0,0,0,0,
0,0,0,0,0,0,0,0,0,0,0,0,0,0,0,0,0,0,0,0,0,0,0,0,0,0,0,0,0,0,0,0,0,0,0,0,0,0,0,0,0,0,0,0,0,0,0,0,0,0,0,0,0,0,0,0,0,0,0,0,0,0,0,0,0,0,0,0,0,0,0,0,0,0,0,0,0,0,0,0,0,0,0,0,0,0,0,0,0,0,0,0,0,0,0,0,0,0,0,0,0,0,0,0,0,0,0,0,0,0,0,0,0,0,0,0,0,0,0,0,0,0,0,0,0,0,0,0,0,0,0,0,0,0,0,0,0,0,0,0,0,0,0,0,0,0,0,0,0,0,0,0,0,0,0,0,0,0,0,0,0,0,0,0,0,0,0,0,0,0,0,0,0,0,0,0,0,0,0,0,0,0,0,0,0,0,0,0,0,0,0,0,0,0,0,0,0,0,0,0,
0,0,0,0,0,0,0,0,0,0,0,0,0,0,0,0,0,0,0,0,0,0,0,0,0,0,0,0,0,0,0,0,0,0,0,0,0,0,0,0,0,0,0,0,0,0,0,0,0,0,0,0,0,0,0,0,0,0,0,0,0,0,0,0,0,0,0,0,0,0,0,0,0,0,0,0,0,0,0,0,0,0,0,0,0,0,0,0,0,0,0,0,0,0,0,0,0,0,0,0,0,0,0,0,0,0,0,0,0,0,0,0,0,0,0,0,0,0,0,0,0,0,0,0,0,0,0,0,0,0,0,0,0,0,0,0,0,0,0,0,0,0,0,0,0,0,0,0,0,0,0,0,0,0,0,0,0,0,0,0,0,0,0,0,0,0,0,0,0,0,0,0,0,0,0,0,0,0,0,0,0,0,0,0,0,0,0,0,0,0,0,0,0,0,0,0,0,0,0,0,
0,0,0,0,0,0,0,0,0,0,0,0,0,0,0,0,0,0,0,0,0,0,0,0,0,0,0,0,0,0,0,0,0,0,0,0,0,0,0,0,0,0,0,0,0,0,0,0,0,0,0,0,0,0,0,0,0,0,0,0,0,0,0,0,0,0,0,0,0,0,0,0,0,0,0,0,0,0,0,0,0,0,0,0,0,0,0,0,0,0,0,0,0,0,0,0,0,0,0,0,0,0,0,0,0,0,0,0,0,0,0,0,0,0,0,0,0,0,0,0,0,0,0,0,0,0,0,0,0,0,0,0,0,0,0,0,0,0,0,0,0,0,0,0,0,0,0,0,0,0,0,0,0,0,0,0,0,0,0,0,0,0,0,0,0,0,0,0,0,0,0,0,0,0,0,0,0,0,0,0,0,0,0,0,0,0,0,0,0,0,0,0,0,0,0,0,0,0,0,0,
0,0,0,0,0,0,0,0,0,0,0,0,0,0,0,0,0,0,0,0,0,0,0,0,0,0,0,0,0,0,0,0,0,0,0,0,0,0,0,0,0,0,0,0,0,0,0,0,0,0,0,0,0,0,0,0,0,0,0,0,0,0,0,0,0,0,0,0,0,0,0,0,0,0,0,0,0,0,0,0,0,0,0,0,0,0,0,0,0,0,0,0,0,0,0,0,0,0,0,0,0,0,0,0,0,0,0,0,0,0,0,0,0,0,0,0,0,0,0,0,0,0,0,0,0,0,0,0,0,0,0,0,0,0,0,0,0,0,0,0,0,0,0,0,0,0,0,0,0,0,0,0,0,0,0,0,0,0,0,0,0,0,0,0,0,0,0,0,0,0,0,0,0,0,0,0,0,0,0,0,0,0,0,0,0,0,0,0,0,0,0,0,0,0,0,0,0,0,0,0,
0,0,0,0,0,0,0,0,0,0,0,0,0,0,0,0,0,0,0,0,0,0,0,0,0,0,0,0,0,0,0,0,0,0,0,0,0,0,0,0,0,0,0,0,0,0,0,0,0,0,0,0,0,0,0,0,0,0,0,0,0,0,0,0,0,0,0,0,0,0,0,0,0,0,0,0,0,0,0,0,0,0,0,0,0,0,0,0,0,0,0,0,0,0,0,0,0,0,0,0,0,0,0,0,0,0,0,0,0,0,0,0,0,0,0,0,0,0,0,0,0,0,0,0,0,0,0,0,0,0,0,0,0,0,0,0,0,0,0,0,0,0,0,0,0,0,0,0,0,0,0,0,0,0,0,0,0,0,0,0,0,0,0,0,0,0,0,0,0,0,0,0,0,0,0,0,0,0,0,0,0,0,0,0,0,0,0,0,0,0,0,0,0,0,0,0,0,0,0,0,
0,0,0,0,0,0,0,0,0,0,0,0,0,0,0,0,0,0,0,0,0,0,0,0,0,0,0,0,0,0,0,0,0,0,0,0,0,0,0,0,0,0,0,0,0,0,0,0,0,0,0,0,0,0,0,0,0,0,0,0,0,0,0,0,0,0,0,0,0,0,0,0,0,0,0,0,0,0,0,0,0,0,0,0,0,0,0,0,0,0,0,0,0,0,0,0,0,0,0,0,0,0,0,0,0,0,0,0,0,0,0,0,0,0,0,0,0,0,0,0,0,0,0,0,0,0,0,0,0,0,0,0,0,0,0,0,0,0,0,0,0,0,0,0,0,0,0,0,0,0,0,0,0,0,0,0,0,0,0,0,0,0,0,0,0,0,0,0,0,0,0,0,0,0,0,0,0,0,0,0,0,0,0,0,0,0,0,0,0,0,0,0,0,0,0,0,0,0,0,0,
0,0,0,0,0,0,0,0,0,0,0,0,0,0,0,0,0,0,0,0,0,0,0,0,0,0,0,0,0,0,0,0,0,0,0,0,0,0,0,0,0,0,0,0,0,0,0,0,0,0,0,0,0,0,0,0,0,0,0,0,0,0,0,0,0,0,0,0,0,0,0,0,0,0,0,0,0,0,0,0,0,0,0,0,0,0,0,0,0,0,0,0,0,0,0,0,0,0,0,0,0,0,0,0,0,0,0,0,0,0,0,0,0,0,0,0,0,0,0,0,0,0,0,0,0,0,0,0,0,0,0,0,0,0,0,0,0,0,0,0,0,0,0,0,0,0,0,0,0,0,0,0,0,0,0,0,0,0,0,0,0,0,0,0,0,0,0,0,0,0,0,0,0,0,0,0,0,0,0,0,0,0,0,0,0,0,0,0,0,0,0,0,0,0,0,0,0,0,0,0,
0,0,0,0,0,0,0,0,0,0,0,0,0,0,0,0,0,0,0,0,0,0,0,0,0,0,0,0,0,0,0,0,0,0,0,0,0,0,0,0,0,0,0,0,0,0,0,0,0,0,0,0,0,0,0,0,0,0,0,0,0,0,0,0,0,0,0,0,0,0,0,0,0,0,0,0,0,0,0,0,0,0,0,0,0,0,0,0,0,5699,5700,5701,5700,5701,5700,5701,5700,5701,5700,5701,5700,5701,5700,5701,5700,5701,5700,5701,5700,5701,5700,5701,5700,5701,5700,5701,5700,5701,5700,5701,5700,5701,5700,5701,5700,5701,5700,5701,5700,5701,5700,5701,5700,5701,5700,5701,5702,5704,0,0,0,0,0,0,0,0,0,0,0,0,0,0,0,0,0,0,0,0,0,0,0,0,0,0,0,0,0,0,0,0,0,0,0,0,0,0,0,0,0,0,0,0,0,0,0,0,0,0,0,0,0,0,0,0,0,0,0,0,0,0,
0,0,0,0,0,0,0,0,0,0,0,0,0,0,0,0,0,0,0,0,0,0,0,0,0,0,0,0,0,0,0,0,0,0,0,0,0,0,0,0,0,0,0,0,0,0,0,0,0,0,0,0,0,0,0,0,0,0,0,0,0,0,0,0,0,0,0,0,0,0,0,0,0,0,0,0,0,0,0,0,0,0,0,0,0,0,0,0,0,5715,0,0,0,0,0,0,0,0,0,0,0,0,0,0,0,0,0,0,0,0,0,0,0,0,0,0,0,0,0,0,0,0,0,0,0,0,0,0,0,0,0,0,0,0,0,0,0,5718,0,0,0,0,0,0,0,0,0,0,0,0,0,0,0,0,0,0,0,0,0,0,0,0,0,0,0,0,0,0,0,0,0,0,0,0,0,0,0,0,0,0,0,0,0,0,0,0,0,0,0,0,0,0,0,0,0,0,0,0,0,0,
0,0,0,0,0,0,0,0,0,0,0,0,0,0,0,0,0,0,0,0,0,0,0,0,0,0,0,0,0,0,0,0,0,0,0,0,0,0,0,0,0,0,0,0,0,0,0,0,0,0,0,0,0,0,0,0,0,0,0,0,0,0,0,0,0,0,0,0,0,0,0,0,0,0,0,0,0,0,0,0,0,0,0,0,0,0,0,0,0,5747,0,0,0,0,0,0,0,0,0,0,0,0,0,0,0,0,0,0,0,0,0,0,0,0,0,0,0,0,0,0,0,0,0,0,0,0,0,0,0,0,0,0,0,0,0,0,0,5750,0,0,0,0,0,0,0,0,0,0,0,0,0,0,0,0,0,0,0,0,0,0,0,0,0,0,0,0,0,0,0,0,0,0,0,0,0,0,0,0,0,0,0,0,0,0,0,0,0,0,0,0,0,0,0,0,0,0,0,0,0,0,
0,0,0,0,0,0,0,0,0,0,0,0,0,0,0,0,0,0,0,0,0,0,0,0,0,0,0,0,0,0,0,0,0,0,0,0,0,0,0,0,0,0,0,0,0,0,0,0,0,0,0,0,0,0,0,0,0,0,0,0,0,0,0,0,0,0,0,0,0,0,0,0,0,0,0,0,0,0,0,0,0,0,0,0,0,0,0,0,0,5779,0,0,0,0,0,0,0,0,0,0,0,0,0,0,0,0,0,0,0,0,0,0,0,0,0,0,0,0,0,0,0,0,0,0,0,0,0,0,0,0,0,0,0,0,0,0,0,5782,0,0,0,0,0,0,0,0,0,0,0,0,0,0,0,0,0,0,0,0,0,0,0,0,0,0,0,0,0,0,0,0,0,0,0,0,0,0,0,0,0,0,0,0,0,0,0,0,0,0,0,0,0,0,0,0,0,0,0,0,0,0,
0,0,0,0,0,0,0,0,0,0,0,0,0,0,0,0,0,0,0,0,0,0,0,0,0,0,0,0,0,0,0,0,0,0,0,0,0,0,0,0,0,0,0,0,0,0,0,0,0,0,0,0,0,0,0,0,0,0,0,0,0,0,0,0,0,0,0,0,0,0,0,0,0,0,0,0,0,0,0,0,0,0,0,0,0,0,0,0,0,5811,0,0,0,0,0,0,0,0,0,0,0,0,0,0,0,0,0,0,0,0,0,0,0,0,0,0,0,0,0,0,0,0,0,0,0,0,0,0,0,0,0,0,0,0,0,0,0,5814,0,0,0,0,0,0,0,0,0,0,0,0,0,0,0,0,0,0,0,0,0,0,0,0,0,0,0,0,0,0,0,0,0,0,0,0,0,0,0,0,0,0,0,0,0,0,0,0,0,0,0,0,0,0,0,0,0,0,0,0,0,0,
0,0,0,0,0,0,0,0,0,0,0,0,0,0,0,0,0,0,0,0,0,0,0,0,0,0,0,0,0,0,0,0,0,0,0,0,0,0,0,0,0,0,0,0,0,0,0,0,0,0,0,0,0,0,0,0,0,0,0,0,0,0,0,0,0,0,0,0,0,0,0,0,0,0,0,0,0,0,0,0,0,0,0,0,0,0,0,0,0,5843,0,0,0,0,0,0,0,0,0,0,0,0,0,0,0,0,0,0,0,0,0,0,0,0,0,0,0,0,0,0,0,0,0,0,0,0,0,0,0,0,0,0,0,0,0,0,0,5846,0,0,0,0,0,0,0,0,0,0,0,0,0,0,0,0,0,0,0,0,0,0,0,0,0,0,0,0,0,0,0,0,0,0,0,0,0,0,0,0,0,0,0,0,0,0,0,0,0,0,0,0,0,0,0,0,0,0,0,0,0,0,
0,0,0,0,0,0,0,0,0,0,0,0,0,0,0,0,0,0,0,0,0,0,0,0,0,0,0,0,0,0,0,0,0,0,0,0,0,0,0,0,0,0,0,0,0,0,0,0,0,0,0,0,0,0,0,0,0,0,0,0,0,0,0,0,0,0,0,0,0,0,0,0,0,0,0,0,0,0,0,0,0,0,0,0,0,0,0,0,0,5875,0,0,0,0,0,0,0,0,0,0,0,0,0,0,0,0,0,0,0,0,0,0,0,0,0,0,0,0,0,0,0,0,0,0,0,0,0,0,0,0,0,0,0,0,0,0,0,5878,0,0,0,0,0,0,0,0,0,0,0,0,0,0,0,0,0,0,0,0,0,0,0,0,0,0,0,0,0,0,0,0,0,0,0,0,0,0,0,0,0,0,0,0,0,0,0,0,0,0,0,0,0,0,0,0,0,0,0,0,0,0,
0,0,0,0,0,0,0,0,0,0,0,0,0,0,0,0,0,0,0,0,0,0,0,0,0,0,0,0,0,0,0,0,0,0,0,0,0,0,0,0,0,0,0,0,0,0,0,0,0,0,0,0,0,0,0,0,0,0,0,0,0,0,0,0,0,0,0,0,0,0,0,0,0,0,0,0,0,0,0,0,0,0,0,0,0,0,0,0,0,5715,0,0,0,0,0,0,0,0,0,0,0,0,0,0,0,0,0,0,0,0,0,0,0,0,0,0,0,0,0,0,0,0,0,0,0,0,0,0,0,0,0,0,0,0,0,0,0,5846,0,0,0,0,0,0,0,0,0,0,0,0,0,0,0,0,0,0,0,0,0,0,0,0,0,0,0,0,0,0,0,0,0,0,0,0,0,0,0,0,0,0,0,0,0,0,0,0,0,0,0,0,0,0,0,0,0,0,0,0,0,0,
0,0,0,0,0,0,0,0,0,0,0,0,0,0,0,0,0,0,0,0,0,0,0,0,0,0,0,0,0,0,0,0,0,0,0,0,0,0,0,0,0,0,0,0,0,0,0,0,0,0,0,0,0,0,0,0,0,0,0,0,0,0,0,0,0,0,0,0,0,0,0,0,0,0,0,0,0,0,0,0,0,0,0,0,0,0,0,0,0,5747,0,0,0,0,0,0,0,0,0,0,0,0,0,0,0,0,0,0,0,0,0,0,0,0,0,0,0,0,0,0,0,0,0,0,0,0,0,0,0,0,0,0,0,0,0,0,0,5878,0,0,0,0,0,0,0,0,0,0,0,0,0,0,0,0,0,0,0,0,0,0,0,0,0,0,0,0,0,0,0,0,0,0,0,0,0,0,0,0,0,0,0,0,0,0,0,0,0,0,0,0,0,0,0,0,0,0,0,0,0,0,
0,0,0,0,0,0,0,0,0,0,0,0,0,0,0,0,0,0,0,0,0,0,0,0,0,0,0,0,0,0,0,0,0,0,0,0,0,0,0,0,0,0,0,0,0,0,0,0,0,0,0,0,0,0,0,0,0,0,0,0,0,0,0,0,0,0,0,0,0,0,0,0,0,0,0,0,0,0,0,0,0,0,0,0,0,0,0,0,0,5779,0,0,0,0,0,0,0,0,0,0,0,0,0,0,0,0,0,0,0,0,0,0,0,0,0,0,0,0,0,0,0,0,0,0,0,0,0,0,0,0,0,0,0,0,0,0,0,5846,0,0,0,0,0,0,0,0,0,0,0,0,0,0,0,0,0,0,0,0,0,0,0,0,0,0,0,0,0,0,0,0,0,0,0,0,0,0,0,0,0,0,0,0,0,0,0,0,0,0,0,0,0,0,0,0,0,0,0,0,0,0,
0,0,0,0,0,0,0,0,0,0,0,0,0,0,0,0,0,0,0,0,0,0,0,0,0,0,0,0,0,0,0,0,0,0,0,0,0,0,0,0,0,0,0,0,0,0,0,0,0,0,0,0,0,0,0,0,0,0,0,0,0,0,0,0,0,0,0,0,0,0,0,0,0,0,0,0,0,0,0,0,0,0,0,0,0,0,0,0,0,5811,0,0,0,0,0,0,0,0,0,0,0,0,0,0,0,0,0,0,0,0,0,0,0,0,0,0,0,0,0,0,0,0,0,0,0,0,0,0,0,0,0,0,0,0,0,0,0,5878,0,0,0,0,0,0,0,0,0,0,0,0,0,0,0,0,0,0,0,0,0,0,0,0,0,0,0,0,0,0,0,0,0,0,0,0,0,0,0,0,0,0,0,0,0,0,0,0,0,0,0,0,0,0,0,0,0,0,0,0,0,0,
0,0,0,0,0,0,0,0,0,0,0,0,0,0,0,0,0,0,0,0,0,0,0,0,0,0,0,0,0,0,0,0,0,0,0,0,0,0,0,0,0,0,0,0,0,0,0,0,0,0,0,0,0,0,0,0,0,0,0,0,0,0,0,0,0,0,0,0,0,0,0,0,0,0,0,0,0,0,0,0,0,0,0,0,0,0,0,0,0,5843,0,0,0,0,0,0,0,0,0,0,0,0,0,0,0,0,0,0,0,0,0,0,0,0,0,0,0,0,0,0,0,0,0,0,0,0,0,0,0,0,0,0,0,0,0,0,0,5846,0,0,0,0,0,0,0,0,0,0,0,0,0,0,0,0,0,0,0,0,0,0,0,0,0,0,0,0,0,0,0,0,0,0,0,0,0,0,0,0,0,0,0,0,0,0,0,0,0,0,0,0,0,0,0,0,0,0,0,0,0,0,
0,0,0,0,0,0,0,0,0,0,0,0,0,0,0,0,0,0,0,0,0,0,0,0,0,0,0,0,0,0,0,0,0,0,0,0,0,0,0,0,0,0,0,0,0,0,0,0,0,0,0,0,0,0,0,0,0,0,0,0,0,0,0,0,0,0,0,0,0,0,0,0,0,0,0,0,0,0,0,0,0,0,0,0,0,0,0,0,0,5875,0,0,0,0,0,0,0,0,0,0,0,0,0,0,0,0,0,0,0,0,0,0,0,0,0,0,0,0,0,0,0,0,0,0,0,0,0,0,0,0,0,0,0,0,0,0,0,5878,0,0,0,0,0,0,0,0,0,0,0,0,0,0,0,0,0,0,0,0,0,0,0,0,0,0,0,0,0,0,0,0,0,0,0,0,0,0,0,0,0,0,0,0,0,0,0,0,0,0,0,0,0,0,0,0,0,0,0,0,0,0,
0,0,0,0,0,0,0,0,0,0,0,0,0,0,0,0,0,0,0,0,0,0,0,0,0,0,0,0,0,0,0,0,0,0,0,0,0,0,0,0,0,0,0,0,0,0,0,0,0,0,0,0,0,0,0,0,0,0,0,0,0,0,0,0,0,0,0,0,0,0,0,0,0,0,0,0,0,0,0,0,0,0,0,0,0,0,0,0,0,5811,0,0,0,0,0,0,0,0,0,0,0,0,0,0,0,0,0,0,0,0,0,0,0,0,0,0,0,0,0,0,0,0,0,0,0,0,0,0,0,0,0,0,0,0,0,0,0,5782,0,0,0,0,0,0,0,0,0,0,0,0,0,0,0,0,0,0,0,0,0,0,0,0,0,0,0,0,0,0,0,0,0,0,0,0,0,0,0,0,0,0,0,0,0,0,0,0,0,0,0,0,0,0,0,0,0,0,0,0,0,0,
0,0,0,0,0,0,0,0,0,0,0,0,0,0,0,0,0,0,0,0,0,0,0,0,0,0,0,0,0,0,0,0,0,0,0,0,0,0,0,0,0,0,0,0,0,0,0,0,0,0,0,0,0,0,0,0,0,0,0,0,0,0,0,0,0,0,0,0,0,0,0,0,0,0,0,0,0,0,0,0,0,0,0,0,0,0,0,0,0,5843,0,0,0,0,0,0,0,0,0,0,0,0,0,0,0,0,0,0,0,0,0,0,0,0,0,0,0,0,0,0,0,0,0,0,0,0,0,0,0,0,0,0,0,0,0,0,0,5814,0,0,0,0,0,0,0,0,0,0,0,0,0,0,0,0,0,0,0,0,0,0,0,0,0,0,0,0,0,0,0,0,0,0,0,0,0,0,0,0,0,0,0,0,0,0,0,0,0,0,0,0,0,0,0,0,0,0,0,0,0,0,
0,0,0,0,0,0,0,0,0,0,0,0,0,0,0,0,0,0,0,0,0,0,0,0,0,0,0,0,0,0,0,0,0,0,0,0,0,0,0,0,0,0,0,0,0,0,0,0,0,0,0,0,0,0,0,0,0,0,0,0,0,0,0,0,0,0,0,0,0,0,0,0,0,0,0,0,0,0,0,0,0,0,0,0,0,0,0,0,0,5875,0,0,0,0,0,0,0,0,0,0,0,0,0,0,0,0,0,0,0,0,0,0,0,0,0,0,0,0,0,0,0,0,0,0,0,0,0,0,0,0,0,0,0,0,0,0,0,5846,0,0,0,0,0,0,0,0,0,0,0,0,0,0,0,0,0,0,0,0,0,0,0,0,0,0,0,0,0,0,0,0,0,0,0,0,0,0,0,0,0,0,0,0,0,0,0,0,0,0,0,0,0,0,0,0,0,0,0,0,0,0,
0,0,0,0,0,0,0,0,0,0,0,0,0,0,0,0,0,0,0,0,0,0,0,0,0,0,0,0,0,0,0,0,0,0,0,0,0,0,0,0,0,0,0,0,0,0,0,0,0,0,0,0,0,0,0,0,0,0,0,0,0,0,0,0,0,0,0,0,0,0,0,0,0,0,0,0,0,0,0,0,0,0,0,0,0,0,0,0,0,5779,0,0,0,0,0,0,0,0,0,0,0,0,0,0,0,0,0,0,0,0,0,0,0,0,0,0,0,0,0,0,0,0,0,0,0,0,0,0,0,0,0,0,0,0,0,0,0,5878,0,0,0,0,0,0,0,0,0,0,0,0,0,0,0,0,0,0,0,0,0,0,0,0,0,0,0,0,0,0,0,0,0,0,0,0,0,0,0,0,0,0,0,0,0,0,0,0,0,0,0,0,0,0,0,0,0,0,0,0,0,0,
0,0,0,0,0,0,0,0,0,0,0,0,0,0,0,0,0,0,0,0,0,0,0,0,0,0,0,0,0,0,0,0,0,0,0,0,0,0,0,0,0,0,0,0,0,0,0,0,0,0,0,0,0,0,0,0,0,0,0,0,0,0,0,0,0,0,0,0,0,0,0,0,0,0,0,0,0,0,0,0,0,0,0,0,0,0,0,0,0,5811,0,0,0,0,0,0,0,0,0,0,0,0,0,0,0,0,0,0,0,0,0,0,0,0,0,0,0,0,0,0,0,0,0,0,0,0,0,0,0,0,0,0,0,0,0,0,0,5814,0,0,0,0,0,0,0,0,0,0,0,0,0,0,0,0,0,0,0,0,0,0,0,0,0,0,0,0,0,0,0,0,0,0,0,0,0,0,0,0,0,0,0,0,0,0,0,0,0,0,0,0,0,0,0,0,0,0,0,0,0,0,
0,0,0,0,0,0,0,0,0,0,0,0,0,0,0,0,0,0,0,0,0,0,0,0,0,0,0,0,0,0,0,0,0,0,0,0,0,0,0,0,0,0,0,0,0,0,0,0,0,0,0,0,0,0,0,0,0,0,0,0,0,0,0,0,0,0,0,0,0,0,0,0,0,0,0,0,0,0,0,0,0,0,0,0,0,0,0,0,0,5843,0,0,0,0,0,0,0,0,0,0,0,0,0,0,0,0,0,0,0,0,0,0,0,0,0,0,0,0,0,0,0,0,0,0,0,0,0,0,0,0,0,0,0,0,0,0,0,5846,0,0,0,0,0,0,0,0,0,0,0,0,0,0,0,0,0,0,0,0,0,0,0,0,0,0,0,0,0,0,0,0,0,0,0,0,0,0,0,0,0,0,0,0,0,0,0,0,0,0,0,0,0,0,0,0,0,0,0,0,0,0,
0,0,0,0,0,0,0,0,0,0,0,0,0,0,0,0,0,0,0,0,0,0,0,0,0,0,0,0,0,0,0,0,0,0,0,0,0,0,0,0,0,0,0,0,0,0,0,0,0,0,0,0,0,0,0,0,0,0,0,0,0,0,0,0,0,0,0,0,0,0,0,0,0,0,0,0,0,0,0,0,0,0,0,0,0,0,0,0,0,5875,0,0,0,0,0,0,0,0,0,0,0,0,0,0,0,0,0,0,0,0,0,0,0,0,0,0,0,0,0,0,0,0,0,0,0,0,0,0,0,0,0,0,0,0,0,0,0,5878,0,0,0,0,0,0,0,0,0,0,0,0,0,0,0,0,0,0,0,0,0,0,0,0,0,0,0,0,0,0,0,0,0,0,0,0,0,0,0,0,0,0,0,0,0,0,0,0,0,0,0,0,0,0,0,0,0,0,0,0,0,0,
0,0,0,0,0,0,0,0,0,0,0,0,0,0,0,0,0,0,0,0,0,0,0,0,0,0,0,0,0,0,0,0,0,0,0,0,0,0,0,0,0,0,0,0,0,0,0,0,0,0,0,0,0,0,0,0,0,0,0,0,0,0,0,0,0,0,0,0,0,0,0,0,0,0,0,0,0,0,0,0,0,0,0,0,0,0,0,0,0,5715,0,0,0,0,0,0,0,0,0,0,0,0,0,0,0,0,0,0,0,0,0,0,0,0,0,0,0,0,0,0,0,0,0,0,0,0,0,0,0,0,0,0,0,0,0,0,0,5814,0,0,0,0,0,0,0,0,0,0,0,0,0,0,0,0,0,0,0,0,0,0,0,0,0,0,0,0,0,0,0,0,0,0,0,0,0,0,0,0,0,0,0,0,0,0,0,0,0,0,0,0,0,0,0,0,0,0,0,0,0,0,
0,0,0,0,0,0,0,0,0,0,0,0,0,0,0,0,0,0,0,0,0,0,0,0,0,0,0,0,0,0,0,0,0,0,0,0,0,0,0,0,0,0,0,0,0,0,0,0,0,0,0,0,0,0,0,0,0,0,0,0,0,0,0,0,0,0,0,0,0,0,0,0,0,0,0,0,0,0,0,0,0,0,0,0,0,0,0,0,0,5747,0,0,0,0,0,0,0,0,0,0,0,0,0,0,0,0,0,0,0,0,0,0,0,0,0,0,0,0,0,0,0,0,0,0,0,0,0,0,0,0,0,0,0,0,0,0,0,5846,0,0,0,0,0,0,0,0,0,0,0,0,0,0,0,0,0,0,0,0,0,0,0,0,0,0,0,0,0,0,0,0,0,0,0,0,0,0,0,0,0,0,0,0,0,0,0,0,0,0,0,0,0,0,0,0,0,0,0,0,0,0,
0,0,0,0,0,0,0,0,0,0,0,0,0,0,0,0,0,0,0,0,0,0,0,0,0,0,0,0,0,0,0,0,0,0,0,0,0,0,0,0,0,0,0,0,0,0,0,0,0,0,0,0,0,0,0,0,0,0,0,0,0,0,0,0,0,0,0,0,0,0,0,0,0,0,0,0,0,0,0,0,0,0,0,0,0,0,0,0,0,5779,0,0,0,0,0,0,0,0,0,0,0,0,0,0,0,0,0,0,0,0,0,0,0,0,0,0,0,0,0,0,0,0,0,0,0,0,0,0,0,0,0,0,0,0,0,0,0,5878,0,0,0,0,0,0,0,0,0,0,0,0,0,0,0,0,0,0,0,0,0,0,0,0,0,0,0,0,0,0,0,0,0,0,0,0,0,0,0,0,0,0,0,0,0,0,0,0,0,0,0,0,0,0,0,0,0,0,0,0,0,0,
0,0,0,0,0,0,0,0,0,0,0,0,0,0,0,0,0,0,0,0,0,0,0,0,0,0,0,0,0,0,0,0,0,0,0,0,0,0,0,0,0,0,0,0,0,0,0,0,0,0,0,0,0,0,0,0,0,0,0,0,0,0,0,0,0,0,0,0,0,0,0,0,0,0,0,0,0,0,0,0,0,0,0,0,0,0,0,0,0,5811,0,0,0,0,0,0,0,0,0,0,0,0,0,0,0,0,0,0,0,0,0,0,0,0,0,0,0,0,0,0,0,0,0,0,0,0,0,0,0,0,0,0,0,0,0,0,0,5782,0,0,0,0,0,0,0,0,0,0,0,0,0,0,0,0,0,0,0,0,0,0,0,0,0,0,0,0,0,0,0,0,0,0,0,0,0,0,0,0,0,0,0,0,0,0,0,0,0,0,0,0,0,0,0,0,0,0,0,0,0,0,
0,0,0,0,0,0,0,0,0,0,0,0,0,0,0,0,0,0,0,0,0,0,0,0,0,0,0,0,0,0,0,0,0,0,0,0,0,0,0,0,0,0,0,0,0,0,0,0,0,0,0,0,0,0,0,0,0,0,0,0,0,0,0,0,0,0,0,0,0,0,0,0,0,0,0,0,0,0,0,0,0,0,0,0,0,0,0,0,0,5843,0,0,0,0,0,0,0,0,0,0,0,0,0,0,0,0,0,0,0,0,0,0,0,0,0,0,0,0,0,0,0,0,0,0,0,0,0,0,0,0,0,0,0,0,0,0,0,5814,0,0,0,0,0,0,0,0,0,0,0,0,0,0,0,0,0,0,0,0,0,0,0,0,0,0,0,0,0,0,0,0,0,0,0,0,0,0,0,0,0,0,0,0,0,0,0,0,0,0,0,0,0,0,0,0,0,0,0,0,0,0,
0,0,0,0,0,0,0,0,0,0,0,0,0,0,0,0,0,0,0,0,0,0,0,0,0,0,0,0,0,0,0,0,0,0,0,0,0,0,0,0,0,0,0,0,0,0,0,0,0,0,0,0,0,0,0,0,0,0,0,0,0,0,0,0,0,0,0,0,0,0,0,0,0,0,0,0,0,0,0,0,0,0,0,0,0,0,0,0,0,5875,0,0,0,0,0,0,0,0,0,0,0,0,0,0,0,0,0,0,0,0,0,0,0,0,0,0,0,0,0,0,0,0,0,0,0,0,0,0,0,0,0,0,0,0,0,0,0,5846,0,0,0,0,0,0,0,0,0,0,0,0,0,0,0,0,0,0,0,0,0,0,0,0,0,0,0,0,0,0,0,0,0,0,0,0,0,0,0,0,0,0,0,0,0,0,0,0,0,0,0,0,0,0,0,0,0,0,0,0,0,0,
0,0,0,0,0,0,0,0,0,0,0,0,0,0,0,0,0,0,0,0,0,0,0,0,0,0,0,0,0,0,0,0,0,0,0,0,0,0,0,0,0,0,0,0,0,0,0,0,0,0,0,0,0,0,0,0,0,0,0,0,0,0,0,0,0,0,0,0,0,0,0,0,0,0,0,0,0,0,0,0,0,0,0,0,0,0,0,0,0,5779,0,0,0,0,0,0,0,0,0,0,0,0,0,0,0,0,0,0,0,0,0,0,0,0,0,0,0,0,0,0,0,0,0,0,0,0,0,0,0,0,0,0,0,0,0,0,0,5866,0,0,0,0,0,0,0,0,0,0,0,0,0,0,0,0,0,0,0,0,0,0,0,0,0,0,0,0,0,0,0,0,0,0,0,0,0,0,0,0,0,0,0,0,0,0,0,0,0,0,0,0,0,0,0,0,0,0,0,0,0,0,
0,0,0,0,0,0,0,0,0,0,0,0,0,0,0,0,0,0,0,0,0,0,0,0,0,0,0,0,0,0,0,0,0,0,0,0,0,0,0,0,0,0,0,0,0,0,0,0,0,0,0,0,0,0,0,0,0,0,0,0,0,0,0,0,0,0,0,0,0,0,0,0,0,0,0,0,0,0,0,0,0,0,0,0,0,0,0,0,0,5811,0,0,0,0,0,0,0,0,0,0,0,0,0,0,0,0,0,0,0,0,0,0,0,0,0,0,0,0,0,0,0,0,0,0,0,0,0,0,0,0,0,0,0,0,0,0,0,5898,5899,5900,5899,5900,5899,5900,5899,5900,5899,5900,5899,5900,5899,5900,5899,5900,5721,5722,5721,5722,5721,5722,5723,5724,5721,5722,5721,5722,5721,5722,5721,5722,5723,5724,5723,5724,5701,5702,5701,5702,5701,5702,5701,5702,5701,5702,5701,5702,5701,5702,5701,5702,5701,5702,5701,5702,5701,5702,5701,5702,5701,5702,
0,0,0,0,0,0,0,0,0,0,0,0,0,0,0,0,0,0,0,0,0,0,0,0,0,0,0,0,0,0,0,0,0,0,0,0,0,0,0,0,0,0,0,0,0,0,0,0,0,0,0,0,0,0,0,0,0,0,0,0,0,0,0,0,0,0,0,0,0,0,0,0,0,0,0,0,0,0,0,0,0,0,0,0,0,0,0,0,0,5843,0,0,0,0,0,0,0,0,0,0,0,0,0,0,0,0,0,0,0,0,0,0,0,0,0,0,0,0,0,0,0,0,0,0,0,0,0,0,0,0,0,0,0,0,0,0,0,0,0,0,0,0,0,0,0,0,0,0,0,0,0,0,0,0,0,0,0,0,0,0,0,0,0,0,0,0,0,0,0,0,0,0,0,0,0,0,0,0,0,0,0,0,0,0,0,0,0,0,0,0,0,0,0,0,0,0,0,0,0,0,
0,0,0,0,0,0,0,0,0,0,0,0,0,0,0,0,0,0,0,0,0,0,0,0,0,0,0,0,0,0,0,0,0,0,0,0,0,0,0,0,0,0,0,0,0,0,0,0,0,0,0,0,0,0,0,0,0,0,0,0,0,0,0,0,0,0,0,0,0,0,0,0,0,0,0,0,0,0,0,0,0,0,0,0,0,0,0,0,0,5875,0,0,0,0,0,0,0,0,0,0,0,0,0,0,0,0,0,0,0,1,2,3,4,5,6,7,8,9,0,0,0,0,0,0,0,0,0,0,0,0,0,0,0,0,0,0,0,0,0,0,0,0,0,0,0,0,0,0,0,0,0,0,0,0,0,0,0,0,0,0,0,0,0,0,0,0,0,0,0,0,0,0,0,0,0,0,0,0,0,0,0,0,0,0,0,0,0,0,0,0,0,0,0,0,0,0,0,0,0,0,
0,0,0,0,0,0,0,0,0,0,0,0,0,0,0,0,0,0,0,0,0,0,0,0,0,0,0,0,0,0,0,0,0,0,0,0,0,0,0,0,0,0,0,0,0,0,0,0,0,0,0,0,0,0,0,0,0,0,0,0,0,0,0,0,0,0,0,0,0,0,0,0,0,0,0,0,0,0,0,0,0,0,0,0,0,0,0,0,0,5779,0,0,0,0,0,0,0,0,0,0,0,0,0,0,0,0,0,0,0,33,34,35,36,37,38,39,40,41,0,0,0,0,0,0,0,0,0,0,0,0,0,0,0,0,0,0,0,4154,4155,4156,4157,4158,4155,4156,4157,4158,4155,4156,4157,4158,4155,4156,4157,4158,4155,4156,4157,4158,4155,4156,4157,4158,4155,4156,4157,4158,4155,4156,4157,4158,4155,4156,4157,4158,4155,4156,4157,4158,4155,4156,4157,4158,4155,4156,4155,4156,4157,4158,4155,4156,4157,4155,4156,4157,4158,4155,4156,4157,4158,4155,
0,0,0,0,0,0,0,0,0,0,0,0,0,0,0,0,0,0,0,0,0,0,0,0,0,0,0,0,0,0,0,0,0,0,0,0,0,0,0,0,0,0,0,0,0,0,0,0,0,0,0,0,0,0,0,0,0,0,0,0,0,0,0,0,0,0,0,0,0,0,0,0,0,0,0,0,0,0,0,0,0,0,0,0,0,0,0,0,0,5811,0,0,0,0,0,0,0,0,0,0,0,0,0,0,0,0,0,0,0,65,66,67,68,69,70,71,72,73,0,0,0,0,0,0,0,0,0,0,0,0,0,0,0,0,0,0,0,5814,4187,4188,4189,4190,4187,4188,4189,4190,4187,4188,4189,4190,4187,4188,4189,4190,4187,4188,4189,4190,4187,4188,4189,4190,4187,4188,4189,4190,4187,4188,4189,4190,4187,4188,4189,4190,4187,4188,4189,4190,4187,4188,4189,4190,4187,4188,4187,4188,4189,4190,4187,4188,4189,4187,4188,4189,4190,4187,4188,4189,4190,4187,
0,0,0,0,0,0,0,0,0,0,0,0,0,0,0,0,0,0,0,0,0,0,0,0,0,0,0,0,0,0,0,0,0,0,0,0,0,0,0,0,0,0,0,0,0,0,0,0,0,0,0,0,0,0,0,0,0,0,0,0,0,0,0,0,0,0,0,0,0,0,0,0,0,0,0,0,0,0,0,0,0,0,0,0,0,0,0,0,0,5843,0,0,0,0,0,0,0,0,0,0,0,0,0,0,0,0,0,0,0,97,98,99,100,101,102,103,104,105,0,0,0,0,0,0,0,0,0,0,0,0,0,0,0,0,0,0,0,5846,4219,4220,4221,4222,4219,4220,4221,4222,4219,4220,4221,4222,4219,4220,4221,4222,4219,4220,4221,4222,4219,4220,4221,4222,4219,4220,4221,4222,4219,4220,4221,4222,4219,4220,4221,4222,4219,4220,4221,4222,4219,4220,4221,4222,4219,4220,4219,4220,4221,4222,4219,4220,4221,4219,4220,4221,4222,4219,4220,4221,4222,4219,
0,0,0,0,0,0,0,0,0,0,0,0,0,0,0,0,0,0,0,0,0,0,0,0,0,0,0,0,0,0,0,0,0,0,0,0,0,0,0,0,0,0,0,0,0,0,0,0,0,0,0,0,0,0,0,0,0,0,0,0,0,0,0,0,0,0,0,0,0,0,0,0,0,0,0,0,0,0,0,0,0,0,0,0,0,0,0,0,0,5875,0,0,0,0,0,0,0,0,0,0,0,0,0,0,0,0,0,0,0,129,130,131,132,133,134,135,136,137,0,0,0,0,0,0,0,0,0,0,0,0,0,0,0,0,0,0,0,5878,4251,4252,4253,4254,4251,4252,4253,4254,4251,4252,4253,4254,4251,4252,4253,4254,4251,4252,4253,4254,4251,4252,4253,4254,4251,4252,4253,4254,4251,4252,4253,4254,4251,4252,4253,4254,4251,4252,4253,4254,4251,4252,4253,4254,4251,4252,4251,4252,4253,4254,4251,4252,4253,4251,4252,4253,4254,4251,4252,4253,4254,4251,
0,0,0,0,0,0,0,0,0,0,0,0,0,0,0,0,0,0,0,0,0,0,0,0,0,0,0,0,0,0,0,0,0,0,0,0,0,0,0,0,0,0,0,0,0,0,0,0,0,0,0,0,0,0,0,0,0,0,0,0,0,0,0,0,0,0,0,0,0,0,0,0,0,0,0,0,0,0,0,0,0,0,0,0,0,0,0,0,0,5779,0,0,0,0,0,0,0,0,0,0,0,0,0,0,0,0,0,0,0,161,162,163,164,165,166,167,168,169,0,0,0,0,0,0,0,0,0,0,1,2,3,4,5,6,7,8,9,5814,4283,4284,4285,4286,4283,4284,4285,4286,4283,4284,4285,4286,4283,4284,4285,4286,4283,4284,4285,4286,4283,4284,4285,4286,4283,4284,4285,4286,4283,4284,4285,4286,4283,4284,4285,4286,4283,4284,4285,4286,4283,4284,4285,4286,4283,4284,4283,4284,4285,4286,4283,4284,4285,4283,4284,4285,4286,4283,4284,4285,4286,4283,
0,0,0,0,0,0,0,0,0,0,0,0,0,0,0,0,0,0,0,0,0,0,0,0,0,0,0,0,0,0,0,0,0,0,0,0,0,0,0,0,0,0,0,0,0,0,0,0,0,0,0,0,0,0,0,0,0,0,0,0,0,0,0,0,0,0,0,0,0,0,0,0,0,0,0,0,0,0,0,0,0,0,0,0,0,0,0,0,0,5811,0,0,0,0,0,0,0,0,0,0,0,0,0,0,0,0,0,0,0,193,194,195,196,197,198,199,200,201,0,0,0,0,0,0,0,0,0,0,33,34,35,36,37,38,39,40,41,5846,0,0,0,0,0,0,0,0,0,0,0,0,0,0,0,0,0,0,0,0,0,0,0,0,0,0,0,0,0,0,0,0,0,0,0,0,0,0,0,0,0,0,0,0,0,0,0,0,0,0,0,0,0,0,0,0,0,0,0,0,0,0,
0,0,0,0,0,0,0,0,0,0,0,0,0,0,0,0,0,0,0,0,0,0,0,0,0,0,0,0,0,0,0,0,0,0,0,0,0,0,0,0,0,0,0,0,0,0,0,0,0,0,0,0,0,0,0,0,0,0,0,0,0,0,0,0,0,0,0,0,0,0,0,0,0,0,0,0,0,0,0,0,0,0,0,0,0,0,0,0,0,5843,0,0,0,0,0,0,0,0,0,0,0,0,0,0,0,0,0,0,0,225,226,227,228,229,230,231,232,233,0,5377,5379,5379,5379,5379,5379,5379,5382,0,65,66,67,68,69,70,71,72,73,5878,0,0,0,0,0,0,0,0,0,0,0,0,0,0,0,0,0,0,0,0,0,0,0,0,0,0,0,0,0,0,0,0,0,0,0,0,0,0,0,0,0,0,0,0,0,0,0,0,0,0,0,0,0,0,0,0,0,0,0,0,0,0,
0,0,0,0,0,0,0,0,0,0,0,0,0,0,0,0,0,0,0,0,0,0,0,0,0,0,0,0,0,0,0,0,0,0,0,0,0,0,0,0,0,0,0,0,0,0,0,0,0,0,0,0,0,0,0,0,0,0,0,0,0,0,0,0,0,0,0,0,0,0,0,0,0,0,0,0,0,0,0,0,0,0,0,0,0,0,0,0,0,5875,0,0,0,0,0,0,0,0,0,0,0,0,0,0,0,0,0,0,0,257,258,259,260,261,262,263,264,265,0,5409,5427,5427,5427,5427,5427,5427,5414,0,97,98,99,100,101,102,103,104,105,5814,0,0,0,0,0,0,0,0,0,0,0,0,0,0,0,0,0,0,0,0,0,0,0,0,0,0,0,0,0,0,0,0,0,0,0,0,0,0,0,0,0,0,0,0,0,0,0,0,0,0,0,0,0,0,0,0,0,0,0,0,0,0,
0,0,0,0,0,0,0,0,0,0,0,0,0,0,0,0,0,0,0,0,0,0,0,0,0,0,0,0,0,0,0,0,0,0,0,0,0,0,0,0,0,0,0,0,0,0,0,0,0,0,0,0,0,0,0,0,0,0,0,0,0,0,0,0,0,0,0,0,0,0,0,0,0,0,0,0,0,0,0,0,0,0,0,0,0,0,0,0,0,5747,0,0,0,0,0,0,0,0,0,0,0,0,0,0,0,0,0,0,0,289,290,291,292,293,294,295,296,297,0,5409,5427,5427,5427,5427,5427,5427,5414,0,129,130,131,132,133,134,135,136,137,5846,0,0,0,0,0,0,0,0,0,0,0,0,0,0,0,0,0,0,0,0,0,0,0,0,0,0,0,0,0,0,0,0,0,0,0,0,0,0,0,0,0,0,0,0,0,0,0,0,0,0,0,0,0,0,0,0,0,0,0,0,0,0,
0,0,0,0,0,0,0,0,0,0,0,0,0,0,0,0,0,0,0,0,0,0,0,0,0,0,0,0,0,0,0,0,0,0,0,0,0,0,0,0,0,0,0,0,0,0,0,0,0,0,0,0,0,0,0,0,0,0,0,0,0,0,0,0,0,0,0,0,0,0,0,0,0,0,0,0,0,0,0,0,0,0,0,0,0,0,0,0,0,5779,0,0,0,0,0,0,0,0,0,0,0,0,0,0,0,0,0,0,0,0,0,0,0,0,0,0,0,0,0,5409,5427,5427,5427,5427,5427,5427,5414,0,161,162,163,164,165,166,167,168,169,5878,0,0,0,0,0,0,0,0,0,0,0,0,0,0,0,0,0,0,0,0,0,0,0,0,0,0,0,0,0,0,0,0,0,0,0,0,0,0,0,0,0,0,0,0,0,0,0,0,0,0,0,0,0,0,0,0,0,0,0,0,0,0,
0,0,0,0,0,0,0,0,0,0,0,0,0,0,0,0,0,0,0,0,0,0,0,0,0,0,0,0,0,0,0,0,0,0,0,0,0,0,0,0,0,0,0,0,0,0,0,0,0,0,0,0,0,0,0,0,0,0,0,0,0,0,0,0,0,0,0,0,0,0,0,0,0,0,0,0,0,0,0,0,0,0,0,0,0,0,0,0,0,5811,0,0,0,0,0,0,0,0,0,0,0,0,0,0,0,0,0,0,0,0,0,0,0,0,0,0,0,0,0,5457,0,0,5427,5427,0,0,5462,0,193,194,195,196,197,198,199,200,201,5814,0,0,0,0,0,0,0,0,0,0,0,0,0,0,0,0,0,0,0,0,0,0,0,0,0,0,0,0,0,0,0,0,0,0,0,0,0,0,0,0,0,0,0,0,0,0,0,0,0,0,0,0,0,0,0,0,0,0,0,0,0,0,
0,0,0,0,0,0,0,0,0,0,0,0,0,0,0,0,0,0,0,0,0,0,0,0,0,0,0,0,0,0,0,0,0,0,0,0,0,0,0,0,0,0,0,0,0,0,0,0,0,0,0,0,0,0,0,0,0,0,0,0,0,0,0,0,0,0,0,0,0,0,0,0,0,0,0,0,0,0,0,0,0,0,0,0,0,0,0,0,0,5843,0,0,0,0,0,0,0,0,0,0,0,0,0,0,0,0,0,0,0,0,0,0,0,0,0,0,0,0,0,0,0,0,0,0,0,0,0,0,225,226,227,228,229,230,231,232,233,5846,0,0,0,0,0,0,0,0,0,0,0,0,0,0,0,0,0,0,0,0,0,0,0,0,0,0,0,0,0,0,0,0,0,0,0,0,0,0,0,0,0,0,0,0,0,0,0,0,0,0,0,0,0,0,0,0,0,0,0,0,0,0,
0,0,0,0,0,0,0,0,0,0,0,0,0,0,0,0,0,0,0,0,0,0,0,0,0,0,0,0,0,0,0,0,0,0,0,0,0,0,0,0,0,0,0,0,0,0,0,0,0,0,0,0,0,0,0,0,0,0,0,0,0,0,0,0,0,0,0,0,0,0,0,0,0,0,0,0,0,0,0,0,0,0,0,0,0,0,0,0,0,5875,0,0,0,0,0,0,0,0,0,0,0,0,0,0,0,0,0,0,0,0,0,0,0,0,0,0,0,0,0,0,0,0,0,0,0,0,0,0,257,258,259,260,261,262,263,264,265,5878,0,0,0,0,0,0,0,0,0,0,0,0,0,0,0,0,0,0,0,0,0,0,0,0,0,0,0,0,0,0,0,0,0,0,0,0,0,0,0,0,0,0,0,0,0,0,0,0,0,0,0,0,0,0,0,0,0,0,0,0,0,0,
0,0,0,0,0,0,0,0,0,0,0,0,0,0,0,0,0,0,0,0,0,0,0,0,0,0,0,0,0,0,0,0,0,0,0,0,0,0,0,0,0,0,0,0,0,0,0,0,0,0,0,0,0,0,0,0,0,0,0,0,0,0,0,0,0,0,0,0,0,0,0,0,0,0,0,0,0,0,0,0,0,0,0,0,0,0,0,0,0,5715,0,0,0,0,0,0,0,0,0,0,0,0,0,0,0,0,0,0,0,0,0,0,0,0,0,0,0,0,0,0,0,0,0,0,0,0,0,0,289,290,291,292,293,294,295,296,297,5718,0,0,0,0,0,0,0,0,0,0,0,0,0,0,0,0,0,0,0,0,0,0,0,0,0,0,0,0,0,0,0,0,0,0,0,0,0,0,0,0,0,0,0,0,0,0,0,0,0,0,0,0,0,0,0,0,0,0,0,0,0,0,
0,0,0,0,0,0,0,0,0,0,0,0,0,0,0,0,0,0,0,0,0,0,0,0,0,0,0,0,0,0,0,0,0,0,0,0,0,0,0,0,0,0,0,0,0,0,0,0,0,0,0,0,0,0,0,0,0,0,0,0,0,0,0,0,0,0,0,0,0,0,0,0,0,0,0,0,0,0,0,0,0,0,0,0,0,0,0,0,0,5747,0,0,0,0,0,0,0,0,0,0,0,0,0,0,0,0,0,0,0,0,5347,5348,5273,5274,5275,5276,5277,5278,5279,5280,5274,5275,5276,5277,5273,5274,5275,5276,5277,5278,5279,5280,5347,5348,0,0,0,5750,0,0,0,0,0,0,0,0,0,0,0,0,0,0,0,0,0,0,0,0,0,0,0,0,0,0,0,0,0,0,0,0,0,0,0,0,0,0,0,0,0,0,0,0,0,0,0,0,0,0,0,0,0,0,0,0,0,0,0,0,0,0,
0,0,0,0,0,0,0,0,0,0,0,0,0,0,0,0,0,0,0,0,0,0,0,0,0,0,0,0,0,0,0,0,0,0,0,0,0,0,0,0,0,0,0,0,0,0,0,0,0,0,0,0,0,0,0,0,0,0,0,0,0,0,0,0,0,0,0,0,0,0,0,0,0,0,0,0,0,0,0,0,0,0,0,0,0,0,0,0,0,5779,0,0,0,0,0,0,0,0,0,0,0,0,0,0,0,0,0,0,0,0,5363,5364,5289,5290,5291,5292,5293,5294,5295,5296,5290,5291,5292,5293,5289,5290,5291,5292,5293,5294,5295,5296,5363,5364,0,5344,0,5782,0,0,0,0,0,0,0,0,0,0,0,0,0,0,0,0,0,0,0,0,0,0,0,0,0,0,0,0,0,0,0,0,0,0,0,0,0,0,0,0,0,0,0,0,0,0,0,0,0,0,0,0,0,0,0,0,0,0,0,0,0,0,
0,0,0,0,0,0,0,0,0,0,0,0,0,0,0,0,0,0,0,0,0,0,0,0,0,0,0,0,0,0,0,0,0,0,0,0,0,0,0,0,0,0,0,0,0,0,0,0,0,0,0,0,0,0,0,0,0,0,0,0,0,0,0,0,0,0,0,0,0,0,0,0,0,0,0,0,0,0,0,0,0,0,0,0,0,0,0,0,0,5811,0,0,0,0,0,0,0,0,0,0,0,0,0,0,0,0,0,0,0,0,0,0,0,0,0,0,0,0,0,0,0,0,0,0,0,0,0,0,0,0,0,0,0,0,0,0,0,5814,0,0,0,0,0,0,0,0,0,0,0,0,0,0,0,0,0,0,0,0,0,0,0,0,0,0,0,0,0,0,0,0,0,0,0,0,0,0,0,0,0,0,0,0,0,0,0,0,0,0,0,0,0,0,0,0,0,0,0,0,0,0,
0,0,0,0,0,0,0,0,0,0,0,0,0,0,0,0,0,0,0,0,0,0,0,0,0,0,0,0,0,0,0,0,0,0,0,0,0,0,0,0,0,0,0,0,0,0,0,0,0,0,0,0,0,0,0,0,0,0,0,0,0,0,0,0,0,0,0,0,0,0,0,0,0,0,0,0,0,0,0,0,0,0,0,0,0,0,0,0,0,5843,0,0,0,0,0,0,0,0,0,0,0,0,0,0,0,0,0,0,0,0,0,0,0,0,0,0,0,0,0,0,0,0,0,0,0,0,0,0,0,0,0,0,0,0,0,0,0,5846,0,0,0,0,0,0,0,0,0,0,0,0,0,0,0,0,0,0,0,0,0,0,0,0,0,0,0,0,0,0,0,0,0,0,0,0,0,0,0,0,0,0,0,0,0,0,0,0,0,0,0,0,0,0,0,0,0,0,0,0,0,0,
0,0,0,0,0,0,0,0,0,0,0,0,0,0,0,0,0,0,0,0,0,0,0,0,0,0,0,0,0,0,0,0,0,0,0,0,0,0,0,0,0,0,0,0,0,0,0,0,0,0,0,0,0,0,0,0,0,0,0,0,0,0,0,0,0,0,0,0,0,0,0,0,0,0,0,0,0,0,0,0,0,0,0,0,0,0,0,0,0,5875,0,0,0,0,0,0,0,0,0,0,0,0,0,0,0,0,0,0,0,0,0,0,0,0,0,0,0,0,0,0,0,0,0,0,0,0,0,0,0,0,0,0,0,0,0,0,0,5878,0,0,0,0,0,0,0,0,0,0,0,0,0,0,0,0,0,0,0,0,0,0,0,0,0,0,0,0,0,0,0,0,0,0,0,0,0,0,0,0,0,0,0,0,0,0,0,0,0,0,0,0,0,0,0,0,0,0,0,0,0,0,
0,0,0,0,0,0,0,0,0,0,0,0,0,0,0,0,0,0,0,0,0,0,0,0,0,0,0,0,0,0,0,0,0,0,0,0,0,0,0,0,0,0,0,0,0,0,0,0,0,0,0,0,0,0,0,0,0,0,0,0,0,0,0,0,0,0,0,0,0,0,0,0,0,0,0,0,0,0,0,0,0,0,0,0,0,0,0,0,5826,5827,6021,6022,6021,6022,6021,6022,6021,6022,6021,6022,6021,6022,6021,6022,6021,6022,4163,4164,4165,4166,5707,5708,5707,5708,5707,5708,5707,5708,5707,5708,5707,5708,5707,5708,5707,5708,5707,5708,5707,5708,5707,5708,5707,5708,4431,4432,4433,4434,0,0,0,0,0,0,0,0,0,0,0,0,0,0,0,0,0,0,0,0,0,0,0,0,0,0,0,0,0,0,0,0,0,0,0,0,0,0,0,0,0,0,0,0,0,0,0,0,0,0,0,0,0,0,0,0,0,0,0,0,0,0,
0,0,0,0,0,0,0,0,0,0,0,0,0,0,0,0,0,0,0,0,0,0,0,0,0,0,0,0,0,0,0,0,0,0,0,0,0,0,0,0,0,0,0,0,0,0,0,0,0,0,0,0,0,0,0,0,0,0,0,0,0,0,0,0,0,0,0,0,0,0,0,0,0,0,0,0,0,0,0,0,0,0,0,0,0,0,0,0,5858,5859,6053,6054,6053,6054,6053,6054,6053,6054,6053,6054,6053,6054,6053,6054,6053,6054,4195,4196,4197,4198,6053,6054,6053,6054,6053,6054,6053,6054,6053,6054,6053,6054,6053,6054,6053,6054,6053,6054,6053,6054,6053,6054,6053,6054,4463,4464,4465,4466,0,0,0,0,0,0,0,0,0,0,0,0,0,0,0,0,0,0,0,0,0,0,0,0,0,0,0,0,0,0,0,0,0,0,0,0,0,0,0,0,0,0,0,0,0,0,0,0,0,0,0,0,0,0,0,0,0,0,0,0,0,0,
0,0,0,0,0,0,0,0,0,0,0,0,0,0,0,0,0,0,0,0,0,0,0,0,0,0,0,0,0,0,0,0,0,0,0,0,0,0,0,0,0,0,0,0,0,0,0,0,0,0,0,0,0,0,0,0,0,0,0,0,0,0,0,0,0,0,0,0,0,0,0,0,0,0,0,0,0,0,0,0,0,0,0,0,0,0,0,0,5890,5891,6085,6086,6085,6086,6085,6086,6085,6086,6085,6086,6085,6086,6085,6086,6085,6086,4227,4228,4229,4230,6085,6086,6085,6086,6085,6086,6085,6086,6085,6086,6085,6086,6085,6086,6085,6086,6085,6086,6085,6086,6085,6086,6085,6086,4495,4496,4497,4498,0,0,0,0,0,0,0,0,0,0,0,0,0,0,0,0,0,0,0,0,0,0,0,0,0,0,0,0,0,0,0,0,0,0,0,0,0,0,0,0,0,0,0,0,0,0,0,0,0,0,0,0,0,0,0,0,0,0,0,0,0,0,
0,0,0,0,0,0,0,0,0,0,0,0,0,0,0,0,0,0,0,0,0,0,0,0,0,0,0,0,0,0,0,0,0,0,0,0,0,0,0,0,0,0,0,0,0,0,0,0,0,0,0,0,0,0,0,0,0,0,0,0,0,0,0,0,0,0,0,0,0,0,0,0,0,0,0,0,0,0,0,0,0,0,0,0,0,0,0,0,5922,5923,6117,6118,6117,6118,6117,6118,6117,6118,6117,6118,6117,6118,6117,6118,6117,6118,4259,4260,4261,4262,6117,6118,6117,6118,6117,6118,6117,6118,6117,6118,6117,6118,6117,6118,6117,6118,6117,6118,6117,6118,6117,6118,6117,6118,4527,4528,4529,4530,0,0,0,0,0,0,0,0,0,0,0,0,0,0,0,0,0,0,0,0,0,0,0,0,0,0,0,0,0,0,0,0,0,0,0,0,0,0,0,0,0,0,0,0,0,0,0,0,0,0,0,0,0,0,0,0,0,0,0,0,0,0,
0,0,0,0,0,0,0,0,0,0,0,0,0,0,0,0,0,0,0,0,0,0,0,0,0,0,0,0,0,0,0,0,0,0,0,0,0,0,0,0,0,0,0,0,0,0,0,0,0,0,0,0,0,0,0,0,0,0,0,0,0,0,0,0,0,0,0,0,0,0,0,0,0,0,0,0,0,0,0,0,0,0,0,0,0,0,0,0,0,0,0,0,0,0,0,0,0,0,0,0,0,0,0,0,0,0,4291,4292,4293,4294,0,0,0,0,0,0,0,0,0,0,0,0,0,0,0,0,0,0,0,0,0,0,0,0,4559,4560,4561,4562,0,0,0,0,0,0,0,0,0,0,0,0,0,0,0,0,0,0,0,0,0,0,0,0,0,0,0,0,0,0,0,0,0,0,0,0,0,0,0,0,0,0,0,0,0,0,0,0,0,0,0,0,0,0,0,0,0,0,0,0,0,0,
0,0,0,0,0,0,0,0,0,0,0,0,0,0,0,0,0,0,0,0,0,0,0,0,0,0,0,0,0,0,0,0,0,0,0,0,0,0,0,0,0,0,0,0,0,0,0,0,0,0,0,0,0,0,0,0,0,0,0,0,0,0,0,0,0,0,0,0,0,0,0,0,0,0,0,0,0,0,0,0,0,0,0,0,0,0,0,0,0,0,0,0,0,0,0,0,0,0,0,0,0,0,0,0,0,0,4323,4324,4325,4326,0,0,0,0,0,0,0,0,0,0,0,0,0,0,0,0,0,0,0,0,0,0,0,0,4591,4592,4593,4594,0,0,0,0,0,0,0,0,0,0,0,0,0,0,0,0,0,0,0,0,0,0,0,0,0,0,0,0,0,0,0,0,0,0,0,0,0,0,0,0,0,0,0,0,0,0,0,0,0,0,0,0,0,0,0,0,0,0,0,0,0,0,
0,0,0,0,0,0,0,0,0,0,0,0,0,0,0,0,0,0,0,0,0,0,0,0,0,0,0,0,0,0,0,0,0,0,0,0,0,0,0,0,0,0,0,0,0,0,0,0,0,0,0,0,0,0,0,0,0,0,0,0,0,0,0,0,0,0,0,0,0,0,0,0,0,0,0,0,0,0,0,0,0,0,0,0,0,0,0,0,0,0,0,0,0,0,0,0,0,0,0,0,0,0,0,0,0,0,0,0,0,0,0,0,0,0,0,0,0,0,0,0,0,0,0,0,0,0,0,0,0,0,0,0,0,0,0,0,0,0,0,0,0,0,0,0,0,0,0,0,0,0,0,0,0,0,0,0,0,0,0,0,0,0,0,0,0,0,0,0,0,0,0,0,0,0,0,0,0,0,0,0,0,0,0,0,0,0,0,0,0,0,0,0,0,0,0,0,0,0,0,0,
0,0,0,0,0,0,0,0,0,0,0,0,0,0,0,0,0,0,0,0,0,0,0,0,0,0,0,0,0,0,0,0,0,0,0,0,0,0,0,0,0,0,0,0,0,0,0,0,0,0,0,0,0,0,0,0,0,0,0,0,0,0,0,0,0,0,0,0,0,0,0,0,0,0,0,0,0,0,0,0,0,0,0,0,0,0,0,0,0,0,0,0,0,0,0,0,0,0,0,0,0,0,0,0,0,0,0,0,0,0,0,0,0,0,0,0,0,0,0,0,0,0,0,0,0,0,0,0,0,0,0,0,0,0,0,0,0,0,0,0,0,0,0,0,0,0,0,0,0,0,0,0,0,0,0,0,0,0,0,0,0,0,0,0,0,0,0,0,0,0,0,0,0,0,0,0,0,0,0,0,0,0,0,0,0,0,0,0,0,0,0,0,0,0,0,0,0,0,0,0,
0,0,0,0,0,0,0,0,0,0,0,0,0,0,0,0,0,0,0,0,0,0,0,0,0,0,0,0,0,0,0,0,0,0,0,0,0,0,0,0,0,0,0,0,0,0,0,0,0,0,0,0,0,0,0,0,0,0,0,0,0,0,0,0,0,0,0,0,0,0,0,0,0,0,0,0,0,0,0,0,0,0,0,0,0,0,0,0,0,0,0,0,0,0,0,0,0,0,0,0,0,0,0,0,0,0,0,0,0,0,0,0,0,0,0,0,0,0,0,0,0,0,0,0,0,0,0,0,0,0,0,0,0,0,0,0,0,0,0,0,0,0,0,0,0,0,0,0,0,0,0,0,0,0,0,0,0,0,0,0,0,0,0,0,0,0,0,0,0,0,0,0,0,0,0,0,0,0,0,0,0,0,0,0,0,0,0,0,0,0,0,0,0,0,0,0,0,0,0,0,
0,0,0,0,0,0,0,0,0,0,0,0,0,0,0,0,0,0,0,0,0,0,0,0,0,0,0,0,0,0,0,0,0,0,0,0,0,0,0,0,0,0,0,0,0,0,0,0,0,0,0,0,0,0,0,0,0,0,0,0,0,0,0,0,0,0,0,0,0,0,0,0,0,0,0,0,0,0,0,0,0,0,0,0,0,0,0,0,0,0,0,0,0,0,0,0,0,0,0,0,0,0,0,0,0,0,0,0,0,0,0,0,0,0,0,0,0,0,0,0,0,0,0,0,0,0,0,0,0,0,0,0,0,0,0,0,0,0,0,0,0,0,0,0,0,0,0,0,0,0,0,0,0,0,0,0,0,0,0,0,0,0,0,0,0,0,0,0,0,0,0,0,0,0,0,0,0,0,0,0,0,0,0,0,0,0,0,0,0,0,0,0,0,0,0,0,0,0,0,0,
0,0,0,0,0,0,0,0,0,0,0,0,0,0,0,0,0,0,0,0,0,0,0,0,0,0,0,0,0,0,0,0,0,0,0,0,0,0,0,0,0,0,0,0,0,0,0,0,0,0,0,0,0,0,0,0,0,0,0,0,0,0,0,0,0,0,0,0,0,0,0,0,0,0,0,0,0,0,0,0,0,0,0,0,0,0,0,0,0,0,0,0,0,0,0,0,0,0,0,0,0,0,0,0,0,0,0,0,0,0,0,0,0,0,0,0,0,0,0,0,0,0,0,0,0,0,0,0,0,0,0,0,0,0,0,0,0,0,0,0,0,0,0,0,0,0,0,0,0,0,0,0,0,0,0,0,0,0,0,0,0,0,0,0,0,0,0,0,0,0,0,0,0,0,0,0,0,0,0,0,0,0,0,0,0,0,0,0,0,0,0,0,0,0,0,0,0,0,0,0,
0,0,0,0,0,0,0,0,0,0,0,0,0,0,0,0,0,0,0,0,0,0,0,0,0,0,0,0,0,0,0,0,0,0,0,0,0,0,0,0,0,0,0,0,0,0,0,0,0,0,0,0,0,0,0,0,0,0,0,0,0,0,0,0,0,0,0,0,0,0,0,0,0,0,0,0,0,0,0,0,0,0,0,0,0,0,0,0,0,0,0,0,0,0,0,0,0,0,0,0,0,0,0,0,0,0,0,0,0,0,0,0,0,0,0,0,0,0,0,0,0,0,0,0,0,0,0,0,0,0,0,0,0,0,0,0,0,0,0,0,0,0,0,0,0,0,0,0,0,0,0,0,0,0,0,0,0,0,0,0,0,0,0,0,0,0,0,0,0,0,0,0,0,0,0,0,0,0,0,0,0,0,0,0,0,0,0,0,0,0,0,0,0,0,0,0,0,0,0,0,
0,0,0,0,0,0,0,0,0,0,0,0,0,0,0,0,0,0,0,0,0,0,0,0,0,0,0,0,0,0,0,0,0,0,0,0,0,0,0,0,0,0,0,0,0,0,0,0,0,0,0,0,0,0,0,0,0,0,0,0,0,0,0,0,0,0,0,0,0,0,0,0,0,0,0,0,0,0,0,0,0,0,0,0,0,0,0,0,0,0,0,0,0,0,0,0,0,0,0,0,0,0,0,0,0,0,0,0,0,0,0,0,0,0,0,0,0,0,0,0,0,0,0,0,0,0,0,0,0,0,0,0,0,0,0,0,0,0,0,0,0,0,0,0,0,0,0,0,0,0,0,0,0,0,0,0,0,0,0,0,0,0,0,0,0,0,0,0,0,0,0,0,0,0,0,0,0,0,0,0,0,0,0,0,0,0,0,0,0,0,0,0,0,0,0,0,0,0,0,0,
0,0,0,0,0,0,0,0,0,0,0,0,0,0,0,0,0,0,0,0,0,0,0,0,0,0,0,0,0,0,0,0,0,0,0,0,0,0,0,0,0,0,0,0,0,0,0,0,0,0,0,0,0,0,0,0,0,0,0,0,0,0,0,0,0,0,0,0,0,0,0,0,0,0,0,0,0,0,0,0,0,0,0,0,0,0,0,0,0,0,0,0,0,0,0,0,0,0,0,0,0,0,0,0,0,0,0,0,0,0,0,0,0,0,0,0,0,0,0,0,0,0,0,0,0,0,0,0,0,0,0,0,0,0,0,0,0,0,0,0,0,0,0,0,0,0,0,0,0,0,0,0,0,0,0,0,0,0,0,0,0,0,0,0,0,0,0,0,0,0,0,0,0,0,0,0,0,0,0,0,0,0,0,0,0,0,0,0,0,0,0,0,0,0,0,0,0,0,0,0,
0,0,0,0,0,0,0,0,0,0,0,0,0,0,0,0,0,0,0,0,0,0,0,0,0,0,0,0,0,0,0,0,0,0,0,0,0,0,0,0,0,0,0,0,0,0,0,0,0,0,0,0,0,0,0,0,0,0,0,0,0,0,0,0,0,0,0,0,0,0,0,0,0,0,0,0,0,0,0,0,0,0,0,0,0,0,0,0,0,0,0,0,0,0,0,0,0,0,0,0,0,0,0,0,0,0,0,0,0,0,0,0,0,0,0,0,0,0,0,0,0,0,0,0,0,0,0,0,0,0,0,0,0,0,0,0,0,0,0,0,0,0,0,0,0,0,0,0,0,0,0,0,0,0,0,0,0,0,0,0,0,0,0,0,0,0,0,0,0,0,0,0,0,0,0,0,0,0,0,0,0,0,0,0,0,0,0,0,0,0,0,0,0,0,0,0,0,0,0,0,
0,0,0,0,0,0,0,0,0,0,0,0,0,0,0,0,0,0,0,0,0,0,0,0,0,0,0,0,0,0,0,0,0,0,0,0,0,0,0,0,0,0,0,0,0,0,0,0,0,0,0,0,0,0,0,0,0,0,0,0,0,0,0,0,0,0,0,0,0,0,0,0,0,0,0,0,0,0,0,0,0,0,0,0,0,0,0,0,0,0,0,0,0,0,0,0,0,0,0,0,0,0,0,0,0,0,0,0,0,0,0,0,0,0,0,0,0,0,0,0,0,0,0,0,0,0,0,0,0,0,0,0,0,0,0,0,0,0,0,0,0,0,0,0,0,0,0,0,0,0,0,0,0,0,0,0,0,0,0,0,0,0,0,0,0,0,0,0,0,0,0,0,0,0,0,0,0,0,0,0,0,0,0,0,0,0,0,0,0,0,0,0,0,0,0,0,0,0,0,0,
0,0,0,0,0,0,0,0,0,0,0,0,0,0,0,0,0,0,0,0,0,0,0,0,0,0,0,0,0,0,0,0,0,0,0,0,0,0,0,0,0,0,0,0,0,0,0,0,0,0,0,0,0,0,0,0,0,0,0,0,0,0,0,0,0,0,0,0,0,0,0,0,0,0,0,0,0,0,0,0,0,0,0,0,0,0,0,0,0,0,0,0,0,0,0,0,0,0,0,0,0,0,0,0,0,0,0,0,0,0,0,0,0,0,0,0,0,0,0,0,0,0,0,0,0,0,0,0,0,0,0,0,0,0,0,0,0,0,0,0,0,0,0,0,0,0,0,0,0,0,0,0,0,0,0,0,0,0,0,0,0,0,0,0,0,0,0,0,0,0,0,0,0,0,0,0,0,0,0,0,0,0,0,0,0,0,0,0,0,0,0,0,0,0,0,0,0,0,0,0,
0,0,0,0,0,0,0,0,0,0,0,0,0,0,0,0,0,0,0,0,0,0,0,0,0,0,0,0,0,0,0,0,0,0,0,0,0,0,0,0,0,0,0,0,0,0,0,0,0,0,0,0,0,0,0,0,0,0,0,0,0,0,0,0,0,0,0,0,0,0,0,0,0,0,0,0,0,0,0,0,0,0,0,0,0,0,0,0,0,0,0,0,0,0,0,0,0,0,0,0,0,0,0,0,0,0,0,0,0,0,0,0,0,0,0,0,0,0,0,0,0,0,0,0,0,0,0,0,0,0,0,0,0,0,0,0,0,0,0,0,0,0,0,0,0,0,0,0,0,0,0,0,0,0,0,0,0,0,0,0,0,0,0,0,0,0,0,0,0,0,0,0,0,0,0,0,0,0,0,0,0,0,0,0,0,0,0,0,0,0,0,0,0,0,0,0,0,0,0,0,
0,0,0,0,0,0,0,0,0,0,0,0,0,0,0,0,0,0,0,0,0,0,0,0,0,0,0,0,0,0,0,0,0,0,0,0,0,0,0,0,0,0,0,0,0,0,0,0,0,0,0,0,0,0,0,0,0,0,0,0,0,0,0,0,0,0,0,0,0,0,0,0,0,0,0,0,0,0,0,0,0,0,0,0,0,0,0,0,0,0,0,0,0,0,0,0,0,0,0,0,0,0,0,0,0,0,0,0,0,0,0,0,0,0,0,0,0,0,0,0,0,0,0,0,0,0,0,0,0,0,0,0,0,0,0,0,0,0,0,0,0,0,0,0,0,0,0,0,0,0,0,0,0,0,0,0,0,0,0,0,0,0,0,0,0,0,0,0,0,0,0,0,0,0,0,0,0,0,0,0,0,0,0,0,0,0,0,0,0,0,0,0,0,0,0,0,0,0,0,0,
0,0,0,0,0,0,0,0,0,0,0,0,0,0,0,0,0,0,0,0,0,0,0,0,0,0,0,0,0,0,0,0,0,0,0,0,0,0,0,0,0,0,0,0,0,0,0,0,0,0,0,0,0,0,0,0,0,0,0,0,0,0,0,0,0,0,0,0,0,0,0,0,0,0,0,0,0,0,0,0,0,0,0,0,0,0,0,0,0,0,0,0,0,0,0,0,0,0,0,0,0,0,0,0,0,0,0,0,0,0,0,0,0,0,0,0,0,0,0,0,0,0,0,0,0,0,0,0,0,0,0,0,0,0,0,0,0,0,0,0,0,0,0,0,0,0,0,0,0,0,0,0,0,0,0,0,0,0,0,0,0,0,0,0,0,0,0,0,0,0,0,0,0,0,0,0,0,0,0,0,0,0,0,0,0,0,0,0,0,0,0,0,0,0,0,0,0,0,0,0,
0,0,0,0,0,0,0,0,0,0,0,0,0,0,0,0,0,0,0,0,0,0,0,0,0,0,0,0,0,0,0,0,0,0,0,0,0,0,0,0,0,0,0,0,0,0,0,0,0,0,0,0,0,0,0,0,0,0,0,0,0,0,0,0,0,0,0,0,0,0,0,0,0,0,0,0,0,0,0,0,0,0,0,0,0,0,0,0,0,0,0,0,0,0,0,0,0,0,0,0,0,0,0,0,0,0,0,0,0,0,0,0,0,0,0,0,0,0,0,0,0,0,0,0,0,0,0,0,0,0,0,0,0,0,0,0,0,0,0,0,0,0,0,0,0,0,0,0,0,0,0,0,0,0,0,0,0,0,0,0,0,0,0,0,0,0,0,0,0,0,0,0,0,0,0,0,0,0,0,0,0,0,0,0,0,0,0,0,0,0,0,0,0,0,0,0,0,0,0,0,
0,0,0,0,0,0,0,0,0,0,0,0,0,0,0,0,0,0,0,0,0,0,0,0,0,0,0,0,0,0,0,0,0,0,0,0,0,0,0,0,0,0,0,0,0,0,0,0,0,0,0,0,0,0,0,0,0,0,0,0,0,0,0,0,0,0,0,0,0,0,0,0,0,0,0,0,0,0,0,0,0,0,0,0,0,0,0,0,0,0,0,0,0,0,0,0,0,0,0,0,0,0,0,0,0,0,0,0,0,0,0,0,0,0,0,0,0,0,0,0,0,0,0,0,0,0,0,0,0,0,0,0,0,0,0,0,0,0,0,0,0,0,0,0,0,0,0,0,0,0,0,0,0,0,0,0,0,0,0,0,0,0,0,0,0,0,0,0,0,0,0,0,0,0,0,0,0,0,0,0,0,0,0,0,0,0,0,0,0,0,0,0,0,0,0,0,0,0,0,0,
0,0,0,0,0,0,0,0,0,0,0,0,0,0,0,0,0,0,0,0,0,0,0,0,0,0,0,0,0,0,0,0,0,0,0,0,0,0,0,0,0,0,0,0,0,0,0,0,0,0,0,0,0,0,0,0,0,0,0,0,0,0,0,0,0,0,0,0,0,0,0,0,0,0,0,0,0,0,0,0,0,0,0,0,0,0,0,0,0,0,0,0,0,0,0,0,0,0,0,0,0,0,0,0,0,0,0,0,0,0,0,0,0,0,0,0,0,0,0,0,0,0,0,0,0,0,0,0,0,0,0,0,0,0,0,0,0,0,0,0,0,0,0,0,0,0,0,0,0,0,0,0,0,0,0,0,0,0,0,0,0,0,0,0,0,0,0,0,0,0,0,0,0,0,0,0,0,0,0,0,0,0,0,0,0,0,0,0,0,0,0,0,0,0,0,0,0,0,0,0,
0,0,0,0,0,0,0,0,0,0,0,0,0,0,0,0,0,0,0,0,0,0,0,0,0,0,0,0,0,0,0,0,0,0,0,0,0,0,0,0,0,0,0,0,0,0,0,0,0,0,0,0,0,0,0,0,0,0,0,0,0,0,0,0,0,0,0,0,0,0,0,0,0,0,0,0,0,0,0,0,0,0,0,0,0,0,0,0,0,0,0,0,0,0,0,0,0,0,0,0,0,0,0,0,0,0,0,0,0,0,0,0,0,0,0,0,0,0,0,0,0,0,0,0,0,0,0,0,0,0,0,0,0,0,0,0,0,0,0,0,0,0,0,0,0,0,0,0,0,0,0,0,0,0,0,0,0,0,0,0,0,0,0,0,0,0,0,0,0,0,0,0,0,0,0,0,0,0,0,0,0,0,0,0,0,0,0,0,0,0,0,0,0,0,0,0,0,0,0,0,
0,0,0,0,0,0,0,0,0,0,0,0,0,0,0,0,0,0,0,0,0,0,0,0,0,0,0,0,0,0,0,0,0,0,0,0,0,0,0,0,0,0,0,0,0,0,0,0,0,0,0,0,0,0,0,0,0,0,0,0,0,0,0,0,0,0,0,0,0,0,0,0,0,0,0,0,0,0,0,0,0,0,0,0,0,0,0,0,0,0,0,0,0,0,0,0,0,0,0,0,0,0,0,0,0,0,0,0,0,0,0,0,0,0,0,0,0,0,0,0,0,0,0,0,0,0,0,0,0,0,0,0,0,0,0,0,0,0,0,0,0,0,0,0,0,0,0,0,0,0,0,0,0,0,0,0,0,0,0,0,0,0,0,0,0,0,0,0,0,0,0,0,0,0,0,0,0,0,0,0,0,0,0,0,0,0,0,0,0,0,0,0,0,0,0,0,0,0,0,0,
0,0,0,0,0,0,0,0,0,0,0,0,0,0,0,0,0,0,0,0,0,0,0,0,0,0,0,0,0,0,0,0,0,0,0,0,0,0,0,0,0,0,0,0,0,0,0,0,0,0,0,0,0,0,0,0,0,0,0,0,0,0,0,0,0,0,0,0,0,0,0,0,0,0,0,0,0,0,0,0,0,0,0,0,0,0,0,0,0,0,0,0,0,0,0,0,0,0,0,0,0,0,0,0,0,0,0,0,0,0,0,0,0,0,0,0,0,0,0,0,0,0,0,0,0,0,0,0,0,0,0,0,0,0,0,0,0,0,0,0,0,0,0,0,0,0,0,0,0,0,0,0,0,0,0,0,0,0,0,0,0,0,0,0,0,0,0,0,0,0,0,0,0,0,0,0,0,0,0,0,0,0,0,0,0,0,0,0,0,0,0,0,0,0,0,0,0,0,0,0,
0,0,0,0,0,0,0,0,0,0,0,0,0,0,0,0,0,0,0,0,0,0,0,0,0,0,0,0,0,0,0,0,0,0,0,0,0,0,0,0,0,0,0,0,0,0,0,0,0,0,0,0,0,0,0,0,0,0,0,0,0,0,0,0,0,0,0,0,0,0,0,0,0,0,0,0,0,0,0,0,0,0,0,0,0,0,0,0,0,0,0,0,0,0,0,0,0,0,0,0,0,0,0,0,0,0,0,0,0,0,0,0,0,0,0,0,0,0,0,0,0,0,0,0,0,0,0,0,0,0,0,0,0,0,0,0,0,0,0,0,0,0,0,0,0,0,0,0,0,0,0,0,0,0,0,0,0,0,0,0,0,0,0,0,0,0,0,0,0,0,0,0,0,0,0,0,0,0,0,0,0,0,0,0,0,0,0,0,0,0,0,0,0,0,0,0,0,0,0,0,
0,0,0,0,0,0,0,0,0,0,0,0,0,0,0,0,0,0,0,0,0,0,0,0,0,0,0,0,0,0,0,0,0,0,0,0,0,0,0,0,0,0,0,0,0,0,0,0,0,0,0,0,0,0,0,0,0,0,0,0,0,0,0,0,0,0,0,0,0,0,0,0,0,0,0,0,0,0,0,0,0,0,0,0,0,0,0,0,0,0,0,0,0,0,0,0,0,0,0,0,0,0,0,0,0,0,0,0,0,0,0,0,0,0,0,0,0,0,0,0,0,0,0,0,0,0,0,0,0,0,0,0,0,0,0,0,0,0,0,0,0,0,0,0,0,0,0,0,0,0,0,0,0,0,0,0,0,0,0,0,0,0,0,0,0,0,0,0,0,0,0,0,0,0,0,0,0,0,0,0,0,0,0,0,0,0,0,0,0,0,0,0,0,0,0,0,0,0,0,0,
0,0,0,0,0,0,0,0,0,0,0,0,0,0,0,0,0,0,0,0,0,0,0,0,0,0,0,0,0,0,0,0,0,0,0,0,0,0,0,0,0,0,0,0,0,0,0,0,0,0,0,0,0,0,0,0,0,0,0,0,0,0,0,0,0,0,0,0,0,0,0,0,0,0,0,0,0,0,0,0,0,0,0,0,0,0,0,0,0,0,0,0,0,0,0,0,0,0,0,0,0,0,0,0,0,0,0,0,0,0,0,0,0,0,0,0,0,0,0,0,0,0,0,0,0,0,0,0,0,0,0,0,0,0,0,0,0,0,0,0,0,0,0,0,0,0,0,0,0,0,0,0,0,0,0,0,0,0,0,0,0,0,0,0,0,0,0,0,0,0,0,0,0,0,0,0,0,0,0,0,0,0,0,0,0,0,0,0,0,0,0,0,0,0,0,0,0,0,0,0,
0,0,0,0,0,0,0,0,0,0,0,0,0,0,0,0,0,0,0,0,0,0,0,0,0,0,0,0,0,0,0,0,0,0,0,0,0,0,0,0,0,0,0,0,0,0,0,0,0,0,0,0,0,0,0,0,0,0,0,0,0,0,0,0,0,0,0,0,0,0,0,0,0,0,0,0,0,0,0,0,0,0,0,0,0,0,0,0,0,0,0,0,0,0,0,0,0,0,0,0,0,0,0,0,0,0,0,0,0,0,0,0,0,0,0,0,0,0,0,0,0,0,0,0,0,0,0,0,0,0,0,0,0,0,0,0,0,0,0,0,0,0,0,0,0,0,0,0,0,0,0,0,0,0,0,0,0,0,0,0,0,0,0,0,0,0,0,0,0,0,0,0,0,0,0,0,0,0,0,0,0,0,0,0,0,0,0,0,0,0,0,0,0,0,0,0,0,0,0,0,
0,0,0,0,0,0,0,0,0,0,0,0,0,0,0,0,0,0,0,0,0,0,0,0,0,0,0,0,0,0,0,0,0,0,0,0,0,0,0,0,0,0,0,0,0,0,0,0,0,0,0,0,0,0,0,0,0,0,0,0,0,0,0,0,0,0,0,0,0,0,0,0,0,0,0,0,0,0,0,0,0,0,0,0,0,0,0,0,0,0,0,0,0,0,0,0,0,0,0,0,0,0,0,0,0,0,0,0,0,0,0,0,0,0,0,0,0,0,0,0,0,0,0,0,0,0,0,0,0,0,0,0,0,0,0,0,0,0,0,0,0,0,0,0,0,0,0,0,0,0,0,0,0,0,0,0,0,0,0,0,0,0,0,0,0,0,0,0,0,0,0,0,0,0,0,0,0,0,0,0,0,0,0,0,0,0,0,0,0,0,0,0,0,0,0,0,0,0,0,0,
0,0,0,0,0,0,0,0,0,0,0,0,0,0,0,0,0,0,0,0,0,0,0,0,0,0,0,0,0,0,0,0,0,0,0,0,0,0,0,0,0,0,0,0,0,0,0,0,0,0,0,0,0,0,0,0,0,0,0,0,0,0,0,0,0,0,0,0,0,0,0,0,0,0,0,0,0,0,0,0,0,0,0,0,0,0,0,0,0,0,0,0,0,0,0,0,0,0,0,0,0,0,0,0,0,0,0,0,0,0,0,0,0,0,0,0,0,0,0,0,0,0,0,0,0,0,0,0,0,0,0,0,0,0,0,0,0,0,0,0,0,0,0,0,0,0,0,0,0,0,0,0,0,0,0,0,0,0,0,0,0,0,0,0,0,0,0,0,0,0,0,0,0,0,0,0,0,0,0,0,0,0,0,0,0,0,0,0,0,0,0,0,0,0,0,0,0,0,0,0,
0,0,0,0,0,0,0,0,0,0,0,0,0,0,0,0,0,0,0,0,0,0,0,0,0,0,0,0,0,0,0,0,0,0,0,0,0,0,0,0,0,0,0,0,0,0,0,0,0,0,0,0,0,0,0,0,0,0,0,0,0,0,0,0,0,0,0,0,0,0,0,0,0,0,0,0,0,0,0,0,0,0,0,0,0,0,0,0,0,0,0,0,0,0,0,0,0,0,0,0,0,0,0,0,0,0,0,0,0,0,0,0,0,0,0,0,0,0,0,0,0,0,0,0,0,0,0,0,0,0,0,0,0,0,0,0,0,0,0,0,0,0,0,0,0,0,0,0,0,0,0,0,0,0,0,0,0,0,0,0,0,0,0,0,0,0,0,0,0,0,0,0,0,0,0,0,0,0,0,0,0,0,0,0,0,0,0,0,0,0,0,0,0,0,0,0,0,0,0,0,
0,0,0,0,0,0,0,0,0,0,0,0,0,0,0,0,0,0,0,0,0,0,0,0,0,0,0,0,0,0,0,0,0,0,0,0,0,0,0,0,0,0,0,0,0,0,0,0,0,0,0,0,0,0,0,0,0,0,0,0,0,0,0,0,0,0,0,0,0,0,0,0,0,0,0,0,0,0,0,0,0,0,0,0,0,0,0,0,0,0,0,0,0,0,0,0,0,0,0,0,0,0,0,0,0,0,0,0,0,0,0,0,0,0,0,0,0,0,0,0,0,0,0,0,0,0,0,0,0,0,0,0,0,0,0,0,0,0,0,0,0,0,0,0,0,0,0,0,0,0,0,0,0,0,0,0,0,0,0,0,0,0,0,0,0,0,0,0,0,0,0,0,0,0,0,0,0,0,0,0,0,0,0,0,0,0,0,0,0,0,0,0,0,0,0,0,0,0,0,0,
0,0,0,0,0,0,0,0,0,0,0,0,0,0,0,0,0,0,0,0,0,0,0,0,0,0,0,0,0,0,0,0,0,0,0,0,0,0,0,0,0,0,0,0,0,0,0,0,0,0,0,0,0,0,0,0,0,0,0,0,0,0,0,0,0,0,0,0,0,0,0,0,0,0,0,0,0,0,0,0,0,0,0,0,0,0,0,0,0,0,0,0,0,0,0,0,0,0,0,0,0,0,0,0,0,0,0,0,0,0,0,0,0,0,0,0,0,0,0,0,0,0,0,0,0,0,0,0,0,0,0,0,0,0,0,0,0,0,0,0,0,0,0,0,0,0,0,0,0,0,0,0,0,0,0,0,0,0,0,0,0,0,0,0,0,0,0,0,0,0,0,0,0,0,0,0,0,0,0,0,0,0,0,0,0,0,0,0,0,0,0,0,0,0,0,0,0,0,0,0,
0,0,0,0,0,0,0,0,0,0,0,0,0,0,0,0,0,0,0,0,0,0,0,0,0,0,0,0,0,0,0,0,0,0,0,0,0,0,0,0,0,0,0,0,0,0,0,0,0,0,0,0,0,0,0,0,0,0,0,0,0,0,0,0,0,0,0,0,0,0,0,0,0,0,0,0,0,0,0,0,0,0,0,0,0,0,0,0,0,0,0,0,0,0,0,0,0,0,0,0,0,0,0,0,0,0,0,0,0,0,0,0,0,0,0,0,0,0,0,0,0,0,0,0,0,0,0,0,0,0,0,0,0,0,0,0,0,0,0,0,0,0,0,0,0,0,0,0,0,0,0,0,0,0,0,0,0,0,0,0,0,0,0,0,0,0,0,0,0,0,0,0,0,0,0,0,0,0,0,0,0,0,0,0,0,0,0,0,0,0,0,0,0,0,0,0,0,0,0,0,
0,0,0,0,0,0,0,0,0,0,0,0,0,0,0,0,0,0,0,0,0,0,0,0,0,0,0,0,0,0,0,0,0,0,0,0,0,0,0,0,0,0,0,0,0,0,0,0,0,0,0,0,0,0,0,0,0,0,0,0,0,0,0,0,0,0,0,0,0,0,0,0,0,0,0,0,0,0,0,0,0,0,0,0,0,0,0,0,0,0,0,0,0,0,0,0,0,0,0,0,0,0,0,0,0,0,0,0,0,0,0,0,0,0,0,0,0,0,0,0,0,0,0,0,0,0,0,0,0,0,0,0,0,0,0,0,0,0,0,0,0,0,0,0,0,0,0,0,0,0,0,0,0,0,0,0,0,0,0,0,0,0,0,0,0,0,0,0,0,0,0,0,0,0,0,0,0,0,0,0,0,0,0,0,0,0,0,0,0,0,0,0,0,0,0,0,0,0,0,0,
0,0,0,0,0,0,0,0,0,0,0,0,0,0,0,0,0,0,0,0,0,0,0,0,0,0,0,0,0,0,0,0,0,0,0,0,0,0,0,0,0,0,0,0,0,0,0,0,0,0,0,0,0,0,0,0,0,0,0,0,0,0,0,0,0,0,0,0,0,0,0,0,0,0,0,0,0,0,0,0,0,0,0,0,0,0,0,0,0,0,0,0,0,0,0,0,0,0,0,0,0,0,0,0,0,0,0,0,0,0,0,0,0,0,0,0,0,0,0,0,0,0,0,0,0,0,0,0,0,0,0,0,0,0,0,0,0,0,0,0,0,0,0,0,0,0,0,0,0,0,0,0,0,0,0,0,0,0,0,0,0,0,0,0,0,0,0,0,0,0,0,0,0,0,0,0,0,0,0,0,0,0,0,0,0,0,0,0,0,0,0,0,0,0,0,0,0,0,0,0,
0,0,0,0,0,0,0,0,0,0,0,0,0,0,0,0,0,0,0,0,0,0,0,0,0,0,0,0,0,0,0,0,0,0,0,0,0,0,0,0,0,0,0,0,0,0,0,0,0,0,0,0,0,0,0,0,0,0,0,0,0,0,0,0,0,0,0,0,0,0,0,0,0,0,0,0,0,0,0,0,0,0,0,0,0,0,0,0,0,0,0,0,0,0,0,0,0,0,0,0,0,0,0,0,0,0,0,0,0,0,0,0,0,0,0,0,0,0,0,0,0,0,0,0,0,0,0,0,0,0,0,0,0,0,0,0,0,0,0,0,0,0,0,0,0,0,0,0,0,0,0,0,0,0,0,0,0,0,0,0,0,0,0,0,0,0,0,0,0,0,0,0,0,0,0,0,0,0,0,0,0,0,0,0,0,0,0,0,0,0,0,0,0,0,0,0,0,0,0,0,
0,0,0,0,0,0,0,0,0,0,0,0,0,0,0,0,0,0,0,0,0,0,0,0,0,0,0,0,0,0,0,0,0,0,0,0,0,0,0,0,0,0,0,0,0,0,0,0,0,0,0,0,0,0,0,0,0,0,0,0,0,0,0,0,0,0,0,0,0,0,0,0,0,0,0,0,0,0,0,0,0,0,0,0,0,0,0,0,0,0,0,0,0,0,0,0,0,0,0,0,0,0,0,0,0,0,0,0,0,0,0,0,0,0,0,0,0,0,0,0,0,0,0,0,0,0,0,0,0,0,0,0,0,0,0,0,0,0,0,0,0,0,0,0,0,0,0,0,0,0,0,0,0,0,0,0,0,0,0,0,0,0,0,0,0,0,0,0,0,0,0,0,0,0,0,0,0,0,0,0,0,0,0,0,0,0,0,0,0,0,0,0,0,0,0,0,0,0,0,0,
0,0,0,0,0,0,0,0,0,0,0,0,0,0,0,0,0,0,0,0,0,0,0,0,0,0,0,0,0,0,0,0,0,0,0,0,0,0,0,0,0,0,0,0,0,0,0,0,0,0,0,0,0,0,0,0,0,0,0,0,0,0,0,0,0,0,0,0,0,0,0,0,0,0,0,0,0,0,0,0,0,0,0,0,0,0,0,0,0,0,0,0,0,0,0,0,0,0,0,0,0,0,0,0,0,0,0,0,0,0,0,0,0,0,0,0,0,0,0,0,0,0,0,0,0,0,0,0,0,0,0,0,0,0,0,0,0,0,0,0,0,0,0,0,0,0,0,0,0,0,0,0,0,0,0,0,0,0,0,0,0,0,0,0,0,0,0,0,0,0,0,0,0,0,0,0,0,0,0,0,0,0,0,0,0,0,0,0,0,0,0,0,0,0,0,0,0,0,0,0,
0,0,0,0,0,0,0,0,0,0,0,0,0,0,0,0,0,0,0,0,0,0,0,0,0,0,0,0,0,0,0,0,0,0,0,0,0,0,0,0,0,0,0,0,0,0,0,0,0,0,0,0,0,0,0,0,0,0,0,0,0,0,0,0,0,0,0,0,0,0,0,0,0,0,0,0,0,0,0,0,0,0,0,0,0,0,0,0,0,0,0,0,0,0,0,0,0,0,0,0,0,0,0,0,0,0,0,0,0,0,0,0,0,0,0,0,0,0,0,0,0,0,0,0,0,0,0,0,0,0,0,0,0,0,0,0,0,0,0,0,0,0,0,0,0,0,0,0,0,0,0,0,0,0,0,0,0,0,0,0,0,0,0,0,0,0,0,0,0,0,0,0,0,0,0,0,0,0,0,0,0,0,0,0,0,0,0,0,0,0,0,0,0,0,0,0,0,0,0,0,
0,0,0,0,0,0,0,0,0,0,0,0,0,0,0,0,0,0,0,0,0,0,0,0,0,0,0,0,0,0,0,0,0,0,0,0,0,0,0,0,0,0,0,0,0,0,0,0,0,0,0,0,0,0,0,0,0,0,0,0,0,0,0,0,0,0,0,0,0,0,0,0,0,0,0,0,0,0,0,0,0,0,0,0,0,0,0,0,0,0,0,0,0,0,0,0,0,0,0,0,0,0,0,0,0,0,0,0,0,0,0,0,0,0,0,0,0,0,0,0,0,0,0,0,0,0,0,0,0,0,0,0,0,0,0,0,0,0,0,0,0,0,0,0,0,0,0,0,0,0,0,0,0,0,0,0,0,0,0,0,0,0,0,0,0,0,0,0,0,0,0,0,0,0,0,0,0,0,0,0,0,0,0,0,0,0,0,0,0,0,0,0,0,0,0,0,0,0,0,0,
0,0,0,0,0,0,0,0,0,0,0,0,0,0,0,0,0,0,0,0,0,0,0,0,0,0,0,0,0,0,0,0,0,0,0,0,0,0,0,0,0,0,0,0,0,0,0,0,0,0,0,0,0,0,0,0,0,0,0,0,0,0,0,0,0,0,0,0,0,0,0,0,0,0,0,0,0,0,0,0,0,0,0,0,0,0,0,0,0,0,0,0,0,0,0,0,0,0,0,0,0,0,0,0,0,0,0,0,0,0,0,0,0,0,0,0,0,0,0,0,0,0,0,0,0,0,0,0,0,0,0,0,0,0,0,0,0,0,0,0,0,0,0,0,0,0,0,0,0,0,0,0,0,0,0,0,0,0,0,0,0,0,0,0,0,0,0,0,0,0,0,0,0,0,0,0,0,0,0,0,0,0,0,0,0,0,0,0,0,0,0,0,0,0,0,0,0,0,0,0,
0,0,0,0,0,0,0,0,0,0,0,0,0,0,0,0,0,0,0,0,0,0,0,0,0,0,0,0,0,0,0,0,0,0,0,0,0,0,0,0,0,0,0,0,0,0,0,0,0,0,0,0,0,0,0,0,0,0,0,0,0,0,0,0,0,0,0,0,0,0,0,0,0,0,0,0,0,0,0,0,0,0,0,0,0,0,0,0,0,0,0,0,0,0,0,0,0,0,0,0,0,0,0,0,0,0,0,0,0,0,0,0,0,0,0,0,0,0,0,0,0,0,0,0,0,0,0,0,0,0,0,0,0,0,0,0,0,0,0,0,0,0,0,0,0,0,0,0,0,0,0,0,0,0,0,0,0,0,0,0,0,0,0,0,0,0,0,0,0,0,0,0,0,0,0,0,0,0,0,0,0,0,0,0,0,0,0,0,0,0,0,0,0,0,0,0,0,0,0,0,
0,0,0,0,0,0,0,0,0,0,0,0,0,0,0,0,0,0,0,0,0,0,0,0,0,0,0,0,0,0,0,0,0,0,0,0,0,0,0,0,0,0,0,0,0,0,0,0,0,0,0,0,0,0,0,0,0,0,0,0,0,0,0,0,0,0,0,0,0,0,0,0,0,0,0,0,0,0,0,0,0,0,0,0,0,0,0,0,0,0,0,0,0,0,0,0,0,0,0,0,0,0,0,0,0,0,0,0,0,0,0,0,0,0,0,0,0,0,0,0,0,0,0,0,0,0,0,0,0,0,0,0,0,0,0,0,0,0,0,0,0,0,0,0,0,0,0,0,0,0,0,0,0,0,0,0,0,0,0,0,0,0,0,0,0,0,0,0,0,0,0,0,0,0,0,0,0,0,0,0,0,0,0,0,0,0,0,0,0,0,0,0,0,0,0,0,0,0,0,0,
0,0,0,0,0,0,0,0,0,0,0,0,0,0,0,0,0,0,0,0,0,0,0,0,0,0,0,0,0,0,0,0,0,0,0,0,0,0,0,0,0,0,0,0,0,0,0,0,0,0,0,0,0,0,0,0,0,0,0,0,0,0,0,0,0,0,0,0,0,0,0,0,0,0,0,0,0,0,0,0,0,0,0,0,0,0,0,0,0,0,0,0,0,0,0,0,0,0,0,0,0,0,0,0,0,0,0,0,0,0,0,0,0,0,0,0,0,0,0,0,0,0,0,0,0,0,0,0,0,0,0,0,0,0,0,0,0,0,0,0,0,0,0,0,0,0,0,0,0,0,0,0,0,0,0,0,0,0,0,0,0,0,0,0,0,0,0,0,0,0,0,0,0,0,0,0,0,0,0,0,0,0,0,0,0,0,0,0,0,0,0,0,0,0,0,0,0,0,0,0,
0,0,0,0,0,0,0,0,0,0,0,0,0,0,0,0,0,0,0,0,0,0,0,0,0,0,0,0,0,0,0,0,0,0,0,0,0,0,0,0,0,0,0,0,0,0,0,0,0,0,0,0,0,0,0,0,0,0,0,0,0,0,0,0,0,0,0,0,0,0,0,0,0,0,0,0,0,0,0,0,0,0,0,0,0,0,0,0,0,0,0,0,0,0,0,0,0,0,0,0,0,0,0,0,0,0,0,0,0,0,0,0,0,0,0,0,0,0,0,0,0,0,0,0,0,0,0,0,0,0,0,0,0,0,0,0,0,0,0,0,0,0,0,0,0,0,0,0,0,0,0,0,0,0,0,0,0,0,0,0,0,0,0,0,0,0,0,0,0,0,0,0,0,0,0,0,0,0,0,0,0,0,0,0,0,0,0,0,0,0,0,0,0,0,0,0,0,0,0,0,
0,0,0,0,0,0,0,0,0,0,0,0,0,0,0,0,0,0,0,0,0,0,0,0,0,0,0,0,0,0,0,0,0,0,0,0,0,0,0,0,0,0,0,0,0,0,0,0,0,0,0,0,0,0,0,0,0,0,0,0,0,0,0,0,0,0,0,0,0,0,0,0,0,0,0,0,0,0,0,0,0,0,0,0,0,0,0,0,0,0,0,0,0,0,0,0,0,0,0,0,0,0,0,0,0,0,0,0,0,0,0,0,0,0,0,0,0,0,0,0,0,0,0,0,0,0,0,0,0,0,0,0,0,0,0,0,0,0,0,0,0,0,0,0,0,0,0,0,0,0,0,0,0,0,0,0,0,0,0,0,0,0,0,0,0,0,0,0,0,0,0,0,0,0,0,0,0,0,0,0,0,0,0,0,0,0,0,0,0,0,0,0,0,0,0,0,0,0,0,0,
0,0,0,0,0,0,0,0,0,0,0,0,0,0,0,0,0,0,0,0,0,0,0,0,0,0,0,0,0,0,0,0,0,0,0,0,0,0,0,0,0,0,0,0,0,0,0,0,0,0,0,0,0,0,0,0,0,0,0,0,0,0,0,0,0,0,0,0,0,0,0,0,0,0,0,0,0,0,0,0,0,0,0,0,0,0,0,0,0,0,0,0,0,0,0,0,0,0,0,0,0,0,0,0,0,0,0,0,0,0,0,0,0,0,0,0,0,0,0,0,0,0,0,0,0,0,0,0,0,0,0,0,0,0,0,0,0,0,0,0,0,0,0,0,0,0,0,0,0,0,0,0,0,0,0,0,0,0,0,0,0,0,0,0,0,0,0,0,0,0,0,0,0,0,0,0,0,0,0,0,0,0,0,0,0,0,0,0,0,0,0,0,0,0,0,0,0,0,0,0,
0,0,0,0,0,0,0,0,0,0,0,0,0,0,0,0,0,0,0,0,0,0,0,0,0,0,0,0,0,0,0,0,0,0,0,0,0,0,0,0,0,0,0,0,0,0,0,0,0,0,0,0,0,0,0,0,0,0,0,0,0,0,0,0,0,0,0,0,0,0,0,0,0,0,0,0,0,0,0,0,0,0,0,0,0,0,0,0,0,0,0,0,0,0,0,0,0,0,0,0,0,0,0,0,0,0,0,0,0,0,0,0,0,0,0,0,0,0,0,0,0,0,0,0,0,0,0,0,0,0,0,0,0,0,0,0,0,0,0,0,0,0,0,0,0,0,0,0,0,0,0,0,0,0,0,0,0,0,0,0,0,0,0,0,0,0,0,0,0,0,0,0,0,0,0,0,0,0,0,0,0,0,0,0,0,0,0,0,0,0,0,0,0,0,0,0,0,0,0,0,
0,0,0,0,0,0,0,0,0,0,0,0,0,0,0,0,0,0,0,0,0,0,0,0,0,0,0,0,0,0,0,0,0,0,0,0,0,0,0,0,0,0,0,0,0,0,0,0,0,0,0,0,0,0,0,0,0,0,0,0,0,0,0,0,0,0,0,0,0,0,0,0,0,0,0,0,0,0,0,0,0,0,0,0,0,0,0,0,0,0,0,0,0,0,0,0,0,0,0,0,0,0,0,0,0,0,0,0,0,0,0,0,0,0,0,0,0,0,0,0,0,0,0,0,0,0,0,0,0,0,0,0,0,0,0,0,0,0,0,0,0,0,0,0,0,0,0,0,0,0,0,0,0,0,0,0,0,0,0,0,0,0,0,0,0,0,0,0,0,0,0,0,0,0,0,0,0,0,0,0,0,0,0,0,0,0,0,0,0,0,0,0,0,0,0,0,0,0,0,0,
0,0,0,0,0,0,0,0,0,0,0,0,0,0,0,0,0,0,0,0,0,0,0,0,0,0,0,0,0,0,0,0,0,0,0,0,0,0,0,0,0,0,0,0,0,0,0,0,0,0,0,0,0,0,0,0,0,0,0,0,0,0,0,0,0,0,0,0,0,0,0,0,0,0,0,0,0,0,0,0,0,0,0,0,0,0,0,0,0,0,0,0,0,0,0,0,0,0,0,0,0,0,0,0,0,0,0,0,0,0,0,0,0,0,0,0,0,0,0,0,0,0,0,0,0,0,0,0,0,0,0,0,0,0,0,0,0,0,0,0,0,0,0,0,0,0,0,0,0,0,0,0,0,0,0,0,0,0,0,0,0,0,0,0,0,0,0,0,0,0,0,0,0,0,0,0,0,0,0,0,0,0,0,0,0,0,0,0,0,0,0,0,0,0,0,0,0,0,0,0,
0,0,0,0,0,0,0,0,0,0,0,0,0,0,0,0,0,0,0,0,0,0,0,0,0,0,0,0,0,0,0,0,0,0,0,0,0,0,0,0,0,0,0,0,0,0,0,0,0,0,0,0,0,0,0,0,0,0,0,0,0,0,0,0,0,0,0,0,0,0,0,0,0,0,0,0,0,0,0,0,0,0,0,0,0,0,0,0,0,0,0,0,0,0,0,0,0,0,0,0,0,0,0,0,0,0,0,0,0,0,0,0,0,0,0,0,0,0,0,0,0,0,0,0,0,0,0,0,0,0,0,0,0,0,0,0,0,0,0,0,0,0,0,0,0,0,0,0,0,0,0,0,0,0,0,0,0,0,0,0,0,0,0,0,0,0,0,0,0,0,0,0,0,0,0,0,0,0,0,0,0,0,0,0,0,0,0,0,0,0,0,0,0,0,0,0,0,0,0,0,
0,0,0,0,0,0,0,0,0,0,0,0,0,0,0,0,0,0,0,0,0,0,0,0,0,0,0,0,0,0,0,0,0,0,0,0,0,0,0,0,0,0,0,0,0,0,0,0,0,0,0,0,0,0,0,0,0,0,0,0,0,0,0,0,0,0,0,0,0,0,0,0,0,0,0,0,0,0,0,0,0,0,0,0,0,0,0,0,0,0,0,0,0,0,0,0,0,0,0,0,0,0,0,0,0,0,0,0,0,0,0,0,0,0,0,0,0,0,0,0,0,0,0,0,0,0,0,0,0,0,0,0,0,0,0,0,0,0,0,0,0,0,0,0,0,0,0,0,0,0,0,0,0,0,0,0,0,0,0,0,0,0,0,0,0,0,0,0,0,0,0,0,0,0,0,0,0,0,0,0,0,0,0,0,0,0,0,0,0,0,0,0,0,0,0,0,0,0,0,0,
0,0,0,0,0,0,0,0,0,0,0,0,0,0,0,0,0,0,0,0,0,0,0,0,0,0,0,0,0,0,0,0,0,0,0,0,0,0,0,0,0,0,0,0,0,0,0,0,0,0,0,0,0,0,0,0,0,0,0,0,0,0,0,0,0,0,0,0,0,0,0,0,0,0,0,0,0,0,0,0,0,0,0,0,0,0,0,0,0,0,0,0,0,0,0,0,0,0,0,0,0,0,0,0,0,0,0,0,0,0,0,0,0,0,0,0,0,0,0,0,0,0,0,0,0,0,0,0,0,0,0,0,0,0,0,0,0,0,0,0,0,0,0,0,0,0,0,0,0,0,0,0,0,0,0,0,0,0,0,0,0,0,0,0,0,0,0,0,0,0,0,0,0,0,0,0,0,0,0,0,0,0,0,0,0,0,0,0,0,0,0,0,0,0,0,0,0,0,0,0,
0,0,0,0,0,0,0,0,0,0,0,0,0,0,0,0,0,0,0,0,0,0,0,0,0,0,0,0,0,0,0,0,0,0,0,0,0,0,0,0,0,0,0,0,0,0,0,0,0,0,0,0,0,0,0,0,0,0,0,0,0,0,0,0,0,0,0,0,0,0,0,0,0,0,0,0,0,0,0,0,0,0,0,0,0,0,0,0,0,0,0,0,0,0,0,0,0,0,0,0,0,0,0,0,0,0,0,0,0,0,0,0,0,0,0,0,0,0,0,0,0,0,0,0,0,0,0,0,0,0,0,0,0,0,0,0,0,0,0,0,0,0,0,0,0,0,0,0,0,0,0,0,0,0,0,0,0,0,0,0,0,0,0,0,0,0,0,0,0,0,0,0,0,0,0,0,0,0,0,0,0,0,0,0,0,0,0,0,0,0,0,0,0,0,0,0,0,0,0,0,
0,0,0,0,0,0,0,0,0,0,0,0,0,0,0,0,0,0,0,0,0,0,0,0,0,0,0,0,0,0,0,0,0,0,0,0,0,0,0,0,0,0,0,0,0,0,0,0,0,0,0,0,0,0,0,0,0,0,0,0,0,0,0,0,0,0,0,0,0,0,0,0,0,0,0,0,0,0,0,0,0,0,0,0,0,0,0,0,0,0,0,0,0,0,0,0,0,0,0,0,0,0,0,0,0,0,0,0,0,0,0,0,0,0,0,0,0,0,0,0,0,0,0,0,0,0,0,0,0,0,0,0,0,0,0,0,0,0,0,0,0,0,0,0,0,0,0,0,0,0,0,0,0,0,0,0,0,0,0,0,0,0,0,0,0,0,0,0,0,0,0,0,0,0,0,0,0,0,0,0,0,0,0,0,0,0,0,0,0,0,0,0,0,0,0,0,0,0,0,0,
0,0,0,0,0,0,0,0,0,0,0,0,0,0,0,0,0,0,0,0,0,0,0,0,0,0,0,0,0,0,0,0,0,0,0,0,0,0,0,0,0,0,0,0,0,0,0,0,0,0,0,0,0,0,0,0,0,0,0,0,0,0,0,0,0,0,0,0,0,0,0,0,0,0,0,0,0,0,0,0,0,0,0,0,0,0,0,0,0,0,0,0,0,0,0,0,0,0,0,0,0,0,0,0,0,0,0,0,0,0,0,0,0,0,0,0,0,0,0,0,0,0,0,0,0,0,0,0,0,0,0,0,0,0,0,0,0,0,0,0,0,0,0,0,0,0,0,0,0,0,0,0,0,0,0,0,0,0,0,0,0,0,0,0,0,0,0,0,0,0,0,0,0,0,0,0,0,0,0,0,0,0,0,0,0,0,0,0,0,0,0,0,0,0,0,0,0,0,0,0,
0,0,0,0,0,0,0,0,0,0,0,0,0,0,0,0,0,0,0,0,0,0,0,0,0,0,0,0,0,0,0,0,0,0,0,0,0,0,0,0,0,0,0,0,0,0,0,0,0,0,0,0,0,0,0,0,0,0,0,0,0,0,0,0,0,0,0,0,0,0,0,0,0,0,0,0,0,0,0,0,0,0,0,0,0,0,0,0,0,0,0,0,0,0,0,0,0,0,0,0,0,0,0,0,0,0,0,0,0,0,0,0,0,0,0,0,0,0,0,0,0,0,0,0,0,0,0,0,0,0,0,0,0,0,0,0,0,0,0,0,0,0,0,0,0,0,0,0,0,0,0,0,0,0,0,0,0,0,0,0,0,0,0,0,0,0,0,0,0,0,0,0,0,0,0,0,0,0,0,0,0,0,0,0,0,0,0,0,0,0,0,0,0,0,0,0,0,0,0,0,
0,0,0,0,0,0,0,0,0,0,0,0,0,0,0,0,0,0,0,0,0,0,0,0,0,0,0,0,0,0,0,0,0,0,0,0,0,0,0,0,0,0,0,0,0,0,0,0,0,0,0,0,0,0,0,0,0,0,0,0,0,0,0,0,0,0,0,0,0,0,0,0,0,0,0,0,0,0,0,0,0,0,0,0,0,0,0,0,0,0,0,0,0,0,0,0,0,0,0,0,0,0,0,0,0,0,0,0,0,0,0,0,0,0,0,0,0,0,0,0,0,0,0,0,0,0,0,0,0,0,0,0,0,0,0,0,0,0,0,0,0,0,0,0,0,0,0,0,0,0,0,0,0,0,0,0,0,0,0,0,0,0,0,0,0,0,0,0,0,0,0,0,0,0,0,0,0,0,0,0,0,0,0,0,0,0,0,0,0,0,0,0,0,0,0,0,0,0,0,0,
0,0,0,0,0,0,0,0,0,0,0,0,0,0,0,0,0,0,0,0,0,0,0,0,0,0,0,0,0,0,0,0,0,0,0,0,0,0,0,0,0,0,0,0,0,0,0,0,0,0,0,0,0,0,0,0,0,0,0,0,0,0,0,0,0,0,0,0,0,0,0,0,0,0,0,0,0,0,0,0,0,0,0,0,0,0,0,0,0,0,0,0,0,0,0,0,0,0,0,0,0,0,0,0,0,0,0,0,0,0,0,0,0,0,0,0,0,0,0,0,0,0,0,0,0,0,0,0,0,0,0,0,0,0,0,0,0,0,0,0,0,0,0,0,0,0,0,0,0,0,0,0,0,0,0,0,0,0,0,0,0,0,0,0,0,0,0,0,0,0,0,0,0,0,0,0,0,0,0,0,0,0,0,0,0,0,0,0,0,0,0,0,0,0,0,0,0,0,0,0,
0,0,0,0,0,0,0,0,0,0,0,0,0,0,0,0,0,0,0,0,0,0,0,0,0,0,0,0,0,0,0,0,0,0,0,0,0,0,0,0,0,0,0,0,0,0,0,0,0,0,0,0,0,0,0,0,0,0,0,0,0,0,0,0,0,0,0,0,0,0,0,0,0,0,0,0,0,0,0,0,0,0,0,0,0,0,0,0,0,0,0,0,0,0,0,0,0,0,0,0,0,0,0,0,0,0,0,0,0,0,0,0,0,0,0,0,0,0,0,0,0,0,0,0,0,0,0,0,0,0,0,0,0,0,0,0,0,0,0,0,0,0,0,0,0,0,0,0,0,0,0,0,0,0,0,0,0,0,0,0,0,0,0,0,0,0,0,0,0,0,0,0,0,0,0,0,0,0,0,0,0,0,0,0,0,0,0,0,0,0,0,0,0,0,0,0,0,0,0,0,
0,0,0,0,0,0,0,0,0,0,0,0,0,0,0,0,0,0,0,0,0,0,0,0,0,0,0,0,0,0,0,0,0,0,0,0,0,0,0,0,0,0,0,0,0,0,0,0,0,0,0,0,0,0,0,0,0,0,0,0,0,0,0,0,0,0,0,0,0,0,0,0,0,0,0,0,0,0,0,0,0,0,0,0,0,0,0,0,0,0,0,0,0,0,0,0,0,0,0,0,0,0,0,0,0,0,0,0,0,0,0,0,0,0,0,0,0,0,0,0,0,0,0,0,0,0,0,0,0,0,0,0,0,0,0,0,0,0,0,0,0,0,0,0,0,0,0,0,0,0,0,0,0,0,0,0,0,0,0,0,0,0,0,0,0,0,0,0,0,0,0,0,0,0,0,0,0,0,0,0,0,0,0,0,0,0,0,0,0,0,0,0,0,0,0,0,0,0,0,0,
0,0,0,0,0,0,0,0,0,0,0,0,0,0,0,0,0,0,0,0,0,0,0,0,0,0,0,0,0,0,0,0,0,0,0,0,0,0,0,0,0,0,0,0,0,0,0,0,0,0,0,0,0,0,0,0,0,0,0,0,0,0,0,0,0,0,0,0,0,0,0,0,0,0,0,0,0,0,0,0,0,0,0,0,0,0,0,0,0,0,0,0,0,0,0,0,0,0,0,0,0,0,0,0,0,0,0,0,0,0,0,0,0,0,0,0,0,0,0,0,0,0,0,0,0,0,0,0,0,0,0,0,0,0,0,0,0,0,0,0,0,0,0,0,0,0,0,0,0,0,0,0,0,0,0,0,0,0,0,0,0,0,0,0,0,0,0,0,0,0,0,0,0,0,0,0,0,0,0,0,0,0,0,0,0,0,0,0,0,0,0,0,0,0,0,0,0,0,0,0,
0,0,0,0,0,0,0,0,0,0,0,0,0,0,0,0,0,0,0,0,0,0,0,0,0,0,0,0,0,0,0,0,0,0,0,0,0,0,0,0,0,0,0,0,0,0,0,0,0,0,0,0,0,0,0,0,0,0,0,0,0,0,0,0,0,0,0,0,0,0,0,0,0,0,0,0,0,0,0,0,0,0,0,0,0,0,0,0,0,0,0,0,0,0,0,0,0,0,0,0,0,0,0,0,0,0,0,0,0,0,0,0,0,0,0,0,0,0,0,0,0,0,0,0,0,0,0,0,0,0,0,0,0,0,0,0,0,0,0,0,0,0,0,0,0,0,0,0,0,0,0,0,0,0,0,0,0,0,0,0,0,0,0,0,0,0,0,0,0,0,0,0,0,0,0,0,0,0,0,0,0,0,0,0,0,0,0,0,0,0,0,0,0,0,0,0,0,0,0,0,
0,0,0,0,0,0,0,0,0,0,0,0,0,0,0,0,0,0,0,0,0,0,0,0,0,0,0,0,0,0,0,0,0,0,0,0,0,0,0,0,0,0,0,0,0,0,0,0,0,0,0,0,0,0,0,0,0,0,0,0,0,0,0,0,0,0,0,0,0,0,0,0,0,0,0,0,0,0,0,0,0,0,0,0,0,0,0,0,0,0,0,0,0,0,0,0,0,0,0,0,0,0,0,0,0,0,0,0,0,0,0,0,0,0,0,0,0,0,0,0,0,0,0,0,0,0,0,0,0,0,0,0,0,0,0,0,0,0,0,0,0,0,0,0,0,0,0,0,0,0,0,0,0,0,0,0,0,0,0,0,0,0,0,0,0,0,0,0,0,0,0,0,0,0,0,0,0,0,0,0,0,0,0,0,0,0,0,0,0,0,0,0,0,0,0,0,0,0,0,0,
0,0,0,0,0,0,0,0,0,0,0,0,0,0,0,0,0,0,0,0,0,0,0,0,0,0,0,0,0,0,0,0,0,0,0,0,0,0,0,0,0,0,0,0,0,0,0,0,0,0,0,0,0,0,0,0,0,0,0,0,0,0,0,0,0,0,0,0,0,0,0,0,0,0,0,0,0,0,0,0,0,0,0,0,0,0,0,0,0,0,0,0,0,0,0,0,0,0,0,0,0,0,0,0,0,0,0,0,0,0,0,0,0,0,0,0,0,0,0,0,0,0,0,0,0,0,0,0,0,0,0,0,0,0,0,0,0,0,0,0,0,0,0,0,0,0,0,0,0,0,0,0,0,0,0,0,0,0,0,0,0,0,0,0,0,0,0,0,0,0,0,0,0,0,0,0,0,0,0,0,0,0,0,0,0,0,0,0,0,0,0,0,0,0,0,0,0,0,0,0,
0,0,0,0,0,0,0,0,0,0,0,0,0,0,0,0,0,0,0,0,0,0,0,0,0,0,0,0,0,0,0,0,0,0,0,0,0,0,0,0,0,0,0,0,0,0,0,0,0,0,0,0,0,0,0,0,0,0,0,0,0,0,0,0,0,0,0,0,0,0,0,0,0,0,0,0,0,0,0,0,0,0,0,0,0,0,0,0,0,0,0,0,0,0,0,0,0,0,0,0,0,0,0,0,0,0,0,0,0,0,0,0,0,0,0,0,0,0,0,0,0,0,0,0,0,0,0,0,0,0,0,0,0,0,0,0,0,0,0,0,0,0,0,0,0,0,0,0,0,0,0,0,0,0,0,0,0,0,0,0,0,0,0,0,0,0,0,0,0,0,0,0,0,0,0,0,0,0,0,0,0,0,0,0,0,0,0,0,0,0,0,0,0,0,0,0,0,0,0,0,
0,0,0,0,0,0,0,0,0,0,0,0,0,0,0,0,0,0,0,0,0,0,0,0,0,0,0,0,0,0,0,0,0,0,0,0,0,0,0,0,0,0,0,0,0,0,0,0,0,0,0,0,0,0,0,0,0,0,0,0,0,0,0,0,0,0,0,0,0,0,0,0,0,0,0,0,0,0,0,0,0,0,0,0,0,0,0,0,0,0,0,0,0,0,0,0,0,0,0,0,0,0,0,0,0,0,0,0,0,0,0,0,0,0,0,0,0,0,0,0,0,0,0,0,0,0,0,0,0,0,0,0,0,0,0,0,0,0,0,0,0,0,0,0,0,0,0,0,0,0,0,0,0,0,0,0,0,0,0,0,0,0,0,0,0,0,0,0,0,0,0,0,0,0,0,0,0,0,0,0,0,0,0,0,0,0,0,0,0,0,0,0,0,0,0,0,0,0,0,0,
0,0,0,0,0,0,0,0,0,0,0,0,0,0,0,0,0,0,0,0,0,0,0,0,0,0,0,0,0,0,0,0,0,0,0,0,0,0,0,0,0,0,0,0,0,0,0,0,0,0,0,0,0,0,0,0,0,0,0,0,0,0,0,0,0,0,0,0,0,0,0,0,0,0,0,0,0,0,0,0,0,0,0,0,0,0,0,0,0,0,0,0,0,0,0,0,0,0,0,0,0,0,0,0,0,0,0,0,0,0,0,0,0,0,0,0,0,0,0,0,0,0,0,0,0,0,0,0,0,0,0,0,0,0,0,0,0,0,0,0,0,0,0,0,0,0,0,0,0,0,0,0,0,0,0,0,0,0,0,0,0,0,0,0,0,0,0,0,0,0,0,0,0,0,0,0,0,0,0,0,0,0,0,0,0,0,0,0,0,0,0,0,0,0,0,0,0,0,0,0,
0,0,0,0,0,0,0,0,0,0,0,0,0,0,0,0,0,0,0,0,0,0,0,0,0,0,0,0,0,0,0,0,0,0,0,0,0,0,0,0,0,0,0,0,0,0,0,0,0,0,0,0,0,0,0,0,0,0,0,0,0,0,0,0,0,0,0,0,0,0,0,0,0,0,0,0,0,0,0,0,0,0,0,0,0,0,0,0,0,0,0,0,0,0,0,0,0,0,0,0,0,0,0,0,0,0,0,0,0,0,0,0,0,0,0,0,0,0,0,0,0,0,0,0,0,0,0,0,0,0,0,0,0,0,0,0,0,0,0,0,0,0,0,0,0,0,0,0,0,0,0,0,0,0,0,0,0,0,0,0,0,0,0,0,0,0,0,0,0,0,0,0,0,0,0,0,0,0,0,0,0,0,0,0,0,0,0,0,0,0,0,0,0,0,0,0,0,0,0,0,
0,0,0,0,0,0,0,0,0,0,0,0,0,0,0,0,0,0,0,0,0,0,0,0,0,0,0,0,0,0,0,0,0,0,0,0,0,0,0,0,0,0,0,0,0,0,0,0,0,0,0,0,0,0,0,0,0,0,0,0,0,0,0,0,0,0,0,0,0,0,0,0,0,0,0,0,0,0,0,0,0,0,0,0,0,0,0,0,0,0,0,0,0,0,0,0,0,0,0,0,0,0,0,0,0,0,0,0,0,0,0,0,0,0,0,0,0,0,0,0,0,0,0,0,0,0,0,0,0,0,0,0,0,0,0,0,0,0,0,0,0,0,0,0,0,0,0,0,0,0,0,0,0,0,0,0,0,0,0,0,0,0,0,0,0,0,0,0,0,0,0,0,0,0,0,0,0,0,0,0,0,0,0,0,0,0,0,0,0,0,0,0,0,0,0,0,0,0,0,0,
0,0,0,0,0,0,0,0,0,0,0,0,0,0,0,0,0,0,0,0,0,0,0,0,0,0,0,0,0,0,0,0,0,0,0,0,0,0,0,0,0,0,0,0,0,0,0,0,0,0,0,0,0,0,0,0,0,0,0,0,0,0,0,0,0,0,0,0,0,0,0,0,0,0,0,0,0,0,0,0,0,0,0,0,0,0,0,0,0,0,0,0,0,0,0,0,0,0,0,0,0,0,0,0,0,0,0,0,0,0,0,0,0,0,0,0,0,0,0,0,0,0,0,0,0,0,0,0,0,0,0,0,0,0,0,0,0,0,0,0,0,0,0,0,0,0,0,0,0,0,0,0,0,0,0,0,0,0,0,0,0,0,0,0,0,0,0,0,0,0,0,0,0,0,0,0,0,0,0,0,0,0,0,0,0,0,0,0,0,0,0,0,0,0,0,0,0,0,0,0,
0,0,0,0,0,0,0,0,0,0,0,0,0,0,0,0,0,0,0,0,0,0,0,0,0,0,0,0,0,0,0,0,0,0,0,0,0,0,0,0,0,0,0,0,0,0,0,0,0,0,0,0,0,0,0,0,0,0,0,0,0,0,0,0,0,0,0,0,0,0,0,0,0,0,0,0,0,0,0,0,0,0,0,0,0,0,0,0,0,0,0,0,0,0,0,0,0,0,0,0,0,0,0,0,0,0,0,0,0,0,0,0,0,0,0,0,0,0,0,0,0,0,0,0,0,0,0,0,0,0,0,0,0,0,0,0,0,0,0,0,0,0,0,0,0,0,0,0,0,0,0,0,0,0,0,0,0,0,0,0,0,0,0,0,0,0,0,0,0,0,0,0,0,0,0,0,0,0,0,0,0,0,0,0,0,0,0,0,0,0,0,0,0,0,0,0,0,0,0,0,
0,0,0,0,0,0,0,0,0,0,0,0,0,0,0,0,0,0,0,0,0,0,0,0,0,0,0,0,0,0,0,0,0,0,0,0,0,0,0,0,0,0,0,0,0,0,0,0,0,0,0,0,0,0,0,0,0,0,0,0,0,0,0,0,0,0,0,0,0,0,0,0,0,0,0,0,0,0,0,0,0,0,0,0,0,0,0,0,0,0,0,0,0,0,0,0,0,0,0,0,0,0,0,0,0,0,0,0,0,0,0,0,0,0,0,0,0,0,0,0,0,0,0,0,0,0,0,0,0,0,0,0,0,0,0,0,0,0,0,0,0,0,0,0,0,0,0,0,0,0,0,0,0,0,0,0,0,0,0,0,0,0,0,0,0,0,0,0,0,0,0,0,0,0,0,0,0,0,0,0,0,0,0,0,0,0,0,0,0,0,0,0,0,0,0,0,0,0,0,0,
0,0,0,0,0,0,0,0,0,0,0,0,0,0,0,0,0,0,0,0,0,0,0,0,0,0,0,0,0,0,0,0,0,0,0,0,0,0,0,0,0,0,0,0,0,0,0,0,0,0,0,0,0,0,0,0,0,0,0,0,0,0,0,0,0,0,0,0,0,0,0,0,0,0,0,0,0,0,0,0,0,0,0,0,0,0,0,0,0,0,0,0,0,0,0,0,0,0,0,0,0,0,0,0,0,0,0,0,0,0,0,0,0,0,0,0,0,0,0,0,0,0,0,0,0,0,0,0,0,0,0,0,0,0,0,0,0,0,0,0,0,0,0,0,0,0,0,0,0,0,0,0,0,0,0,0,0,0,0,0,0,0,0,0,0,0,0,0,0,0,0,0,0,0,0,0,0,0,0,0,0,0,0,0,0,0,0,0,0,0,0,0,0,0,0,0,0,0,0,0,
0,0,0,0,0,0,0,0,0,0,0,0,0,0,0,0,0,0,0,0,0,0,0,0,0,0,0,0,0,0,0,0,0,0,0,0,0,0,0,0,0,0,0,0,0,0,0,0,0,0,0,0,0,0,0,0,0,0,0,0,0,0,0,0,0,0,0,0,0,0,0,0,0,0,0,0,0,0,0,0,0,0,0,0,0,0,0,0,0,0,0,0,0,0,0,0,0,0,0,0,0,0,0,0,0,0,0,0,0,0,0,0,0,0,0,0,0,0,0,0,0,0,0,0,0,0,0,0,0,0,0,0,0,0,0,0,0,0,0,0,0,0,0,0,0,0,0,0,0,0,0,0,0,0,0,0,0,0,0,0,0,0,0,0,0,0,0,0,0,0,0,0,0,0,0,0,0,0,0,0,0,0,0,0,0,0,0,0,0,0,0,0,0,0,0,0,0,0,0,0,
0,0,0,0,0,0,0,0,0,0,0,0,0,0,0,0,0,0,0,0,0,0,0,0,0,0,0,0,0,0,0,0,0,0,0,0,0,0,0,0,0,0,0,0,0,0,0,0,0,0,0,0,0,0,0,0,0,0,0,0,0,0,0,0,0,0,0,0,0,0,0,0,0,0,0,0,0,0,0,0,0,0,0,0,0,0,0,0,0,0,0,0,0,0,0,0,0,0,0,0,0,0,0,0,0,0,0,0,0,0,0,0,0,0,0,0,0,0,0,0,0,0,0,0,0,0,0,0,0,0,0,0,0,0,0,0,0,0,0,0,0,0,0,0,0,0,0,0,0,0,0,0,0,0,0,0,0,0,0,0,0,0,0,0,0,0,0,0,0,0,0,0,0,0,0,0,0,0,0,0,0,0,0,0,0,0,0,0,0,0,0,0,0,0,0,0,0,0,0,0,
0,0,0,0,0,0,0,0,0,0,0,0,0,0,0,0,0,0,0,0,0,0,0,0,0,0,0,0,0,0,0,0,0,0,0,0,0,0,0,0,0,0,0,0,0,0,0,0,0,0,0,0,0,0,0,0,0,0,0,0,0,0,0,0,0,0,0,0,0,0,0,0,0,0,0,0,0,0,0,0,0,0,0,0,0,0,0,0,0,0,0,0,0,0,0,0,0,0,0,0,0,0,0,0,0,0,0,0,0,0,0,0,0,0,0,0,0,0,0,0,0,0,0,0,0,0,0,0,0,0,0,0,0,0,0,0,0,0,0,0,0,0,0,0,0,0,0,0,0,0,0,0,0,0,0,0,0,0,0,0,0,0,0,0,0,0,0,0,0,0,0,0,0,0,0,0,0,0,0,0,0,0,0,0,0,0,0,0,0,0,0,0,0,0,0,0,0,0,0,0,
0,0,0,0,0,0,0,0,0,0,0,0,0,0,0,0,0,0,0,0,0,0,0,0,0,0,0,0,0,0,0,0,0,0,0,0,0,0,0,0,0,0,0,0,0,0,0,0,0,0,0,0,0,0,0,0,0,0,0,0,0,0,0,0,0,0,0,0,0,0,0,0,0,0,0,0,0,0,0,0,0,0,0,0,0,0,0,0,0,0,0,0,0,0,0,0,0,0,0,0,0,0,0,0,0,0,0,0,0,0,0,0,0,0,0,0,0,0,0,0,0,0,0,0,0,0,0,0,0,0,0,0,0,0,0,0,0,0,0,0,0,0,0,0,0,0,0,0,0,0,0,0,0,0,0,0,0,0,0,0,0,0,0,0,0,0,0,0,0,0,0,0,0,0,0,0,0,0,0,0,0,0,0,0,0,0,0,0,0,0,0,0,0,0,0,0,0,0,0,0,
0,0,0,0,0,0,0,0,0,0,0,0,0,0,0,0,0,0,0,0,0,0,0,0,0,0,0,0,0,0,0,0,0,0,0,0,0,0,0,0,0,0,0,0,0,0,0,0,0,0,0,0,0,0,0,0,0,0,0,0,0,0,0,0,0,0,0,0,0,0,0,0,0,0,0,0,0,0,0,0,0,0,0,0,0,0,0,0,0,0,0,0,0,0,0,0,0,0,0,0,0,0,0,0,0,0,0,0,0,0,0,0,0,0,0,0,0,0,0,0,0,0,0,0,0,0,0,0,0,0,0,0,0,0,0,0,0,0,0,0,0,0,0,0,0,0,0,0,0,0,0,0,0,0,0,0,0,0,0,0,0,0,0,0,0,0,0,0,0,0,0,0,0,0,0,0,0,0,0,0,0,0,0,0,0,0,0,0,0,0,0,0,0,0,0,0,0,0,0,0,
0,0,0,0,0,0,0,0,0,0,0,0,0,0,0,0,0,0,0,0,0,0,0,0,0,0,0,0,0,0,0,0,0,0,0,0,0,0,0,0,0,0,0,0,0,0,0,0,0,0,0,0,0,0,0,0,0,0,0,0,0,0,0,0,0,0,0,0,0,0,0,0,0,0,0,0,0,0,0,0,0,0,0,0,0,0,0,0,0,0,0,0,0,0,0,0,0,0,0,0,0,0,0,0,0,0,0,0,0,0,0,0,0,0,0,0,0,0,0,0,0,0,0,0,0,0,0,0,0,0,0,0,0,0,0,0,0,0,0,0,0,0,0,0,0,0,0,0,0,0,0,0,0,0,0,0,0,0,0,0,0,0,0,0,0,0,0,0,0,0,0,0,0,0,0,0,0,0,0,0,0,0,0,0,0,0,0,0,0,0,0,0,0,0,0,0,0,0,0,0,
0,0,0,0,0,0,0,0,0,0,0,0,0,0,0,0,0,0,0,0,0,0,0,0,0,0,0,0,0,0,0,0,0,0,0,0,0,0,0,0,0,0,0,0,0,0,0,0,0,0,0,0,0,0,0,0,0,0,0,0,0,0,0,0,0,0,0,0,0,0,0,0,0,0,0,0,0,0,0,0,0,0,0,0,0,0,0,0,0,0,0,0,0,0,0,0,0,0,0,0,0,0,0,0,0,0,0,0,0,0,0,0,0,0,0,0,0,0,0,0,0,0,0,0,0,0,0,0,0,0,0,0,0,0,0,0,0,0,0,0,0,0,0,0,0,0,0,0,0,0,0,0,0,0,0,0,0,0,0,0,0,0,0,0,0,0,0,0,0,0,0,0,0,0,0,0,0,0,0,0,0,0,0,0,0,0,0,0,0,0,0,0,0,0,0,0,0,0,0,0,
0,0,0,0,0,0,0,0,0,0,0,0,0,0,0,0,0,0,0,0,0,0,0,0,0,0,0,0,0,0,0,0,0,0,0,0,0,0,0,0,0,0,0,0,0,0,0,0,0,0,0,0,0,0,0,0,0,0,0,0,0,0,0,0,0,0,0,0,0,0,0,0,0,0,0,0,0,0,0,0,0,0,0,0,0,0,0,0,0,0,0,0,0,0,0,0,0,0,0,0,0,0,0,0,0,0,0,0,0,0,0,0,0,0,0,0,0,0,0,0,0,0,0,0,0,0,0,0,0,0,0,0,0,0,0,0,0,0,0,0,0,0,0,0,0,0,0,0,0,0,0,0,0,0,0,0,0,0,0,0,0,0,0,0,0,0,0,0,0,0,0,0,0,0,0,0,0,0,0,0,0,0,0,0,0,0,0,0,0,0,0,0,0,0,0,0,0,0,0,0,
0,0,0,0,0,0,0,0,0,0,0,0,0,0,0,0,0,0,0,0,0,0,0,0,0,0,0,0,0,0,0,0,0,0,0,0,0,0,0,0,0,0,0,0,0,0,0,0,0,0,0,0,0,0,0,0,0,0,0,0,0,0,0,0,0,0,0,0,0,0,0,0,0,0,0,0,0,0,0,0,0,0,0,0,0,0,0,0,0,0,0,0,0,0,0,0,0,0,0,0,0,0,0,0,0,0,0,0,0,0,0,0,0,0,0,0,0,0,0,0,0,0,0,0,0,0,0,0,0,0,0,0,0,0,0,0,0,0,0,0,0,0,0,0,0,0,0,0,0,0,0,0,0,0,0,0,0,0,0,0,0,0,0,0,0,0,0,0,0,0,0,0,0,0,0,0,0,0,0,0,0,0,0,0,0,0,0,0,0,0,0,0,0,0,0,0,0,0,0,0,
0,0,0,0,0,0,0,0,0,0,0,0,0,0,0,0,0,0,0,0,0,0,0,0,0,0,0,0,0,0,0,0,0,0,0,0,0,0,0,0,0,0,0,0,0,0,0,0,0,0,0,0,0,0,0,0,0,0,0,0,0,0,0,0,0,0,0,0,0,0,0,0,0,0,0,0,0,0,0,0,0,0,0,0,0,0,0,0,0,0,0,0,0,0,0,0,0,0,0,0,0,0,0,0,0,0,0,0,0,0,0,0,0,0,0,0,0,0,0,0,0,0,0,0,0,0,0,0,0,0,0,0,0,0,0,0,0,0,0,0,0,0,0,0,0,0,0,0,0,0,0,0,0,0,0,0,0,0,0,0,0,0,0,0,0,0,0,0,0,0,0,0,0,0,0,0,0,0,0,0,0,0,0,0,0,0,0,0,0,0,0,0,0,0,0,0,0,0,0,0,
0,0,0,0,0,0,0,0,0,0,0,0,0,0,0,0,0,0,0,0,0,0,0,0,0,0,0,0,0,0,0,0,0,0,0,0,0,0,0,0,0,0,0,0,0,0,0,0,0,0,0,0,0,0,0,0,0,0,0,0,0,0,0,0,0,0,0,0,0,0,0,0,0,0,0,0,0,0,0,0,0,0,0,0,0,0,0,0,0,0,0,0,0,0,0,0,0,0,0,0,0,0,0,0,0,0,0,0,0,0,0,0,0,0,0,0,0,0,0,0,0,0,0,0,0,0,0,0,0,0,0,0,0,0,0,0,0,0,0,0,0,0,0,0,0,0,0,0,0,0,0,0,0,0,0,0,0,0,0,0,0,0,0,0,0,0,0,0,0,0,0,0,0,0,0,0,0,0,0,0,0,0,0,0,0,0,0,0,0,0,0,0,0,0,0,0,0,0,0,0,
0,0,0,0,0,0,0,0,0,0,0,0,0,0,0,0,0,0,0,0,0,0,0,0,0,0,0,0,0,0,0,0,0,0,0,0,0,0,0,0,0,0,0,0,0,0,0,0,0,0,0,0,0,0,0,0,0,0,0,0,0,0,0,0,0,0,0,0,0,0,0,0,0,0,0,0,0,0,0,0,0,0,0,0,0,0,0,0,0,0,0,0,0,0,0,0,0,0,0,0,0,0,0,0,0,0,0,0,0,0,0,0,0,0,0,0,0,0,0,0,0,0,0,0,0,0,0,0,0,0,0,0,0,0,0,0,0,0,0,0,0,0,0,0,0,0,0,0,0,0,0,0,0,0,0,0,0,0,0,0,0,0,0,0,0,0,0,0,0,0,0,0,0,0,0,0,0,0,0,0,0,0,0,0,0,0,0,0,0,0,0,0,0,0,0,0,0,0,0,0,
0,0,0,0,0,0,0,0,0,0,0,0,0,0,0,0,0,0,0,0,0,0,0,0,0,0,0,0,0,0,0,0,0,0,0,0,0,0,0,0,0,0,0,0,0,0,0,0,0,0,0,0,0,0,0,0,0,0,0,0,0,0,0,0,0,0,0,0,0,0,0,0,0,0,0,0,0,0,0,0,0,0,0,0,0,0,0,0,0,0,0,0,0,0,0,0,0,0,0,0,0,0,0,0,0,0,0,0,0,0,0,0,0,0,0,0,0,0,0,0,0,0,0,0,0,0,0,0,0,0,0,0,0,0,0,0,0,0,0,0,0,0,0,0,0,0,0,0,0,0,0,0,0,0,0,0,0,0,0,0,0,0,0,0,0,0,0,0,0,0,0,0,0,0,0,0,0,0,0,0,0,0,0,0,0,0,0,0,0,0,0,0,0,0,0,0,0,0,0,0,
0,0,0,0,0,0,0,0,0,0,0,0,0,0,0,0,0,0,0,0,0,0,0,0,0,0,0,0,0,0,0,0,0,0,0,0,0,0,0,0,0,0,0,0,0,0,0,0,0,0,0,0,0,0,0,0,0,0,0,0,0,0,0,0,0,0,0,0,0,0,0,0,0,0,0,0,0,0,0,0,0,0,0,0,0,0,0,0,0,0,0,0,0,0,0,0,0,0,0,0,0,0,0,0,0,0,0,0,0,0,0,0,0,0,0,0,0,0,0,0,0,0,0,0,0,0,0,0,0,0,0,0,0,0,0,0,0,0,0,0,0,0,0,0,0,0,0,0,0,0,0,0,0,0,0,0,0,0,0,0,0,0,0,0,0,0,0,0,0,0,0,0,0,0,0,0,0,0,0,0,0,0,0,0,0,0,0,0,0,0,0,0,0,0,0,0,0,0,0,0,
0,0,0,0,0,0,0,0,0,0,0,0,0,0,0,0,0,0,0,0,0,0,0,0,0,0,0,0,0,0,0,0,0,0,0,0,0,0,0,0,0,0,0,0,0,0,0,0,0,0,0,0,0,0,0,0,0,0,0,0,0,0,0,0,0,0,0,0,0,0,0,0,0,0,0,0,0,0,0,0,0,0,0,0,0,0,0,0,0,0,0,0,0,0,0,0,0,0,0,0,0,0,0,0,0,0,0,0,0,0,0,0,0,0,0,0,0,0,0,0,0,0,0,0,0,0,0,0,0,0,0,0,0,0,0,0,0,0,0,0,0,0,0,0,0,0,0,0,0,0,0,0,0,0,0,0,0,0,0,0,0,0,0,0,0,0,0,0,0,0,0,0,0,0,0,0,0,0,0,0,0,0,0,0,0,0,0,0,0,0,0,0,0,0,0,0,0,0,0,0,
0,0,0,0,0,0,0,0,0,0,0,0,0,0,0,0,0,0,0,0,0,0,0,0,0,0,0,0,0,0,0,0,0,0,0,0,0,0,0,0,0,0,0,0,0,0,0,0,0,0,0,0,0,0,0,0,0,0,0,0,0,0,0,0,0,0,0,0,0,0,0,0,0,0,0,0,0,0,0,0,0,0,0,0,0,0,0,0,0,0,0,0,0,0,0,0,0,0,0,0,0,0,0,0,0,0,0,0,0,0,0,0,0,0,0,0,0,0,0,0,0,0,0,0,0,0,0,0,0,0,0,0,0,0,0,0,0,0,0,0,0,0,0,0,0,0,0,0,0,0,0,0,0,0,0,0,0,0,0,0,0,0,0,0,0,0,0,0,0,0,0,0,0,0,0,0,0,0,0,0,0,0,0,0,0,0,0,0,0,0,0,0,0,0,0,0,0,0,0,0,
0,0,0,0,0,0,0,0,0,0,0,0,0,0,0,0,0,0,0,0,0,0,0,0,0,0,0,0,0,0,0,0,0,0,0,0,0,0,0,0,0,0,0,0,0,0,0,0,0,0,0,0,0,0,0,0,0,0,0,0,0,0,0,0,0,0,0,0,0,0,0,0,0,0,0,0,0,0,0,0,0,0,0,0,0,0,0,0,0,0,0,0,0,0,0,0,0,0,0,0,0,0,0,0,0,0,0,0,0,0,0,0,0,0,0,0,0,0,0,0,0,0,0,0,0,0,0,0,0,0,0,0,0,0,0,0,0,0,0,0,0,0,0,0,0,0,0,0,0,0,0,0,0,0,0,0,0,0,0,0,0,0,0,0,0,0,0,0,0,0,0,0,0,0,0,0,0,0,0,0,0,0,0,0,0,0,0,0,0,0,0,0,0,0,0,0,0,0,0,0,
0,0,0,0,0,0,0,0,0,0,0,0,0,0,0,0,0,0,0,0,0,0,0,0,0,0,0,0,0,0,0,0,0,0,0,0,0,0,0,0,0,0,0,0,0,0,0,0,0,0,0,0,0,0,0,0,0,0,0,0,0,0,0,0,0,0,0,0,0,0,0,0,0,0,0,0,0,0,0,0,0,0,0,0,0,0,0,0,0,0,0,0,0,0,0,0,0,0,0,0,0,0,0,0,0,0,0,0,0,0,0,0,0,0,0,0,0,0,0,0,0,0,0,0,0,0,0,0,0,0,0,0,0,0,0,0,0,0,0,0,0,0,0,0,0,0,0,0,0,0,0,0,0,0,0,0,0,0,0,0,0,0,0,0,0,0,0,0,0,0,0,0,0,0,0,0,0,0,0,0,0,0,0,0,0,0,0,0,0,0,0,0,0,0,0,0,0,0,0,0,
0,0,0,0,0,0,0,0,0,0,0,0,0,0,0,0,0,0,0,0,0,0,0,0,0,0,0,0,0,0,0,0,0,0,0,0,0,0,0,0,0,0,0,0,0,0,0,0,0,0,0,0,0,0,0,0,0,0,0,0,0,0,0,0,0,0,0,0,0,0,0,0,0,0,0,0,0,0,0,0,0,0,0,0,0,0,0,0,0,0,0,0,0,0,0,0,0,0,0,0,0,0,0,0,0,0,0,0,0,0,0,0,0,0,0,0,0,0,0,0,0,0,0,0,0,0,0,0,0,0,0,0,0,0,0,0,0,0,0,0,0,0,0,0,0,0,0,0,0,0,0,0,0,0,0,0,0,0,0,0,0,0,0,0,0,0,0,0,0,0,0,0,0,0,0,0,0,0,0,0,0,0,0,0,0,0,0,0,0,0,0,0,0,0,0,0,0,0,0,0,
0,0,0,0,0,0,0,0,0,0,0,0,0,0,0,0,0,0,0,0,0,0,0,0,0,0,0,0,0,0,0,0,0,0,0,0,0,0,0,0,0,0,0,0,0,0,0,0,0,0,0,0,0,0,0,0,0,0,0,0,0,0,0,0,0,0,0,0,0,0,0,0,0,0,0,0,0,0,0,0,0,0,0,0,0,0,0,0,0,0,0,0,0,0,0,0,0,0,0,0,0,0,0,0,0,0,0,0,0,0,0,0,0,0,0,0,0,0,0,0,0,0,0,0,0,0,0,0,0,0,0,0,0,0,0,0,0,0,0,0,0,0,0,0,0,0,0,0,0,0,0,0,0,0,0,0,0,0,0,0,0,0,0,0,0,0,0,0,0,0,0,0,0,0,0,0,0,0,0,0,0,0,0,0,0,0,0,0,0,0,0,0,0,0,0,0,0,0,0,0,
0,0,0,0,0,0,0,0,0,0,0,0,0,0,0,0,0,0,0,0,0,0,0,0,0,0,0,0,0,0,0,0,0,0,0,0,0,0,0,0,0,0,0,0,0,0,0,0,0,0,0,0,0,0,0,0,0,0,0,0,0,0,0,0,0,0,0,0,0,0,0,0,0,0,0,0,0,0,0,0,0,0,0,0,0,0,0,0,0,0,0,0,0,0,0,0,0,0,0,0,0,0,0,0,0,0,0,0,0,0,0,0,0,0,0,0,0,0,0,0,0,0,0,0,0,0,0,0,0,0,0,0,0,0,0,0,0,0,0,0,0,0,0,0,0,0,0,0,0,0,0,0,0,0,0,0,0,0,0,0,0,0,0,0,0,0,0,0,0,0,0,0,0,0,0,0,0,0,0,0,0,0,0,0,0,0,0,0,0,0,0,0,0,0,0,0,0,0,0,0,
0,0,0,0,0,0,0,0,0,0,0,0,0,0,0,0,0,0,0,0,0,0,0,0,0,0,0,0,0,0,0,0,0,0,0,0,0,0,0,0,0,0,0,0,0,0,0,0,0,0,0,0,0,0,0,0,0,0,0,0,0,0,0,0,0,0,0,0,0,0,0,0,0,0,0,0,0,0,0,0,0,0,0,0,0,0,0,0,0,0,0,0,0,0,0,0,0,0,0,0,0,0,0,0,0,0,0,0,0,0,0,0,0,0,0,0,0,0,0,0,0,0,0,0,0,0,0,0,0,0,0,0,0,0,0,0,0,0,0,0,0,0,0,0,0,0,0,0,0,0,0,0,0,0,0,0,0,0,0,0,0,0,0,0,0,0,0,0,0,0,0,0,0,0,0,0,0,0,0,0,0,0,0,0,0,0,0,0,0,0,0,0,0,0,0,0,0,0,0,0,
0,0,0,0,0,0,0,0,0,0,0,0,0,0,0,0,0,0,0,0,0,0,0,0,0,0,0,0,0,0,0,0,0,0,0,0,0,0,0,0,0,0,0,0,0,0,0,0,0,0,0,0,0,0,0,0,0,0,0,0,0,0,0,0,0,0,0,0,0,0,0,0,0,0,0,0,0,0,0,0,0,0,0,0,0,0,0,0,0,0,0,0,0,0,0,0,0,0,0,0,0,0,0,0,0,0,0,0,0,0,0,0,0,0,0,0,0,0,0,0,0,0,0,0,0,0,0,0,0,0,0,0,0,0,0,0,0,0,0,0,0,0,0,0,0,0,0,0,0,0,0,0,0,0,0,0,0,0,0,0,0,0,0,0,0,0,0,0,0,0,0,0,0,0,0,0,0,0,0,0,0,0,0,0,0,0,0,0,0,0,0,0,0,0,0,0,0,0,0,0,
0,0,0,0,0,0,0,0,0,0,0,0,0,0,0,0,0,0,0,0,0,0,0,0,0,0,0,0,0,0,0,0,0,0,0,0,0,0,0,0,0,0,0,0,0,0,0,0,0,0,0,0,0,0,0,0,0,0,0,0,0,0,0,0,0,0,0,0,0,0,0,0,0,0,0,0,0,0,0,0,0,0,0,0,0,0,0,0,0,0,0,0,0,0,0,0,0,0,0,0,0,0,0,0,0,0,0,0,0,0,0,0,0,0,0,0,0,0,0,0,0,0,0,0,0,0,0,0,0,0,0,0,0,0,0,0,0,0,0,0,0,0,0,0,0,0,0,0,0,0,0,0,0,0,0,0,0,0,0,0,0,0,0,0,0,0,0,0,0,0,0,0,0,0,0,0,0,0,0,0,0,0,0,0,0,0,0,0,0,0,0,0,0,0,0,0,0,0,0,0,
0,0,0,0,0,0,0,0,0,0,0,0,0,0,0,0,0,0,0,0,0,0,0,0,0,0,0,0,0,0,0,0,0,0,0,0,0,0,0,0,0,0,0,0,0,0,0,0,0,0,0,0,0,0,0,0,0,0,0,0,0,0,0,0,0,0,0,0,0,0,0,0,0,0,0,0,0,0,0,0,0,0,0,0,0,0,0,0,0,0,0,0,0,0,0,0,0,0,0,0,0,0,0,0,0,0,0,0,0,0,0,0,0,0,0,0,0,0,0,0,0,0,0,0,0,0,0,0,0,0,0,0,0,0,0,0,0,0,0,0,0,0,0,0,0,0,0,0,0,0,0,0,0,0,0,0,0,0,0,0,0,0,0,0,0,0,0,0,0,0,0,0,0,0,0,0,0,0,0,0,0,0,0,0,0,0,0,0,0,0,0,0,0,0,0,0,0,0,0,0,
0,0,0,0,0,0,0,0,0,0,0,0,0,0,0,0,0,0,0,0,0,0,0,0,0,0,0,0,0,0,0,0,0,0,0,0,0,0,0,0,0,0,0,0,0,0,0,0,0,0,0,0,0,0,0,0,0,0,0,0,0,0,0,0,0,0,0,0,0,0,0,0,0,0,0,0,0,0,0,0,0,0,0,0,0,0,0,0,0,0,0,0,0,0,0,0,0,0,0,0,0,0,0,0,0,0,0,0,0,0,0,0,0,0,0,0,0,0,0,0,0,0,0,0,0,0,0,0,0,0,0,0,0,0,0,0,0,0,0,0,0,0,0,0,0,0,0,0,0,0,0,0,0,0,0,0,0,0,0,0,0,0,0,0,0,0,0,0,0,0,0,0,0,0,0,0,0,0,0,0,0,0,0,0,0,0,0,0,0,0,0,0,0,0,0,0,0,0,0,0,
0,0,0,0,0,0,0,0,0,0,0,0,0,0,0,0,0,0,0,0,0,0,0,0,0,0,0,0,0,0,0,0,0,0,0,0,0,0,0,0,0,0,0,0,0,0,0,0,0,0,0,0,0,0,0,0,0,0,0,0,0,0,0,0,0,0,0,0,0,0,0,0,0,0,0,0,0,0,0,0,0,0,0,0,0,0,0,0,0,0,0,0,0,0,0,0,0,0,0,0,0,0,0,0,0,0,0,0,0,0,0,0,0,0,0,0,0,0,0,0,0,0,0,0,0,0,0,0,0,0,0,0,0,0,0,0,0,0,0,0,0,0,0,0,0,0,0,0,0,0,0,0,0,0,0,0,0,0,0,0,0,0,0,0,0,0,0,0,0,0,0,0,0,0,0,0,0,0,0,0,0,0,0,0,0,0,0,0,0,0,0,0,0,0,0,0,0,0,0,0,
0,0,0,0,0,0,0,0,0,0,0,0,0,0,0,0,0,0,0,0,0,0,0,0,0,0,0,0,0,0,0,0,0,0,0,0,0,0,0,0,0,0,0,0,0,0,0,0,0,0,0,0,0,0,0,0,0,0,0,0,0,0,0,0,0,0,0,0,0,0,0,0,0,0,0,0,0,0,0,0,0,0,0,0,0,0,0,0,0,0,0,0,0,0,0,0,0,0,0,0,0,0,0,0,0,0,0,0,0,0,0,0,0,0,0,0,0,0,0,0,0,0,0,0,0,0,0,0,0,0,0,0,0,0,0,0,0,0,0,0,0,0,0,0,0,0,0,0,0,0,0,0,0,0,0,0,0,0,0,0,0,0,0,0,0,0,0,0,0,0,0,0,0,0,0,0,0,0,0,0,0,0,0,0,0,0,0,0,0,0,0,0,0,0,0,0,0,0,0,0,
0,0,0,0,0,0,0,0,0,0,0,0,0,0,0,0,0,0,0,0,0,0,0,0,0,0,0,0,0,0,0,0,0,0,0,0,0,0,0,0,0,0,0,0,0,0,0,0,0,0,0,0,0,0,0,0,0,0,0,0,0,0,0,0,0,0,0,0,0,0,0,0,0,0,0,0,0,0,0,0,0,0,0,0,0,0,0,0,0,0,0,0,0,0,0,0,0,0,0,0,0,0,0,0,0,0,0,0,0,0,0,0,0,0,0,0,0,0,0,0,0,0,0,0,0,0,0,0,0,0,0,0,0,0,0,0,0,0,0,0,0,0,0,0,0,0,0,0,0,0,0,0,0,0,0,0,0,0,0,0,0,0,0,0,0,0,0,0,0,0,0,0,0,0,0,0,0,0,0,0,0,0,0,0,0,0,0,0,0,0,0,0,0,0,0,0,0,0,0,0,
0,0,0,0,0,0,0,0,0,0,0,0,0,0,0,0,0,0,0,0,0,0,0,0,0,0,0,0,0,0,0,0,0,0,0,0,0,0,0,0,0,0,0,0,0,0,0,0,0,0,0,0,0,0,0,0,0,0,0,0,0,0,0,0,0,0,0,0,0,0,0,0,0,0,0,0,0,0,0,0,0,0,0,0,0,0,0,0,0,0,0,0,0,0,0,0,0,0,0,0,0,0,0,0,0,0,0,0,0,0,0,0,0,0,0,0,0,0,0,0,0,0,0,0,0,0,0,0,0,0,0,0,0,0,0,0,0,0,0,0,0,0,0,0,0,0,0,0,0,0,0,0,0,0,0,0,0,0,0,0,0,0,0,0,0,0,0,0,0,0,0,0,0,0,0,0,0,0,0,0,0,0,0,0,0,0,0,0,0,0,0,0,0,0,0,0,0,0,0,0,
0,0,0,0,0,0,0,0,0,0,0,0,0,0,0,0,0,0,0,0,0,0,0,0,0,0,0,0,0,0,0,0,0,0,0,0,0,0,0,0,0,0,0,0,0,0,0,0,0,0,0,0,0,0,0,0,0,0,0,0,0,0,0,0,0,0,0,0,0,0,0,0,0,0,0,0,0,0,0,0,0,0,0,0,0,0,0,0,0,0,0,0,0,0,0,0,0,0,0,0,0,0,0,0,0,0,0,0,0,0,0,0,0,0,0,0,0,0,0,0,0,0,0,0,0,0,0,0,0,0,0,0,0,0,0,0,0,0,0,0,0,0,0,0,0,0,0,0,0,0,0,0,0,0,0,0,0,0,0,0,0,0,0,0,0,0,0,0,0,0,0,0,0,0,0,0,0,0,0,0,0,0,0,0,0,0,0,0,0,0,0,0,0,0,0,0,0,0,0,0,
0,0,0,0,0,0,0,0,0,0,0,0,0,0,0,0,0,0,0,0,0,0,0,0,0,0,0,0,0,0,0,0,0,0,0,0,0,0,0,0,0,0,0,0,0,0,0,0,0,0,0,0,0,0,0,0,0,0,0,0,0,0,0,0,0,0,0,0,0,0,0,0,0,0,0,0,0,0,0,0,0,0,0,0,0,0,0,0,0,0,0,0,0,0,0,0,0,0,0,0,0,0,0,0,0,0,0,0,0,0,0,0,0,0,0,0,0,0,0,0,0,0,0,0,0,0,0,0,0,0,0,0,0,0,0,0,0,0,0,0,0,0,0,0,0,0,0,0,0,0,0,0,0,0,0,0,0,0,0,0,0,0,0,0,0,0,0,0,0,0,0,0,0,0,0,0,0,0,0,0,0,0,0,0,0,0,0,0,0,0,0,0,0,0,0,0,0,0,0,0,
0,0,0,0,0,0,0,0,0,0,0,0,0,0,0,0,0,0,0,0,0,0,0,0,0,0,0,0,0,0,0,0,0,0,0,0,0,0,0,0,0,0,0,0,0,0,0,0,0,0,0,0,0,0,0,0,0,0,0,0,0,0,0,0,0,0,0,0,0,0,0,0,0,0,0,0,0,0,0,0,0,0,0,0,0,0,0,0,0,0,0,0,0,0,0,0,0,0,0,0,0,0,0,0,0,0,0,0,0,0,0,0,0,0,0,0,0,0,0,0,0,0,0,0,0,0,0,0,0,0,0,0,0,0,0,0,0,0,0,0,0,0,0,0,0,0,0,0,0,0,0,0,0,0,0,0,0,0,0,0,0,0,0,0,0,0,0,0,0,0,0,0,0,0,0,0,0,0,0,0,0,0,0,0,0,0,0,0,0,0,0,0,0,0,0,0,0,0,0,0,
0,0,0,0,0,0,0,0,0,0,0,0,0,0,0,0,0,0,0,0,0,0,0,0,0,0,0,0,0,0,0,0,0,0,0,0,0,0,0,0,0,0,0,0,0,0,0,0,0,0,0,0,0,0,0,0,0,0,0,0,0,0,0,0,0,0,0,0,0,0,0,0,0,0,0,0,0,0,0,0,0,0,0,0,0,0,0,0,0,0,0,0,0,0,0,0,0,0,0,0,0,0,0,0,0,0,0,0,0,0,0,0,0,0,0,0,0,0,0,0,0,0,0,0,0,0,0,0,0,0,0,0,0,0,0,0,0,0,0,0,0,0,0,0,0,0,0,0,0,0,0,0,0,0,0,0,0,0,0,0,0,0,0,0,0,0,0,0,0,0,0,0,0,0,0,0,0,0,0,0,0,0,0,0,0,0,0,0,0,0,0,0,0,0,0,0,0,0,0,0,
0,0,0,0,0,0,0,0,0,0,0,0,0,0,0,0,0,0,0,0,0,0,0,0,0,0,0,0,0,0,0,0,0,0,0,0,0,0,0,0,0,0,0,0,0,0,0,0,0,0,0,0,0,0,0,0,0,0,0,0,0,0,0,0,0,0,0,0,0,0,0,0,0,0,0,0,0,0,0,0,0,0,0,0,0,0,0,0,0,0,0,0,0,0,0,0,0,0,0,0,0,0,0,0,0,0,0,0,0,0,0,0,0,0,0,0,0,0,0,0,0,0,0,0,0,0,0,0,0,0,0,0,0,0,0,0,0,0,0,0,0,0,0,0,0,0,0,0,0,0,0,0,0,0,0,0,0,0,0,0,0,0,0,0,0,0,0,0,0,0,0,0,0,0,0,0,0,0,0,0,0,0,0,0,0,0,0,0,0,0,0,0,0,0,0,0,0,0,0,0,
0,0,0,0,0,0,0,0,0,0,0,0,0,0,0,0,0,0,0,0,0,0,0,0,0,0,0,0,0,0,0,0,0,0,0,0,0,0,0,0,0,0,0,0,0,0,0,0,0,0,0,0,0,0,0,0,0,0,0,0,0,0,0,0,0,0,0,0,0,0,0,0,0,0,0,0,0,0,0,0,0,0,0,0,0,0,0,0,0,0,0,0,0,0,0,0,0,0,0,0,0,0,0,0,0,0,0,0,0,0,0,0,0,0,0,0,0,0,0,0,0,0,0,0,0,0,0,0,0,0,0,0,0,0,0,0,0,0,0,0,0,0,0,0,0,0,0,0,0,0,0,0,0,0,0,0,0,0,0,0,0,0,0,0,0,0,0,0,0,0,0,0,0,0,0,0,0,0,0,0,0,0,0,0,0,0,0,0,0,0,0,0,0,0,0,0,0,0,0,0,
0,0,0,0,0,0,0,0,0,0,0,0,0,0,0,0,0,0,0,0,0,0,0,0,0,0,0,0,0,0,0,0,0,0,0,0,0,0,0,0,0,0,0,0,0,0,0,0,0,0,0,0,0,0,0,0,0,0,0,0,0,0,0,0,0,0,0,0,0,0,0,0,0,0,0,0,0,0,0,0,0,0,0,0,0,0,0,0,0,0,0,0,0,0,0,0,0,0,0,0,0,0,0,0,0,0,0,0,0,0,0,0,0,0,0,0,0,0,0,0,0,0,0,0,0,0,0,0,0,0,0,0,0,0,0,0,0,0,0,0,0,0,0,0,0,0,0,0,0,0,0,0,0,0,0,0,0,0,0,0,0,0,0,0,0,0,0,0,0,0,0,0,0,0,0,0,0,0,0,0,0,0,0,0,0,0,0,0,0,0,0,0,0,0,0,0,0,0,0,0,
0,0,0,0,0,0,0,0,0,0,0,0,0,0,0,0,0,0,0,0,0,0,0,0,0,0,0,0,0,0,0,0,0,0,0,0,0,0,0,0,0,0,0,0,0,0,0,0,0,0,0,0,0,0,0,0,0,0,0,0,0,0,0,0,0,0,0,0,0,0,0,0,0,0,0,0,0,0,0,0,0,0,0,0,0,0,0,0,0,0,0,0,0,0,0,0,0,0,0,0,0,0,0,0,0,0,0,0,0,0,0,0,0,0,0,0,0,0,0,0,0,0,0,0,0,0,0,0,0,0,0,0,0,0,0,0,0,0,0,0,0,0,0,0,0,0,0,0,0,0,0,0,0,0,0,0,0,0,0,0,0,0,0,0,0,0,0,0,0,0,0,0,0,0,0,0,0,0,0,0,0,0,0,0,0,0,0,0,0,0,0,0,0,0,0,0,0,0,0,0,
0,0,0,0,0,0,0,0,0,0,0,0,0,0,0,0,0,0,0,0,0,0,0,0,0,0,0,0,0,0,0,0,0,0,0,0,0,0,0,0,0,0,0,0,0,0,0,0,0,0,0,0,0,0,0,0,0,0,0,0,0,0,0,0,0,0,0,0,0,0,0,0,0,0,0,0,0,0,0,0,0,0,0,0,0,0,0,0,0,0,0,0,0,0,0,0,0,0,0,0,0,0,0,0,0,0,0,0,0,0,0,0,0,0,0,0,0,0,0,0,0,0,0,0,0,0,0,0,0,0,0,0,0,0,0,0,0,0,0,0,0,0,0,0,0,0,0,0,0,0,0,0,0,0,0,0,0,0,0,0,0,0,0,0,0,0,0,0,0,0,0,0,0,0,0,0,0,0,0,0,0,0,0,0,0,0,0,0,0,0,0,0,0,0,0,0,0,0,0,0,
0,0,0,0,0,0,0,0,0,0,0,0,0,0,0,0,0,0,0,0,0,0,0,0,0,0,0,0,0,0,0,0,0,0,0,0,0,0,0,0,0,0,0,0,0,0,0,0,0,0,0,0,0,0,0,0,0,0,0,0,0,0,0,0,0,0,0,0,0,0,0,0,0,0,0,0,0,0,0,0,0,0,0,0,0,0,0,0,0,0,0,0,0,0,0,0,0,0,0,0,0,0,0,0,0,0,0,0,0,0,0,0,0,0,0,0,0,0,0,0,0,0,0,0,0,0,0,0,0,0,0,0,0,0,0,0,0,0,0,0,0,0,0,0,0,0,0,0,0,0,0,0,0,0,0,0,0,0,0,0,0,0,0,0,0,0,0,0,0,0,0,0,0,0,0,0,0,0,0,0,0,0,0,0,0,0,0,0,0,0,0,0,0,0,0,0,0,0,0,0,
0,0,0,0,0,0,0,0,0,0,0,0,0,0,0,0,0,0,0,0,0,0,0,0,0,0,0,0,0,0,0,0,0,0,0,0,0,0,0,0,0,0,0,0,0,0,0,0,0,0,0,0,0,0,0,0,0,0,0,0,0,0,0,0,0,0,0,0,0,0,0,0,0,0,0,0,0,0,0,0,0,0,0,0,0,0,0,0,0,0,0,0,0,0,0,0,0,0,0,0,0,0,0,0,0,0,0,0,0,0,0,0,0,0,0,0,0,0,0,0,0,0,0,0,0,0,0,0,0,0,0,0,0,0,0,0,0,0,0,0,0,0,0,0,0,0,0,0,0,0,0,0,0,0,0,0,0,0,0,0,0,0,0,0,0,0,0,0,0,0,0,0,0,0,0,0,0,0,0,0,0,0,0,0,0,0,0,0,0,0,0,0,0,0,0,0,0,0,0,0,
0,0,0,0,0,0,0,0,0,0,0,0,0,0,0,0,0,0,0,0,0,0,0,0,0,0,0,0,0,0,0,0,0,0,0,0,0,0,0,0,0,0,0,0,0,0,0,0,0,0,0,0,0,0,0,0,0,0,0,0,0,0,0,0,0,0,0,0,0,0,0,0,0,0,0,0,0,0,0,0,0,0,0,0,0,0,0,0,0,0,0,0,0,0,0,0,0,0,0,0,0,0,0,0,0,0,0,0,0,0,0,0,0,0,0,0,0,0,0,0,0,0,0,0,0,0,0,0,0,0,0,0,0,0,0,0,0,0,0,0,0,0,0,0,0,0,0,0,0,0,0,0,0,0,0,0,0,0,0,0,0,0,0,0,0,0,0,0,0,0,0,0,0,0,0,0,0,0,0,0,0,0,0,0,0,0,0,0,0,0,0,0,0,0,0,0,0,0,0,0,
0,0,0,0,0,0,0,0,0,0,0,0,0,0,0,0,0,0,0,0,0,0,0,0,0,0,0,0,0,0,0,0,0,0,0,0,0,0,0,0,0,0,0,0,0,0,0,0,0,0,0,0,0,0,0,0,0,0,0,0,0,0,0,0,0,0,0,0,0,0,0,0,0,0,0,0,0,0,0,0,0,0,0,0,0,0,0,0,0,0,0,0,0,0,0,0,0,0,0,0,0,0,0,0,0,0,0,0,0,0,0,0,0,0,0,0,0,0,0,0,0,0,0,0,0,0,0,0,0,0,0,0,0,0,0,0,0,0,0,0,0,0,0,0,0,0,0,0,0,0,0,0,0,0,0,0,0,0,0,0,0,0,0,0,0,0,0,0,0,0,0,0,0,0,0,0,0,0,0,0,0,0,0,0,0,0,0,0,0,0,0,0,0,0,0,0,0,0,0,0,
0,0,0,0,0,0,0,0,0,0,0,0,0,0,0,0,0,0,0,0,0,0,0,0,0,0,0,0,0,0,0,0,0,0,0,0,0,0,0,0,0,0,0,0,0,0,0,0,0,0,0,0,0,0,0,0,0,0,0,0,0,0,0,0,0,0,0,0,0,0,0,0,0,0,0,0,0,0,0,0,0,0,0,0,0,0,0,0,0,0,0,0,0,0,0,0,0,0,0,0,0,0,0,0,0,0,0,0,0,0,0,0,0,0,0,0,0,0,0,0,0,0,0,0,0,0,0,0,0,0,0,0,0,0,0,0,0,0,0,0,0,0,0,0,0,0,0,0,0,0,0,0,0,0,0,0,0,0,0,0,0,0,0,0,0,0,0,0,0,0,0,0,0,0,0,0,0,0,0,0,0,0,0,0,0,0,0,0,0,0,0,0,0,0,0,0,0,0,0,0,
0,0,0,0,0,0,0,0,0,0,0,0,0,0,0,0,0,0,0,0,0,0,0,0,0,0,0,0,0,0,0,0,0,0,0,0,0,0,0,0,0,0,0,0,0,0,0,0,0,0,0,0,0,0,0,0,0,0,0,0,0,0,0,0,0,0,0,0,0,0,0,0,0,0,0,0,0,0,0,0,0,0,0,0,0,0,0,0,0,0,0,0,0,0,0,0,0,0,0,0,0,0,0,0,0,0,0,0,0,0,0,0,0,0,0,0,0,0,0,0,0,0,0,0,0,0,0,0,0,0,0,0,0,0,0,0,0,0,0,0,0,0,0,0,0,0,0,0,0,0,0,0,0,0,0,0,0,0,0,0,0,0,0,0,0,0,0,0,0,0,0,0,0,0,0,0,0,0,0,0,0,0,0,0,0,0,0,0,0,0,0,0,0,0,0,0,0,0,0,0,
0,0,0,0,0,0,0,0,0,0,0,0,0,0,0,0,0,0,0,0,0,0,0,0,0,0,0,0,0,0,0,0,0,0,0,0,0,0,0,0,0,0,0,0,0,0,0,0,0,0,0,0,0,0,0,0,0,0,0,0,0,0,0,0,0,0,0,0,0,0,0,0,0,0,0,0,0,0,0,0,0,0,0,0,0,0,0,0,0,0,0,0,0,0,0,0,0,0,0,0,0,0,0,0,0,0,0,0,0,0,0,0,0,0,0,0,0,0,0,0,0,0,0,0,0,0,0,0,0,0,0,0,0,0,0,0,0,0,0,0,0,0,0,0,0,0,0,0,0,0,0,0,0,0,0,0,0,0,0,0,0,0,0,0,0,0,0,0,0,0,0,0,0,0,0,0,0,0,0,0,0,0,0,0,0,0,0,0,0,0,0,0,0,0,0,0,0,0,0,0,
0,0,0,0,0,0,0,0,0,0,0,0,0,0,0,0,0,0,0,0,0,0,0,0,0,0,0,0,0,0,0,0,0,0,0,0,0,0,0,0,0,0,0,0,0,0,0,0,0,0,0,0,0,0,0,0,0,0,0,0,0,0,0,0,0,0,0,0,0,0,0,0,0,0,0,0,0,0,0,0,0,0,0,0,0,0,0,0,0,0,0,0,0,0,0,0,0,0,0,0,0,0,0,0,0,0,0,0,0,0,0,0,0,0,0,0,0,0,0,0,0,0,0,0,0,0,0,0,0,0,0,0,0,0,0,0,0,0,0,0,0,0,0,0,0,0,0,0,0,0,0,0,0,0,0,0,0,0,0,0,0,0,0,0,0,0,0,0,0,0,0,0,0,0,0,0,0,0,0,0,0,0,0,0,0,0,0,0,0,0,0,0,0,0,0,0,0,0,0,0,
0,0,0,0,0,0,0,0,0,0,0,0,0,0,0,0,0,0,0,0,0,0,0,0,0,0,0,0,0,0,0,0,0,0,0,0,0,0,0,0,0,0,0,0,0,0,0,0,0,0,0,0,0,0,0,0,0,0,0,0,0,0,0,0,0,0,0,0,0,0,0,0,0,0,0,0,0,0,0,0,0,0,0,0,0,0,0,0,0,0,0,0,0,0,0,0,0,0,0,0,0,0,0,0,0,0,0,0,0,0,0,0,0,0,0,0,0,0,0,0,0,0,0,0,0,0,0,0,0,0,0,0,0,0,0,0,0,0,0,0,0,0,0,0,0,0,0,0,0,0,0,0,0,0,0,0,0,0,0,0,0,0,0,0,0,0,0,0,0,0,0,0,0,0,0,0,0,0,0,0,0,0,0,0,0,0,0,0,0,0,0,0,0,0,0,0,0,0,0,0,
0,0,0,0,0,0,0,0,0,0,0,0,0,0,0,0,0,0,0,0,0,0,0,0,0,0,0,0,0,0,0,0,0,0,0,0,0,0,0,0,0,0,0,0,0,0,0,0,0,0,0,0,0,0,0,0,0,0,0,0,0,0,0,0,0,0,0,0,0,0,0,0,0,0,0,0,0,0,0,0,0,0,0,0,0,0,0,0,0,0,0,0,0,0,0,0,0,0,0,0,0,0,0,0,0,0,0,0,0,0,0,0,0,0,0,0,0,0,0,0,0,0,0,0,0,0,0,0,0,0,0,0,0,0,0,0,0,0,0,0,0,0,0,0,0,0,0,0,0,0,0,0,0,0,0,0,0,0,0,0,0,0,0,0,0,0,0,0,0,0,0,0,0,0,0,0,0,0,0,0,0,0,0,0,0,0,0,0,0,0,0,0,0,0,0,0,0,0,0,0,
0,0,0,0,0,0,0,0,0,0,0,0,0,0,0,0,0,0,0,0,0,0,0,0,0,0,0,0,0,0,0,0,0,0,0,0,0,0,0,0,0,0,0,0,0,0,0,0,0,0,0,0,0,0,0,0,0,0,0,0,0,0,0,0,0,0,0,0,0,0,0,0,0,0,0,0,0,0,0,0,0,0,0,0,0,0,0,0,0,0,0,0,0,0,0,0,0,0,0,0,0,0,0,0,0,0,0,0,0,0,0,0,0,0,0,0,0,0,0,0,0,0,0,0,0,0,0,0,0,0,0,0,0,0,0,0,0,0,0,0,0,0,0,0,0,0,0,0,0,0,0,0,0,0,0,0,0,0,0,0,0,0,0,0,0,0,0,0,0,0,0,0,0,0,0,0,0,0,0,0,0,0,0,0,0,0,0,0,0,0,0,0,0,0,0,0,0,0,0,0,
0,0,0,0,0,0,0,0,0,0,0,0,0,0,0,0,0,0,0,0,0,0,0,0,0,0,0,0,0,0,0,0,0,0,0,0,0,0,0,0,0,0,0,0,0,0,0,0,0,0,0,0,0,0,0,0,0,0,0,0,0,0,0,0,0,0,0,0,0,0,0,0,0,0,0,0,0,0,0,0,0,0,0,0,0,0,0,0,0,0,0,0,0,0,0,0,0,0,0,0,0,0,0,0,0,0,0,0,0,0,0,0,0,0,0,0,0,0,0,0,0,0,0,0,0,0,0,0,0,0,0,0,0,0,0,0,0,0,0,0,0,0,0,0,0,0,0,0,0,0,0,0,0,0,0,0,0,0,0,0,0,0,0,0,0,0,0,0,0,0,0,0,0,0,0,0,0,0,0,0,0,0,0,0,0,0,0,0,0,0,0,0,0,0,0,0,0,0,0,0,
0,0,0,0,0,0,0,0,0,0,0,0,0,0,0,0,0,0,0,0,0,0,0,0,0,0,0,0,0,0,0,0,0,0,0,0,0,0,0,0,0,0,0,0,0,0,0,0,0,0,0,0,0,0,0,0,0,0,0,0,0,0,0,0,0,0,0,0,0,0,0,0,0,0,0,0,0,0,0,0,0,0,0,0,0,0,0,0,0,0,0,0,0,0,0,0,0,0,0,0,0,0,0,0,0,0,0,0,0,0,0,0,0,0,0,0,0,0,0,0,0,0,0,0,0,0,0,0,0,0,0,0,0,0,0,0,0,0,0,0,0,0,0,0,0,0,0,0,0,0,0,0,0,0,0,0,0,0,0,0,0,0,0,0,0,0,0,0,0,0,0,0,0,0,0,0,0,0,0,0,0,0,0,0,0,0,0,0,0,0,0,0,0,0,0,0,0,0,0,0,
0,0,0,0,0,0,0,0,0,0,0,0,0,0,0,0,0,0,0,0,0,0,0,0,0,0,0,0,0,0,0,0,0,0,0,0,0,0,0,0,0,0,0,0,0,0,0,0,0,0,0,0,0,0,0,0,0,0,0,0,0,0,0,0,0,0,0,0,0,0,0,0,0,0,0,0,0,0,0,0,0,0,0,0,0,0,0,0,0,0,0,0,0,0,0,0,0,0,0,0,0,0,0,0,0,0,0,0,0,0,0,0,0,0,0,0,0,0,0,0,0,0,0,0,0,0,0,0,0,0,0,0,0,0,0,0,0,0,0,0,0,0,0,0,0,0,0,0,0,0,0,0,0,0,0,0,0,0,0,0,0,0,0,0,0,0,0,0,0,0,0,0,0,0,0,0,0,0,0,0,0,0,0,0,0,0,0,0,0,0,0,0,0,0,0,0,0,0,0,0,
0,0,0,0,0,0,0,0,0,0,0,0,0,0,0,0,0,0,0,0,0,0,0,0,0,0,0,0,0,0,0,0,0,0,0,0,0,0,0,0,0,0,0,0,0,0,0,0,0,0,0,0,0,0,0,0,0,0,0,0,0,0,0,0,0,0,0,0,0,0,0,0,0,0,0,0,0,0,0,0,0,0,0,0,0,0,0,0,0,0,0,0,0,0,0,0,0,0,0,0,0,0,0,0,0,0,0,0,0,0,0,0,0,0,0,0,0,0,0,0,0,0,0,0,0,0,0,0,0,0,0,0,0,0,0,0,0,0,0,0,0,0,0,0,0,0,0,0,0,0,0,0,0,0,0,0,0,0,0,0,0,0,0,0,0,0,0,0,0,0,0,0,0,0,0,0,0,0,0,0,0,0,0,0,0,0,0,0,0,0,0,0,0,0,0,0,0,0,0,0,
0,0,0,0,0,0,0,0,0,0,0,0,0,0,0,0,0,0,0,0,0,0,0,0,0,0,0,0,0,0,0,0,0,0,0,0,0,0,0,0,0,0,0,0,0,0,0,0,0,0,0,0,0,0,0,0,0,0,0,0,0,0,0,0,0,0,0,0,0,0,0,0,0,0,0,0,0,0,0,0,0,0,0,0,0,0,0,0,0,0,0,0,0,0,0,0,0,0,0,0,0,0,0,0,0,0,0,0,0,0,0,0,0,0,0,0,0,0,0,0,0,0,0,0,0,0,0,0,0,0,0,0,0,0,0,0,0,0,0,0,0,0,0,0,0,0,0,0,0,0,0,0,0,0,0,0,0,0,0,0,0,0,0,0,0,0,0,0,0,0,0,0,0,0,0,0,0,0,0,0,0,0,0,0,0,0,0,0,0,0,0,0,0,0,0,0,0,0,0,0,
0,0,0,0,0,0,0,0,0,0,0,0,0,0,0,0,0,0,0,0,0,0,0,0,0,0,0,0,0,0,0,0,0,0,0,0,0,0,0,0,0,0,0,0,0,0,0,0,0,0,0,0,0,0,0,0,0,0,0,0,0,0,0,0,0,0,0,0,0,0,0,0,0,0,0,0,0,0,0,0,0,0,0,0,0,0,0,0,0,0,0,0,0,0,0,0,0,0,0,0,0,0,0,0,0,0,0,0,0,0,0,0,0,0,0,0,0,0,0,0,0,0,0,0,0,0,0,0,0,0,0,0,0,0,0,0,0,0,0,0,0,0,0,0,0,0,0,0,0,0,0,0,0,0,0,0,0,0,0,0,0,0,0,0,0,0,0,0,0,0,0,0,0,0,0,0,0,0,0,0,0,0,0,0,0,0,0,0,0,0,0,0,0,0,0,0,0,0,0,0,
0,0,0,0,0,0,0,0,0,0,0,0,0,0,0,0,0,0,0,0,0,0,0,0,0,0,0,0,0,0,0,0,0,0,0,0,0,0,0,0,0,0,0,0,0,0,0,0,0,0,0,0,0,0,0,0,0,0,0,0,0,0,0,0,0,0,0,0,0,0,0,0,0,0,0,0,0,0,0,0,0,0,0,0,0,0,0,0,0,0,0,0,0,0,0,0,0,0,0,0,0,0,0,0,0,0,0,0,0,0,0,0,0,0,0,0,0,0,0,0,0,0,0,0,0,0,0,0,0,0,0,0,0,0,0,0,0,0,0,0,0,0,0,0,0,0,0,0,0,0,0,0,0,0,0,0,0,0,0,0,0,0,0,0,0,0,0,0,0,0,0,0,0,0,0,0,0,0,0,0,0,0,0,0,0,0,0,0,0,0,0,0,0,0,0,0,0,0,0,0,
0,0,0,0,0,0,0,0,0,0,0,0,0,0,0,0,0,0,0,0,0,0,0,0,0,0,0,0,0,0,0,0,0,0,0,0,0,0,0,0,0,0,0,0,0,0,0,0,0,0,0,0,0,0,0,0,0,0,0,0,0,0,0,0,0,0,0,0,0,0,0,0,0,0,0,0,0,0,0,0,0,0,0,0,0,0,0,0,0,0,0,0,0,0,0,0,0,0,0,0,0,0,0,0,0,0,0,0,0,0,0,0,0,0,0,0,0,0,0,0,0,0,0,0,0,0,0,0,0,0,0,0,0,0,0,0,0,0,0,0,0,0,0,0,0,0,0,0,0,0,0,0,0,0,0,0,0,0,0,0,0,0,0,0,0,0,0,0,0,0,0,0,0,0,0,0,0,0,0,0,0,0,0,0,0,0,0,0,0,0,0,0,0,0,0,0,0,0,0,0,
0,0,0,0,0,0,0,0,0,0,0,0,0,0,0,0,0,0,0,0,0,0,0,0,0,0,0,0,0,0,0,0,0,0,0,0,0,0,0,0,0,0,0,0,0,0,0,0,0,0,0,0,0,0,0,0,0,0,0,0,0,0,0,0,0,0,0,0,0,0,0,0,0,0,0,0,0,0,0,0,0,0,0,0,0,0,0,0,0,0,0,0,0,0,0,0,0,0,0,0,0,0,0,0,0,0,0,0,0,0,0,0,0,0,0,0,0,0,0,0,0,0,0,0,0,0,0,0,0,0,0,0,0,0,0,0,0,0,0,0,0,0,0,0,0,0,0,0,0,0,0,0,0,0,0,0,0,0,0,0,0,0,0,0,0,0,0,0,0,0,0,0,0,0,0,0,0,0,0,0,0,0,0,0,0,0,0,0,0,0,0,0,0,0,0,0,0,0,0,0,
0,0,0,0,0,0,0,0,0,0,0,0,0,0,0,0,0,0,0,0,0,0,0,0,0,0,0,0,0,0,0,0,0,0,0,0,0,0,0,0,0,0,0,0,0,0,0,0,0,0,0,0,0,0,0,0,0,0,0,0,0,0,0,0,0,0,0,0,0,0,0,0,0,0,0,0,0,0,0,0,0,0,0,0,0,0,0,0,0,0,0,0,0,0,0,0,0,0,0,0,0,0,0,0,0,0,0,0,0,0,0,0,0,0,0,0,0,0,0,0,0,0,0,0,0,0,0,0,0,0,0,0,0,0,0,0,0,0,0,0,0,0,0,0,0,0,0,0,0,0,0,0,0,0,0,0,0,0,0,0,0,0,0,0,0,0,0,0,0,0,0,0,0,0,0,0,0,0,0,0,0,0,0,0,0,0,0,0,0,0,0,0,0,0,0,0,0,0,0,0,
0,0,0,0,0,0,0,0,0,0,0,0,0,0,0,0,0,0,0,0,0,0,0,0,0,0,0,0,0,0,0,0,0,0,0,0,0,0,0,0,0,0,0,0,0,0,0,0,0,0,0,0,0,0,0,0,0,0,0,0,0,0,0,0,0,0,0,0,0,0,0,0,0,0,0,0,0,0,0,0,0,0,0,0,0,0,0,0,0,0,0,0,0,0,0,0,0,0,0,0,0,0,0,0,0,0,0,0,0,0,0,0,0,0,0,0,0,0,0,0,0,0,0,0,0,0,0,0,0,0,0,0,0,0,0,0,0,0,0,0,0,0,0,0,0,0,0,0,0,0,0,0,0,0,0,0,0,0,0,0,0,0,0,0,0,0,0,0,0,0,0,0,0,0,0,0,0,0,0,0,0,0,0,0,0,0,0,0,0,0,0,0,0,0,0,0,0,0,0,0,
0,0,0,0,0,0,0,0,0,0,0,0,0,0,0,0,0,0,0,0,0,0,0,0,0,0,0,0,0,0,0,0,0,0,0,0,0,0,0,0,0,0,0,0,0,0,0,0,0,0,0,0,0,0,0,0,0,0,0,0,0,0,0,0,0,0,0,0,0,0,0,0,0,0,0,0,0,0,0,0,0,0,0,0,0,0,0,0,0,0,0,0,0,0,0,0,0,0,0,0,0,0,0,0,0,0,0,0,0,0,0,0,0,0,0,0,0,0,0,0,0,0,0,0,0,0,0,0,0,0,0,0,0,0,0,0,0,0,0,0,0,0,0,0,0,0,0,0,0,0,0,0,0,0,0,0,0,0,0,0,0,0,0,0,0,0,0,0,0,0,0,0,0,0,0,0,0,0,0,0,0,0,0,0,0,0,0,0,0,0,0,0,0,0,0,0,0,0,0,0
</data>
 </layer>
 <layer id="2" name="buildings" width="200" height="200">
  <data encoding="csv">
0,0,0,0,0,0,0,0,0,0,0,0,0,0,0,0,0,0,0,0,0,0,0,0,0,0,0,0,0,0,0,0,0,0,0,0,0,0,0,0,0,0,0,0,0,0,0,0,0,0,0,0,0,0,0,0,0,0,0,0,0,0,0,0,0,0,0,0,0,0,0,0,0,0,0,0,0,0,0,0,0,0,0,0,0,0,0,0,0,0,0,0,0,0,0,0,0,0,0,0,0,0,0,0,0,0,0,0,0,0,0,0,0,0,0,0,0,0,0,0,0,0,0,0,0,0,0,0,0,0,0,0,0,0,0,0,0,0,0,0,0,0,0,0,0,0,0,0,0,0,0,0,0,0,0,0,0,0,0,0,0,0,0,0,0,0,0,0,0,0,0,0,0,0,0,0,0,0,0,0,0,0,0,0,0,0,0,0,0,0,0,0,0,0,0,0,0,0,0,0,
0,0,0,0,0,0,0,0,0,0,0,0,0,0,0,0,0,0,0,0,0,0,0,0,0,0,0,0,0,0,0,0,0,0,0,0,0,0,0,0,0,0,0,0,0,0,0,0,0,0,0,0,0,0,0,0,0,0,0,0,0,0,0,0,0,0,0,0,0,0,0,0,0,0,0,0,0,0,0,0,0,0,0,0,0,0,0,0,0,0,0,0,0,0,0,0,0,0,0,0,0,0,0,0,0,0,0,0,0,0,0,0,0,0,0,0,0,0,0,0,0,0,0,0,0,0,0,0,0,0,0,0,0,0,0,0,0,0,0,0,0,0,0,0,0,0,0,0,0,0,0,0,0,0,0,0,0,0,0,0,0,0,0,0,0,0,0,0,0,0,0,0,0,0,0,0,0,0,0,0,0,0,0,0,0,0,0,0,0,0,0,0,0,0,0,0,0,0,0,0,
0,0,0,0,0,0,0,0,0,0,0,0,0,0,0,0,0,0,0,0,0,0,0,0,0,0,0,0,0,0,0,0,0,0,0,0,0,0,0,0,0,0,0,0,0,0,0,0,0,0,0,0,0,0,0,0,0,0,0,0,0,0,0,0,0,0,0,0,0,0,0,0,0,0,0,0,0,0,0,0,0,0,0,0,0,0,0,0,0,0,0,0,0,0,0,0,0,0,0,0,0,0,0,0,0,0,0,0,0,0,0,0,0,0,0,0,0,0,0,0,0,0,0,0,0,0,0,0,0,0,0,0,0,0,0,0,0,0,0,0,0,0,0,0,0,0,0,0,0,0,0,0,0,0,0,0,0,0,0,0,0,0,0,0,0,0,0,0,0,0,0,0,0,0,0,0,0,0,0,0,0,0,0,0,0,0,0,0,0,0,0,0,0,0,0,0,0,0,0,0,
0,0,0,0,0,0,0,0,0,0,0,0,0,0,0,0,0,0,0,0,0,0,0,0,0,0,0,0,0,0,0,0,0,0,0,0,0,0,0,0,0,0,0,0,0,0,0,0,0,0,0,0,0,0,0,0,0,0,0,0,0,0,0,0,0,0,0,0,0,0,0,0,0,0,0,0,0,0,0,0,0,0,0,0,0,0,0,0,0,0,0,0,0,0,0,0,0,0,0,0,0,0,0,0,0,0,0,0,0,0,0,0,0,0,0,0,0,0,0,0,0,0,0,0,0,0,0,0,0,0,0,0,0,0,0,0,0,0,0,0,0,0,0,0,0,0,0,0,0,0,0,0,0,0,0,0,0,0,0,0,0,0,0,0,0,0,0,0,0,0,0,0,0,0,0,0,0,0,0,0,0,0,0,0,0,0,0,0,0,0,0,0,0,0,0,0,0,0,0,0,
0,0,0,0,0,0,0,0,0,0,0,0,0,0,0,0,0,0,0,0,0,0,0,0,0,0,0,0,0,0,0,0,0,0,0,0,0,0,0,0,0,0,0,0,0,0,0,0,0,0,0,0,0,0,0,0,0,0,0,0,0,0,0,0,0,0,0,0,0,0,0,0,0,0,0,0,0,0,0,0,0,0,0,0,0,0,0,0,0,0,0,0,0,0,0,0,0,0,0,0,0,0,0,0,0,0,0,0,0,0,0,0,0,0,0,0,0,0,0,0,0,0,0,0,0,0,0,0,0,0,0,0,0,0,0,0,0,0,0,0,0,0,0,0,0,0,0,0,0,0,0,0,0,0,0,0,0,0,0,0,0,0,0,0,0,0,0,0,0,0,0,0,0,0,0,0,0,0,0,0,0,0,0,0,0,0,0,0,0,0,0,0,0,0,0,0,0,0,0,0,
0,0,0,0,0,0,0,0,0,0,0,0,0,0,0,0,0,0,0,0,0,0,0,0,0,0,0,0,0,0,0,0,0,0,0,0,0,0,0,0,0,0,0,0,0,0,0,0,0,0,0,0,0,0,0,0,0,0,0,0,0,0,0,0,0,0,0,0,0,0,0,0,0,0,0,0,0,0,0,0,0,0,0,0,0,0,0,0,0,0,0,0,0,0,0,0,0,0,0,0,0,0,0,0,0,0,0,0,0,0,0,0,0,0,0,0,0,0,0,0,0,0,0,0,0,0,0,0,0,0,0,0,0,0,0,0,0,0,0,0,0,0,0,0,0,0,0,0,0,0,0,0,0,0,0,0,0,0,0,0,0,0,0,0,0,0,0,0,0,0,0,0,0,0,0,0,0,0,0,0,0,0,0,0,0,0,0,0,0,0,0,0,0,0,0,0,0,0,0,0,
0,0,0,0,0,0,0,0,0,0,0,0,0,0,0,0,0,0,0,0,0,0,0,0,0,0,0,0,0,0,0,0,0,0,0,0,0,0,0,0,0,0,0,0,0,0,0,0,0,0,0,0,0,0,0,0,0,0,0,0,0,0,0,0,0,0,0,0,0,0,0,0,0,0,0,0,0,0,0,0,0,0,0,0,0,0,0,0,0,0,0,0,0,0,0,0,0,0,0,0,0,0,0,0,0,0,0,0,0,0,0,0,0,0,0,0,0,0,0,0,0,0,0,0,0,0,0,0,0,0,0,0,0,0,0,0,0,0,0,0,0,0,0,0,0,0,0,0,0,0,0,0,0,0,0,0,0,0,0,0,0,0,0,0,0,0,0,0,0,0,0,0,0,0,0,0,0,0,0,0,0,0,0,0,0,0,0,0,0,0,0,0,0,0,0,0,0,0,0,0,
0,0,0,0,0,0,0,0,0,0,0,0,0,0,0,0,0,0,0,0,0,0,0,0,0,0,0,0,0,0,0,0,0,0,0,0,0,0,0,0,0,0,0,0,0,0,0,0,0,0,0,0,0,0,0,0,0,0,0,0,0,0,0,0,0,0,0,0,0,0,0,0,0,0,0,0,0,0,0,0,0,0,0,0,0,0,0,0,0,0,0,0,0,0,0,0,0,0,0,0,0,0,0,0,0,0,0,0,0,0,0,0,0,0,0,0,0,0,0,0,0,0,0,0,0,0,0,0,0,0,0,0,0,0,0,0,0,0,0,0,0,0,0,0,0,0,0,0,0,0,0,0,0,0,0,0,0,0,0,0,0,0,0,0,0,0,0,0,0,0,0,0,0,0,0,0,0,0,0,0,0,0,0,0,0,0,0,0,0,0,0,0,0,0,0,0,0,0,0,0,
0,0,0,0,0,0,0,0,0,0,0,0,0,0,0,0,0,0,0,0,0,0,0,0,0,0,0,0,0,0,0,0,0,0,0,0,0,0,0,0,0,0,0,0,0,0,0,0,0,0,0,0,0,0,0,0,0,0,0,0,0,0,0,0,0,0,0,0,0,0,0,0,0,0,0,0,0,0,0,0,0,0,0,0,0,0,0,0,0,0,0,0,0,0,0,0,0,0,0,0,0,0,0,0,0,0,0,0,0,0,0,0,0,0,0,0,0,0,0,0,0,0,0,0,0,0,0,0,0,0,0,0,0,0,0,0,0,0,0,0,0,0,0,0,0,0,0,0,0,0,0,0,0,0,0,0,0,0,0,0,0,0,0,0,0,0,0,0,0,0,0,0,0,0,0,0,0,0,0,0,0,0,0,0,0,0,0,0,0,0,0,0,0,0,0,0,0,0,0,0,
0,0,0,0,0,0,0,0,0,0,0,0,0,0,0,0,0,0,0,0,0,0,0,0,0,0,0,0,0,0,0,0,0,0,0,0,0,0,0,0,0,0,0,0,0,0,0,0,0,0,0,0,0,0,0,0,0,0,0,0,0,0,0,0,0,0,0,0,0,0,0,0,0,0,0,0,0,0,0,0,0,0,0,0,0,0,0,0,0,0,0,0,0,0,0,0,0,0,0,0,0,0,0,0,0,0,0,0,0,0,0,0,0,0,0,0,0,0,0,0,0,0,0,0,0,0,0,0,0,0,0,0,0,0,0,0,0,0,0,0,0,0,0,0,0,0,0,0,0,0,0,0,0,0,0,0,0,0,0,0,0,0,0,0,0,0,0,0,0,0,0,0,0,0,0,0,0,0,0,0,0,0,0,0,0,0,0,0,0,0,0,0,0,0,0,0,0,0,0,0,
0,0,0,0,0,0,0,0,0,0,0,0,0,0,0,0,0,0,0,0,0,0,0,0,0,0,0,0,0,0,0,0,0,0,0,0,0,0,0,0,0,0,0,0,0,0,0,0,0,0,0,0,0,0,0,0,0,0,0,0,0,0,0,0,0,0,0,0,0,0,0,0,0,0,0,0,0,0,0,0,0,0,0,0,0,0,0,0,0,0,0,0,0,0,0,0,0,0,0,0,0,0,0,0,0,0,0,0,0,0,0,0,0,0,0,0,0,0,0,0,0,0,0,0,0,0,0,0,0,0,0,0,0,0,0,0,0,0,0,0,0,0,0,0,0,0,0,0,0,0,0,0,0,0,0,0,0,0,0,0,0,0,0,0,0,0,0,0,0,0,0,0,0,0,0,0,0,0,0,0,0,0,0,0,0,0,0,0,0,0,0,0,0,0,0,0,0,0,0,0,
0,0,0,0,0,0,0,0,0,0,0,0,0,0,0,0,0,0,0,0,0,0,0,0,0,0,0,0,0,0,0,0,0,0,0,0,0,0,0,0,0,0,0,0,0,0,0,0,0,0,0,0,0,0,0,0,0,0,0,0,0,0,0,0,0,0,0,0,0,0,0,0,0,0,0,0,0,0,0,0,0,0,0,0,0,0,0,0,0,0,0,0,0,0,0,0,0,0,0,0,0,0,0,0,0,0,0,0,0,0,0,0,0,0,0,0,0,0,0,0,0,0,0,0,0,0,0,0,0,0,0,0,0,0,0,0,0,0,0,0,0,0,0,0,0,0,0,0,0,0,0,0,0,0,0,0,0,0,0,0,0,0,0,0,0,0,0,0,0,0,0,0,0,0,0,0,0,0,0,0,0,0,0,0,0,0,0,0,0,0,0,0,0,0,0,0,0,0,0,0,
0,0,0,0,0,0,0,0,0,0,0,0,0,0,0,0,0,0,0,0,0,0,0,0,0,0,0,0,0,0,0,0,0,0,0,0,0,0,0,0,0,0,0,0,0,0,0,0,0,0,0,0,0,0,0,0,0,0,0,0,0,0,0,0,0,0,0,0,0,0,0,0,0,0,0,0,0,0,0,0,0,0,0,0,0,0,0,0,0,0,0,0,0,0,0,0,0,0,0,0,0,0,0,0,0,0,0,0,0,0,0,0,0,0,0,0,0,0,0,0,0,0,0,0,0,0,0,0,0,0,0,0,0,0,0,0,0,0,0,0,0,0,0,0,0,0,0,0,0,0,0,0,0,0,0,0,0,0,0,0,0,0,0,0,0,0,0,0,0,0,0,0,0,0,0,0,0,0,0,0,0,0,0,0,0,0,0,0,0,0,0,0,0,0,0,0,0,0,0,0,
0,0,0,0,0,0,0,0,0,0,0,0,0,0,0,0,0,0,0,0,0,0,0,0,0,0,0,0,0,0,0,0,0,0,0,0,0,0,0,0,0,0,0,0,0,0,0,0,0,0,0,0,0,0,0,0,0,0,0,0,0,0,0,0,0,0,0,0,0,0,0,0,0,0,0,0,0,0,0,0,0,0,0,0,0,0,0,0,0,0,0,0,0,0,0,0,0,0,0,0,0,0,0,0,0,0,0,0,0,0,0,0,0,0,0,0,0,0,0,0,0,0,0,0,0,0,0,0,0,0,0,0,0,0,0,0,0,0,0,0,0,0,0,0,0,0,0,0,0,0,0,0,0,0,0,0,0,0,0,0,0,0,0,0,0,0,0,0,0,0,0,0,0,0,0,0,0,0,0,0,0,0,0,0,0,0,0,0,0,0,0,0,0,0,0,0,0,0,0,0,
0,0,0,0,0,0,0,0,0,0,0,0,0,0,0,0,0,0,0,0,0,0,0,0,0,0,0,0,0,0,0,0,0,0,0,0,0,0,0,0,0,0,0,0,0,0,0,0,0,0,0,0,0,0,0,0,0,0,0,0,0,0,0,0,0,0,0,0,0,0,0,0,0,0,0,0,0,0,0,0,0,0,0,0,0,0,0,0,0,0,0,0,0,0,0,0,0,0,0,0,0,0,0,0,0,0,0,0,0,0,0,0,0,0,0,0,0,0,0,0,0,0,0,0,0,0,0,0,0,0,0,0,0,0,0,0,0,0,0,0,0,0,0,0,0,0,0,0,0,0,0,0,0,0,0,0,0,0,0,0,0,0,0,0,0,0,0,0,0,0,0,0,0,0,0,0,0,0,0,0,0,0,0,0,0,0,0,0,0,0,0,0,0,0,0,0,0,0,0,0,
0,0,0,0,0,0,0,0,0,0,0,0,0,0,0,0,0,0,0,0,0,0,0,0,0,0,0,0,0,0,0,0,0,0,0,0,0,0,0,0,0,0,0,0,0,0,0,0,0,0,0,0,0,0,0,0,0,0,0,0,0,0,0,0,0,0,0,0,0,0,0,0,0,0,0,0,0,0,0,0,0,0,0,0,0,0,0,0,0,0,0,0,0,0,0,0,0,0,0,0,0,0,0,0,0,0,0,0,0,0,0,0,0,0,0,0,0,0,0,0,0,0,0,0,0,0,0,0,0,0,0,0,0,0,0,0,0,0,0,0,0,0,0,0,0,0,0,0,0,0,0,0,0,0,0,0,0,0,0,0,0,0,0,0,0,0,0,0,0,0,0,0,0,0,0,0,0,0,0,0,0,0,0,0,0,0,0,0,0,0,0,0,0,0,0,0,0,0,0,0,
0,0,0,0,0,0,0,0,0,0,0,0,0,0,0,0,0,0,0,0,0,0,0,0,0,0,0,0,0,0,0,0,0,0,0,0,0,0,0,0,0,0,0,0,0,0,0,0,0,0,0,0,0,0,0,0,0,0,0,0,0,0,0,0,0,0,0,0,0,0,0,0,0,0,0,0,0,0,0,0,0,0,0,0,0,0,0,0,0,0,0,0,0,0,0,0,0,0,0,0,0,0,0,0,0,0,0,0,0,0,0,0,0,0,0,0,0,0,0,0,0,0,0,0,0,0,0,0,0,0,0,0,0,0,0,0,0,0,0,0,0,0,0,0,0,0,0,0,0,0,0,0,0,0,0,0,0,0,0,0,0,0,0,0,0,0,0,0,0,0,0,0,0,0,0,0,0,0,0,0,0,0,0,0,0,0,0,0,0,0,0,0,0,0,0,0,0,0,0,0,
0,0,0,0,0,0,0,0,0,0,0,0,0,0,0,0,0,0,0,0,0,0,0,0,0,0,0,0,0,0,0,0,0,0,0,0,0,0,0,0,0,0,0,0,0,0,0,0,0,0,0,0,0,0,0,0,0,0,0,0,0,0,0,0,0,0,0,0,0,0,0,0,0,0,0,0,0,0,0,0,0,0,0,0,0,0,0,0,0,0,0,0,0,0,0,0,0,0,0,0,0,0,0,0,0,0,0,0,0,0,0,0,0,0,0,0,0,0,0,0,0,0,0,0,0,0,0,0,0,0,0,0,0,0,0,0,0,0,0,0,0,0,0,0,0,0,0,0,0,0,0,0,0,0,0,0,0,0,0,0,0,0,0,0,0,0,0,0,0,0,0,0,0,0,0,0,0,0,0,0,0,0,0,0,0,0,0,0,0,0,0,0,0,0,0,0,0,0,0,0,
0,0,0,0,0,0,0,0,0,0,0,0,0,0,0,0,0,0,0,0,0,0,0,0,0,0,0,0,0,0,0,0,0,0,0,0,0,0,0,0,0,0,0,0,0,0,0,0,0,0,0,0,0,0,0,0,0,0,0,0,0,0,0,0,0,0,0,0,0,0,0,0,0,0,0,0,0,0,0,0,0,0,0,0,0,0,0,0,0,0,0,0,0,0,0,0,0,0,0,0,0,0,0,0,0,0,0,0,0,0,0,0,0,0,0,0,0,0,0,0,0,0,0,0,0,0,0,0,0,0,0,0,0,0,0,0,0,0,0,0,0,0,0,0,0,0,0,0,0,0,0,0,0,0,0,0,0,0,0,0,0,0,0,0,0,0,0,0,0,0,0,0,0,0,0,0,0,0,0,0,0,0,0,0,0,0,0,0,0,0,0,0,0,0,0,0,0,0,0,0,
0,0,0,0,0,0,0,0,0,0,0,0,0,0,0,0,0,0,0,0,0,0,0,0,0,0,0,0,0,0,0,0,0,0,0,0,0,0,0,0,0,0,0,0,0,0,0,0,0,0,0,0,0,0,0,0,0,0,0,0,0,0,0,0,0,0,0,0,0,0,0,0,0,0,0,0,0,0,0,0,0,0,0,0,0,0,0,0,0,0,0,0,0,0,0,0,0,0,0,0,0,0,0,0,0,0,0,0,0,0,0,0,0,0,0,0,0,0,0,0,0,0,0,0,0,0,0,0,0,0,0,0,0,0,0,0,0,0,0,0,0,0,0,0,0,0,0,0,0,0,0,0,0,0,0,0,0,0,0,0,0,0,0,0,0,0,0,0,0,0,0,0,0,0,0,0,0,0,0,0,0,0,0,0,0,0,0,0,0,0,0,0,0,0,0,0,0,0,0,0,
0,0,0,0,0,0,0,0,0,0,0,0,0,0,0,0,0,0,0,0,0,0,0,0,0,0,0,0,0,0,0,0,0,0,0,0,0,0,0,0,0,0,0,0,0,0,0,0,0,0,0,0,0,0,0,0,0,0,0,0,0,0,0,0,0,0,0,0,0,0,0,0,0,0,0,0,0,0,0,0,0,0,0,0,0,0,0,0,0,0,0,0,0,0,0,0,0,0,0,0,0,0,0,0,0,0,0,0,0,0,0,0,0,0,0,0,0,0,0,0,0,0,0,0,0,0,0,0,0,0,0,0,0,0,0,0,0,0,0,0,0,0,0,0,0,0,0,0,0,0,0,0,0,0,0,0,0,0,0,0,0,0,0,0,0,0,0,0,0,0,0,0,0,0,0,0,0,0,0,0,0,0,0,0,0,0,0,0,0,0,0,0,0,0,0,0,0,0,0,0,
0,0,0,0,0,0,0,0,0,0,0,0,0,0,0,0,0,0,0,0,0,0,0,0,0,0,0,0,0,0,0,0,0,0,0,0,0,0,0,0,0,0,0,0,0,0,0,0,0,0,0,0,0,0,0,0,0,0,0,0,0,0,0,0,0,0,0,0,0,0,0,0,0,0,0,0,0,0,0,0,0,0,0,0,0,0,0,0,0,0,0,0,0,0,0,0,0,0,0,0,0,0,0,0,0,0,0,0,0,0,0,0,0,0,0,0,0,0,0,0,0,0,0,0,0,0,0,0,0,0,0,0,0,0,0,0,0,0,0,0,0,0,0,0,0,0,0,0,0,0,0,0,0,0,0,0,0,0,0,0,0,0,0,0,0,0,0,0,0,0,0,0,0,0,0,0,0,0,0,0,0,0,0,0,0,0,0,0,0,0,0,0,0,0,0,0,0,0,0,0,
0,0,0,0,0,0,0,0,0,0,0,0,0,0,0,0,0,0,0,0,0,0,0,0,0,0,0,0,0,0,0,0,0,0,0,0,0,0,0,0,0,0,0,0,0,0,0,0,0,0,0,0,0,0,0,0,0,0,0,0,0,0,0,0,0,0,0,0,0,0,0,0,0,0,0,0,0,0,0,0,0,0,0,0,0,0,0,0,0,0,0,0,0,0,0,0,0,0,0,0,0,0,0,0,0,0,0,0,0,0,0,0,0,0,0,0,0,0,0,0,0,0,0,0,0,0,0,0,0,0,0,0,0,0,0,0,0,0,0,0,0,0,0,0,0,0,0,0,0,0,0,0,0,0,0,0,0,0,0,0,0,0,0,0,0,0,0,0,0,0,0,0,0,0,0,0,0,0,0,0,0,0,0,0,0,0,0,0,0,0,0,0,0,0,0,0,0,0,0,0,
0,0,0,0,0,0,0,0,0,0,0,0,0,0,0,0,0,0,0,0,0,0,0,0,0,0,0,0,0,0,0,0,0,0,0,0,0,0,0,0,0,0,0,0,0,0,0,0,0,0,0,0,0,0,0,0,0,0,0,0,0,0,0,0,0,0,0,0,0,0,0,0,0,0,0,0,0,0,0,0,0,0,0,0,0,0,0,0,0,0,0,0,0,0,0,0,0,0,0,0,0,0,0,0,0,0,0,0,0,0,0,0,0,0,0,0,0,0,0,0,0,0,0,0,0,0,0,0,0,0,0,0,0,0,0,0,0,0,0,0,0,0,0,0,0,0,0,0,0,0,0,0,0,0,0,0,0,0,0,0,0,0,0,0,0,0,0,0,0,0,0,0,0,0,0,0,0,0,0,0,0,0,0,0,0,0,0,0,0,0,0,0,0,0,0,0,0,0,0,0,
0,0,0,0,0,0,0,0,0,0,0,0,0,0,0,0,0,0,0,0,0,0,0,0,0,0,0,0,0,0,0,0,0,0,0,0,0,0,0,0,0,0,0,0,0,0,0,0,0,0,0,0,0,0,0,0,0,0,0,0,0,0,0,0,0,0,0,0,0,0,0,0,0,0,0,0,0,0,0,0,0,0,0,0,0,0,0,0,0,0,0,0,0,0,0,0,0,0,0,0,0,0,0,0,0,0,0,0,0,0,0,0,0,0,0,0,0,0,0,0,0,0,0,0,0,0,0,0,0,0,0,0,0,0,0,0,0,0,0,0,0,0,0,0,0,0,0,0,0,0,0,0,0,0,0,0,0,0,0,0,0,0,0,0,0,0,0,0,0,0,0,0,0,0,0,0,0,0,0,0,0,0,0,0,0,0,0,0,0,0,0,0,0,0,0,0,0,0,0,0,
0,0,0,0,0,0,0,0,0,0,0,0,0,0,0,0,0,0,0,0,0,0,0,0,0,0,0,0,0,0,0,0,0,0,0,0,0,0,0,0,0,0,0,0,0,0,0,0,0,0,0,0,0,0,0,0,0,0,0,0,0,0,0,0,0,0,0,0,0,0,0,0,0,0,0,0,0,0,0,0,0,0,0,0,0,0,0,0,0,0,0,0,0,0,0,0,0,0,0,0,0,0,0,0,0,0,0,0,0,0,0,0,0,0,0,0,0,0,0,0,0,0,0,0,0,0,0,0,0,0,0,0,0,0,0,0,0,0,0,0,0,0,0,0,0,0,0,0,0,0,0,0,0,0,0,0,0,0,0,0,0,0,0,0,0,0,0,0,0,0,0,0,0,0,0,0,0,0,0,0,0,0,0,0,0,0,0,0,0,0,0,0,0,0,0,0,0,0,0,0,
0,0,0,0,0,0,0,0,0,0,0,0,0,0,0,0,0,0,0,0,0,0,0,0,0,0,0,0,0,0,0,0,0,0,0,0,0,0,0,0,0,0,0,0,0,0,0,0,0,0,0,0,0,0,0,0,0,0,0,0,0,0,0,0,0,0,0,0,0,0,0,0,0,0,0,0,0,0,0,0,0,0,0,0,0,0,0,0,0,0,0,0,0,0,0,0,0,0,0,0,0,0,0,0,0,0,0,0,0,0,0,0,0,0,0,0,0,0,0,0,0,0,0,0,0,0,0,0,0,0,0,0,0,0,0,0,0,0,0,0,0,0,0,0,0,0,0,0,0,0,0,0,0,0,0,0,0,0,0,0,0,0,0,0,0,0,0,0,0,0,0,0,0,0,0,0,0,0,0,0,0,0,0,0,0,0,0,0,0,0,0,0,0,0,0,0,0,0,0,0,
0,0,0,0,0,0,0,0,0,0,0,0,0,0,0,0,0,0,0,0,0,0,0,0,0,0,0,0,0,0,0,0,0,0,0,0,0,0,0,0,0,0,0,0,0,0,0,0,0,0,0,0,0,0,0,0,0,0,0,0,0,0,0,0,0,0,0,0,0,0,0,0,0,0,0,0,0,0,0,0,0,0,0,0,0,0,0,0,0,0,0,0,0,0,0,0,0,0,0,0,0,0,0,0,0,0,0,0,0,0,0,0,0,0,0,0,0,0,0,0,0,0,0,0,0,0,0,0,0,0,0,0,0,0,0,0,0,0,0,0,0,0,0,0,0,0,0,0,0,0,0,0,0,0,0,0,0,0,0,0,0,0,0,0,0,0,0,0,0,0,0,0,0,0,0,0,0,0,0,0,0,0,0,0,0,0,0,0,0,0,0,0,0,0,0,0,0,0,0,0,
0,0,0,0,0,0,0,0,0,0,0,0,0,0,0,0,0,0,0,0,0,0,0,0,0,0,0,0,0,0,0,0,0,0,0,0,0,0,0,0,0,0,0,0,0,0,0,0,0,0,0,0,0,0,0,0,0,0,0,0,0,0,0,0,0,0,0,0,0,0,0,0,0,0,0,0,0,0,0,0,0,0,0,0,0,0,0,0,0,0,0,0,0,0,0,0,0,0,0,0,0,0,0,0,0,0,0,0,0,0,0,0,0,0,0,0,0,0,0,0,0,0,0,0,0,0,0,0,0,0,0,0,0,0,0,0,0,0,0,0,0,0,0,0,0,0,0,0,0,0,0,0,0,0,0,0,0,0,0,0,0,0,0,0,0,0,0,0,0,0,0,0,0,0,0,0,0,0,0,0,0,0,0,0,0,0,0,0,0,0,0,0,0,0,0,0,0,0,0,0,
0,0,0,0,0,0,0,0,0,0,0,0,0,0,0,0,0,0,0,0,0,0,0,0,0,0,0,0,0,0,0,0,0,0,0,0,0,0,0,0,0,0,0,0,0,0,0,0,0,0,0,0,0,0,0,0,0,0,0,0,0,0,0,0,0,0,0,0,0,0,0,0,0,0,0,0,0,0,0,0,0,0,0,0,0,0,0,0,0,0,0,0,0,0,0,0,0,0,0,0,0,0,0,0,0,0,0,0,0,0,0,0,0,0,0,0,0,0,0,0,0,0,0,0,0,0,0,0,0,0,0,0,0,0,0,0,0,0,0,0,0,0,0,0,0,0,0,0,0,0,0,0,0,0,0,0,0,0,0,0,0,0,0,0,0,0,0,0,0,0,0,0,0,0,0,0,0,0,0,0,0,0,0,0,0,0,0,0,0,0,0,0,0,0,0,0,0,0,0,0,
0,0,0,0,0,0,0,0,0,0,0,0,0,0,0,0,0,0,0,0,0,0,0,0,0,0,0,0,0,0,0,0,0,0,0,0,0,0,0,0,0,0,0,0,0,0,0,0,0,0,0,0,0,0,0,0,0,0,0,0,0,0,0,0,0,0,0,0,0,0,0,0,0,0,0,0,0,0,0,0,0,0,0,0,0,0,0,0,0,0,0,0,0,0,0,0,0,0,0,0,0,0,0,0,0,0,0,0,0,0,0,0,0,0,0,0,0,0,0,0,0,0,0,0,0,0,0,0,0,0,0,0,0,0,0,0,0,0,0,0,0,0,0,0,0,0,0,0,0,0,0,0,0,0,0,0,0,0,0,0,0,0,0,0,0,0,0,0,0,0,0,0,0,0,0,0,0,0,0,0,0,0,0,0,0,0,0,0,0,0,0,0,0,0,0,0,0,0,0,0,
0,0,0,0,0,0,0,0,0,0,0,0,0,0,0,0,0,0,0,0,0,0,0,0,0,0,0,0,0,0,0,0,0,0,0,0,0,0,0,0,0,0,0,0,0,0,0,0,0,0,0,0,0,0,0,0,0,0,0,0,0,0,0,0,0,0,0,0,0,0,0,0,0,0,0,0,0,0,0,0,0,0,0,0,0,0,0,0,0,0,0,0,0,0,0,0,0,0,0,0,0,0,0,0,0,0,0,0,0,0,0,0,0,0,0,0,0,0,0,0,0,0,0,0,0,0,0,0,0,0,0,0,0,0,0,0,0,0,0,0,0,0,0,0,0,0,0,0,0,0,0,0,0,0,0,0,0,0,0,0,0,0,0,0,0,0,0,0,0,0,0,0,0,0,0,0,0,0,0,0,0,0,0,0,0,0,0,0,0,0,0,0,0,0,0,0,0,0,0,0,
0,0,0,0,0,0,0,0,0,0,0,0,0,0,0,0,0,0,0,0,0,0,0,0,0,0,0,0,0,0,0,0,0,0,0,0,0,0,0,0,0,0,0,0,0,0,0,0,0,0,0,0,0,0,0,0,0,0,0,0,0,0,0,0,0,0,0,0,0,0,0,0,0,0,0,0,0,0,0,0,0,0,0,0,0,0,0,0,0,0,0,0,0,0,0,0,0,0,0,0,0,0,0,0,0,0,0,0,0,0,0,0,0,0,0,0,0,0,0,0,0,0,0,0,0,0,0,0,0,0,0,0,0,0,0,0,0,0,0,0,0,0,0,0,0,0,0,0,0,0,0,0,0,0,0,0,0,0,0,0,0,0,0,0,0,0,0,0,0,0,0,0,0,0,0,0,0,0,0,0,0,0,0,0,0,0,0,0,0,0,0,0,0,0,0,0,0,0,0,0,
0,0,0,0,0,0,0,0,0,0,0,0,0,0,0,0,0,0,0,0,0,0,0,0,0,0,0,0,0,0,0,0,0,0,0,0,0,0,0,0,0,0,0,0,0,0,0,0,0,0,0,0,0,0,0,0,0,0,0,0,0,0,0,0,0,0,0,0,0,0,0,0,0,0,0,0,0,0,0,0,0,0,0,0,0,0,0,0,0,0,0,0,0,0,0,0,0,0,0,0,0,0,0,0,0,0,0,0,0,0,0,0,0,0,0,0,0,0,0,0,0,0,0,0,0,0,0,0,0,0,0,0,0,0,0,0,0,0,0,0,0,0,0,0,0,0,0,0,0,0,0,0,0,0,0,0,0,0,0,0,0,0,0,0,0,0,0,0,0,0,0,0,0,0,0,0,0,0,0,0,0,0,0,0,0,0,0,0,0,0,0,0,0,0,0,0,0,0,0,0,
0,0,0,0,0,0,0,0,0,0,0,0,0,0,0,0,0,0,0,0,0,0,0,0,0,0,0,0,0,0,0,0,0,0,0,0,0,0,0,0,0,0,0,0,0,0,0,0,0,0,0,0,0,0,0,0,0,0,0,0,0,0,0,0,0,0,0,0,0,0,0,0,0,0,0,0,0,0,0,0,0,0,0,0,0,0,0,0,0,0,0,0,0,0,0,0,0,0,0,0,0,0,0,0,0,0,0,0,0,0,0,0,0,0,0,0,0,0,0,0,0,0,0,0,0,0,0,0,0,0,0,0,0,0,0,0,0,0,0,0,0,0,0,0,0,0,0,0,0,0,0,0,0,0,0,0,0,0,0,0,0,0,0,0,0,0,0,0,0,0,0,0,0,0,0,0,0,0,0,0,0,0,0,0,0,0,0,0,0,0,0,0,0,0,0,0,0,0,0,0,
0,0,0,0,0,0,0,0,0,0,0,0,0,0,0,0,0,0,0,0,0,0,0,0,0,0,0,0,0,0,0,0,0,0,0,0,0,0,0,0,0,0,0,0,0,0,0,0,0,0,0,0,0,0,0,0,0,0,0,0,0,0,0,0,0,0,0,0,0,0,0,0,0,0,0,0,0,0,0,0,0,0,0,0,0,0,0,0,0,0,0,0,0,0,0,0,0,0,0,0,0,0,0,0,0,0,0,0,0,0,0,0,0,0,0,0,0,0,0,0,0,0,0,0,0,0,0,0,0,0,0,0,0,0,0,0,0,0,0,0,0,0,0,0,0,0,0,0,0,0,0,0,0,0,0,0,0,0,0,0,0,0,0,0,0,0,0,0,0,0,0,0,0,0,0,0,0,0,0,0,0,0,0,0,0,0,0,0,0,0,0,0,0,0,0,0,0,0,0,0,
0,0,0,0,0,0,0,0,0,0,0,0,0,0,0,0,0,0,0,0,0,0,0,0,0,0,0,0,0,0,0,0,0,0,0,0,0,0,0,0,0,0,0,0,0,0,0,0,0,0,0,0,0,0,0,0,0,0,0,0,0,0,0,0,0,0,0,0,0,0,0,0,0,0,0,0,0,0,0,0,0,0,0,0,0,0,0,0,0,0,0,0,0,0,0,0,0,0,0,0,0,0,0,0,0,0,0,0,0,0,0,0,0,0,0,0,0,0,0,0,0,0,0,0,0,0,0,0,0,0,0,0,0,0,0,0,0,0,0,0,0,0,0,0,0,0,0,0,0,0,0,0,0,0,0,0,0,0,0,0,0,0,0,0,0,0,0,0,0,0,0,0,0,0,0,0,0,0,0,0,0,0,0,0,0,0,0,0,0,0,0,0,0,0,0,0,0,0,0,0,
0,0,0,0,0,0,0,0,0,0,0,0,0,0,0,0,0,0,0,0,0,0,0,0,0,0,0,0,0,0,0,0,0,0,0,0,0,0,0,0,0,0,0,0,0,0,0,0,0,0,0,0,0,0,0,0,0,0,0,0,0,0,0,0,0,0,0,0,0,0,0,0,0,0,0,0,0,0,0,0,0,0,0,0,0,0,0,0,0,0,0,0,0,0,0,0,0,0,0,0,0,0,0,0,0,0,0,0,0,0,0,0,0,0,0,0,0,0,0,0,0,0,0,0,0,0,0,0,0,0,0,0,0,0,0,0,0,0,0,0,0,0,0,0,0,0,0,0,0,0,0,0,0,0,0,0,0,0,0,0,0,0,0,0,0,0,0,0,0,0,0,0,0,0,0,0,0,0,0,0,0,0,0,0,0,0,0,0,0,0,0,0,0,0,0,0,0,0,0,0,
0,0,0,0,0,0,0,0,0,0,0,0,0,0,0,0,0,0,0,0,0,0,0,0,0,0,0,0,0,0,0,0,0,0,0,0,0,0,0,0,0,0,0,0,0,0,0,0,0,0,0,0,0,0,0,0,0,0,0,0,0,0,0,0,0,0,0,0,0,0,0,0,0,0,0,0,0,0,0,0,0,0,0,0,0,0,0,0,0,0,0,0,0,0,0,0,0,0,0,0,0,0,0,0,0,0,0,0,0,0,0,0,0,0,0,0,0,0,0,0,0,0,0,0,0,0,0,0,0,0,0,0,0,0,0,0,0,0,0,0,0,0,0,0,0,0,0,0,0,0,0,0,0,0,0,0,0,0,0,0,0,0,0,0,0,0,0,0,0,0,0,0,0,0,0,0,0,0,0,0,0,0,0,0,0,0,0,0,0,0,0,0,0,0,0,0,0,0,0,0,
0,0,0,0,0,0,0,0,0,0,0,0,0,0,0,0,0,0,0,0,0,0,0,0,0,0,0,0,0,0,0,0,0,0,0,0,0,0,0,0,0,0,0,0,0,0,0,0,0,0,0,0,0,0,0,0,0,0,0,0,0,0,0,0,0,0,0,0,0,0,0,0,0,0,0,0,0,0,0,0,0,0,0,0,0,0,0,0,0,0,0,0,0,0,0,0,0,0,0,0,0,0,0,0,0,0,0,0,0,0,0,0,0,0,0,0,0,0,0,0,0,0,0,0,0,0,0,0,0,0,0,0,0,0,0,0,0,0,0,0,0,0,0,0,0,0,0,0,0,0,0,0,0,0,0,0,0,0,0,0,0,0,0,0,0,0,0,0,0,0,0,0,0,0,0,0,0,0,0,0,0,0,0,0,0,0,0,0,0,0,0,0,0,0,0,0,0,0,0,0,
0,0,0,0,0,0,0,0,0,0,0,0,0,0,0,0,0,0,0,0,0,0,0,0,0,0,0,0,0,0,0,0,0,0,0,0,0,0,0,0,0,0,0,0,0,0,0,0,0,0,0,0,0,0,0,0,0,0,0,0,0,0,0,0,0,0,0,0,0,0,0,0,0,0,0,0,0,0,0,0,0,0,0,0,0,0,0,0,0,0,0,0,0,0,0,0,0,0,0,0,0,0,0,0,0,0,0,0,0,0,0,0,0,0,0,0,0,0,0,0,0,0,0,0,0,0,0,0,0,0,0,0,0,0,0,0,0,0,0,0,0,0,0,0,0,0,0,0,0,0,0,0,0,0,0,0,0,0,0,0,0,0,0,0,0,0,0,0,0,0,0,0,0,0,0,0,0,0,0,0,0,0,0,0,0,0,0,0,0,0,0,0,0,0,0,0,0,0,0,0,
0,0,0,0,0,0,0,0,0,0,0,0,0,0,0,0,0,0,0,0,0,0,0,0,0,0,0,0,0,0,0,0,0,0,0,0,0,0,0,0,0,0,0,0,0,0,0,0,0,0,0,0,0,0,0,0,0,0,0,0,0,0,0,0,0,0,0,0,0,0,0,0,0,0,0,0,0,0,0,0,0,0,0,0,0,0,0,0,0,0,0,0,0,0,0,0,0,0,0,0,0,0,0,0,0,0,0,0,0,0,0,0,0,0,0,0,0,0,0,0,0,0,0,0,0,0,0,0,0,0,0,0,0,0,0,0,0,0,0,0,0,0,0,0,0,0,0,0,0,0,0,0,0,0,0,0,0,0,0,0,0,0,0,0,0,0,0,0,0,0,0,0,0,0,0,0,0,0,0,0,0,0,0,0,0,0,0,0,0,0,0,0,0,0,0,0,0,0,0,0,
0,0,0,0,0,0,0,0,0,0,0,0,0,0,0,0,0,0,0,0,0,0,0,0,0,0,0,0,0,0,0,0,0,0,0,0,0,0,0,0,0,0,0,0,0,0,0,0,0,0,0,0,0,0,0,0,0,0,0,0,0,0,0,0,0,0,0,0,0,0,0,0,0,0,0,0,0,0,0,0,0,0,0,0,0,0,0,0,0,0,0,0,0,0,0,0,0,0,0,0,0,0,0,0,0,0,0,0,0,0,0,0,0,0,0,0,0,0,0,0,0,0,0,0,0,0,0,0,0,0,0,0,0,0,0,0,0,0,0,0,0,0,0,0,0,0,0,0,0,0,0,0,0,0,0,0,0,0,0,0,0,0,0,0,0,0,0,0,0,0,0,0,0,0,0,0,0,0,0,0,0,0,0,0,0,0,0,0,0,0,0,0,0,0,0,0,0,0,0,0,
0,0,0,0,0,0,0,0,0,0,0,0,0,0,0,0,0,0,0,0,0,0,0,0,0,0,0,0,0,0,0,0,0,0,0,0,0,0,0,0,0,0,0,0,0,0,0,0,0,0,0,0,0,0,0,0,0,0,0,0,0,0,0,0,0,0,0,0,0,0,0,0,0,0,0,0,0,0,0,0,0,0,0,0,0,0,0,0,0,0,0,0,0,0,0,0,0,0,0,0,0,0,0,0,0,0,0,0,0,0,0,0,0,0,0,0,0,0,0,0,0,0,0,0,0,0,0,0,0,0,0,0,0,0,0,0,0,0,0,0,0,0,0,0,0,0,0,0,0,0,0,0,0,0,0,0,0,0,0,0,0,0,0,0,0,0,0,0,0,0,0,0,0,0,0,0,0,0,0,0,0,0,0,0,0,0,0,0,0,0,0,0,0,0,0,0,0,0,0,0,
0,0,0,0,0,0,0,0,0,0,0,0,0,0,0,0,0,0,0,0,0,0,0,0,0,0,0,0,0,0,0,0,0,0,0,0,0,0,0,0,0,0,0,0,0,0,0,0,0,0,0,0,0,0,0,0,0,0,0,0,0,0,0,0,0,0,0,0,0,0,0,0,0,0,0,0,0,0,0,0,0,0,0,0,0,0,0,0,0,0,0,0,0,0,0,0,0,0,0,0,0,0,0,0,0,0,0,0,0,0,0,0,0,0,0,0,0,0,0,0,0,0,0,0,0,0,0,0,0,0,0,0,0,0,0,0,0,0,0,0,0,0,0,0,0,0,0,0,0,0,0,0,0,0,0,0,0,0,0,0,0,0,0,0,0,0,0,0,0,0,0,0,0,0,0,0,0,0,0,0,0,0,0,0,0,0,0,0,0,0,0,0,0,0,0,0,0,0,0,0,
0,0,0,0,0,0,0,0,0,0,0,0,0,0,0,0,0,0,0,0,0,0,0,0,0,0,0,0,0,0,0,0,0,0,0,0,0,0,0,0,0,0,0,0,0,0,0,0,0,0,0,0,0,0,0,0,0,0,0,0,0,0,0,0,0,0,0,0,0,0,0,0,0,0,0,0,0,0,0,0,0,0,0,0,0,0,0,0,0,0,0,0,0,0,0,0,0,0,0,0,0,0,0,0,0,0,0,0,0,0,0,0,0,0,0,0,0,0,0,0,0,0,0,0,0,0,0,0,0,0,0,0,0,0,0,0,0,0,0,0,0,0,0,0,0,0,0,0,0,0,0,0,0,0,0,0,0,0,0,0,0,0,0,0,0,0,0,0,0,0,0,0,0,0,0,0,0,0,0,0,0,0,0,0,0,0,0,0,0,0,0,0,0,0,0,0,0,0,0,0,
0,0,0,0,0,0,0,0,0,0,0,0,0,0,0,0,0,0,0,0,0,0,0,0,0,0,0,0,0,0,0,0,0,0,0,0,0,0,0,0,0,0,0,0,0,0,0,0,0,0,0,0,0,0,0,0,0,0,0,0,0,0,0,0,0,0,0,0,0,0,0,0,0,0,0,0,0,0,0,0,0,0,0,0,0,0,0,0,0,0,0,0,0,0,0,0,0,0,0,0,0,0,0,0,0,0,0,0,0,0,0,0,0,0,0,0,0,0,0,0,0,0,0,0,0,0,0,0,0,0,0,0,0,0,0,0,0,0,0,0,0,0,0,0,0,0,0,0,0,0,0,0,0,0,0,0,0,0,0,0,0,0,0,0,0,0,0,0,0,0,0,0,0,0,0,0,0,0,0,0,0,0,0,0,0,0,0,0,0,0,0,0,0,0,0,0,0,0,0,0,
0,0,0,0,0,0,0,0,0,0,0,0,0,0,0,0,0,0,0,0,0,0,0,0,0,0,0,0,0,0,0,0,0,0,0,0,0,0,0,0,0,0,0,0,0,0,0,0,0,0,0,0,0,0,0,0,0,0,0,0,0,0,0,0,0,0,0,0,0,0,0,0,0,0,0,0,0,0,0,0,0,0,0,0,0,0,0,0,0,0,0,0,0,0,0,0,0,0,0,0,0,0,0,0,0,0,0,0,0,0,0,0,0,0,0,0,0,0,0,0,0,0,0,0,0,0,0,0,0,0,0,0,0,0,0,0,0,0,0,0,0,0,0,0,0,0,0,0,0,0,0,0,0,0,0,0,0,0,0,0,0,0,0,0,0,0,0,0,0,0,0,0,0,0,0,0,0,0,0,0,0,0,0,0,0,0,0,0,0,0,0,0,0,0,0,0,0,0,0,0,
0,0,0,0,0,0,0,0,0,0,0,0,0,0,0,0,0,0,0,0,0,0,0,0,0,0,0,0,0,0,0,0,0,0,0,0,0,0,0,0,0,0,0,0,0,0,0,0,0,0,0,0,0,0,0,0,0,0,0,0,0,0,0,0,0,0,0,0,0,0,0,0,0,0,0,0,0,0,0,0,0,0,0,0,0,0,0,0,0,0,0,0,0,0,0,0,0,0,0,0,0,0,0,0,0,0,0,0,0,0,0,0,0,0,0,0,0,0,0,5699,5700,5701,5700,5701,5702,5703,5704,0,0,0,0,0,0,0,0,0,0,0,0,0,0,0,0,0,0,0,0,0,0,0,0,0,0,0,0,0,0,0,0,0,0,0,0,0,0,0,0,0,0,0,0,0,0,0,0,0,0,0,0,0,0,0,0,0,0,0,0,0,0,0,0,0,0,0,0,0,0,0,0,0,
0,0,0,0,0,0,0,0,0,0,0,0,0,0,0,0,0,0,0,0,0,0,0,0,0,0,0,0,0,0,0,0,0,0,0,0,0,0,0,0,0,0,0,0,0,0,0,0,0,0,0,0,0,0,0,0,0,0,0,0,0,0,0,0,0,0,0,0,0,0,0,0,0,0,0,0,0,0,0,0,0,0,0,0,0,0,0,0,0,0,0,0,0,0,0,0,0,0,0,0,0,0,0,0,0,0,0,0,0,0,0,0,0,0,0,0,0,0,0,5731,0,0,0,0,0,0,5800,0,0,0,0,0,0,0,0,0,0,0,0,0,0,0,0,0,0,0,0,0,0,0,0,0,0,0,0,0,0,0,0,0,0,0,0,0,0,0,0,0,0,0,0,0,0,0,0,0,0,0,0,0,0,0,0,0,0,0,0,0,0,0,0,0,0,0,0,0,0,0,0,0,
0,0,0,0,0,0,0,0,0,0,0,0,0,0,0,0,0,0,0,0,0,0,0,0,0,0,0,0,0,0,0,0,0,0,0,0,0,0,0,0,0,0,0,0,0,0,0,0,0,0,0,0,0,0,0,0,0,0,0,0,0,0,0,0,0,0,0,0,0,0,0,0,0,0,0,0,0,0,0,0,0,0,0,0,0,0,0,0,0,0,0,0,0,0,0,0,0,0,0,0,0,0,0,0,0,0,0,0,0,0,0,0,0,0,0,0,0,0,0,5763,0,0,0,0,0,0,5800,0,0,0,0,0,0,0,0,0,0,0,0,0,0,0,0,0,0,0,0,0,0,0,0,0,0,0,0,0,0,0,0,0,0,0,0,0,0,0,0,0,0,0,0,0,0,0,0,0,0,0,0,0,0,0,0,0,0,0,0,0,0,0,0,0,0,0,0,0,0,0,0,0,
0,0,0,0,0,0,0,0,0,0,0,0,0,0,0,0,0,0,0,0,0,0,0,0,0,0,0,0,0,0,0,0,0,0,0,0,0,0,0,0,0,0,0,0,0,0,0,0,0,0,0,0,0,0,0,0,0,0,0,0,0,0,0,0,0,0,0,0,0,0,0,0,0,0,0,0,0,0,0,0,0,0,0,0,0,0,0,0,0,0,0,0,0,0,0,0,0,0,0,0,0,0,0,0,0,0,0,0,0,0,0,0,0,0,0,0,0,0,0,5795,0,0,0,0,0,0,5800,0,0,0,0,0,0,0,0,0,0,0,0,0,0,0,0,0,0,0,0,0,0,0,0,0,0,0,0,0,0,0,0,0,0,0,0,0,0,0,0,0,0,0,0,0,0,0,0,0,0,0,0,0,0,0,0,0,0,0,0,0,0,0,0,0,0,0,0,0,0,0,0,0,
0,0,0,0,0,0,0,0,0,0,0,0,0,0,0,0,0,0,0,0,0,0,0,0,0,0,0,0,0,0,0,0,0,0,0,0,0,0,0,0,0,0,0,0,0,0,0,0,0,0,0,0,0,0,0,0,0,0,0,0,0,0,0,0,0,0,0,0,0,0,0,0,0,0,0,0,0,0,0,0,0,0,0,0,0,0,0,0,0,0,0,0,0,0,0,0,0,0,0,0,0,0,0,0,0,0,0,0,0,0,0,0,0,0,0,0,0,0,0,5827,6029,6030,6029,6030,6029,6030,5832,0,0,0,0,0,0,0,0,0,0,0,0,0,0,0,0,0,0,0,0,0,0,0,0,0,0,0,0,0,0,0,0,0,0,0,0,0,0,0,0,0,0,0,0,0,0,0,0,0,0,0,0,0,0,0,0,0,0,0,0,0,0,0,0,0,0,0,0,0,0,0,0,0,
0,0,0,0,0,0,0,0,0,0,0,0,0,0,0,0,0,0,0,0,0,0,0,0,0,0,0,0,0,0,0,0,0,0,0,0,0,0,0,0,0,0,0,0,0,0,0,0,0,0,0,0,0,0,0,0,0,0,0,0,0,0,0,0,0,0,0,0,0,0,0,0,0,0,0,0,0,0,0,0,0,0,0,0,0,0,0,0,0,0,0,0,0,0,0,0,0,0,0,0,0,0,0,0,0,0,0,0,0,0,0,0,0,0,0,0,0,0,0,5859,6061,6062,6061,6062,6061,6062,5864,0,0,0,0,0,0,0,0,0,0,0,0,0,0,0,0,0,0,0,0,0,0,0,0,0,0,0,0,0,0,0,0,0,0,0,0,0,0,0,0,0,0,0,0,0,0,0,0,0,0,0,0,0,0,0,0,0,0,0,0,0,0,0,0,0,0,0,0,0,0,0,0,0,
0,0,0,0,0,0,0,0,0,0,0,0,0,0,0,0,0,0,0,0,0,0,0,0,0,0,0,0,0,0,0,0,0,0,0,0,0,0,0,0,0,0,0,0,0,0,0,0,0,0,0,0,0,0,0,0,0,0,0,0,0,0,0,0,0,0,0,0,0,0,0,0,0,0,0,0,0,0,0,0,0,0,0,0,0,0,0,0,0,0,0,0,0,0,0,0,0,0,0,0,0,0,0,0,0,0,0,0,0,0,0,0,0,0,0,0,0,0,0,5891,6093,6094,6093,6094,6093,6094,5896,0,0,0,0,0,0,0,0,0,0,0,0,0,0,0,0,0,0,0,0,0,0,0,0,0,0,0,0,0,0,0,0,0,0,0,0,0,0,0,0,0,0,0,0,0,0,0,0,0,0,0,0,0,0,0,0,0,0,0,0,0,0,0,0,0,0,0,0,0,0,0,0,0,
0,0,0,0,0,0,0,0,0,0,0,0,0,0,0,0,0,0,0,0,0,0,0,0,0,0,0,0,0,0,0,0,0,0,0,0,0,0,0,0,0,0,0,0,0,0,0,0,0,0,0,0,0,0,0,0,0,0,0,0,0,0,0,0,0,0,0,0,0,0,0,0,0,0,0,0,0,0,0,0,0,0,0,0,0,0,0,0,0,0,0,0,0,0,0,0,0,0,0,0,0,0,0,0,0,0,0,0,0,0,0,0,0,0,0,0,0,0,0,5923,6125,6126,6125,6126,6125,6126,5928,0,0,0,0,0,0,0,0,0,0,0,0,0,0,0,0,0,0,0,0,0,0,0,0,0,0,0,0,0,0,0,0,0,0,0,0,0,0,0,0,0,0,0,0,0,0,0,0,0,0,0,0,0,0,0,0,0,0,0,0,0,0,0,0,0,0,0,0,0,0,0,0,0,
0,0,0,0,0,0,0,0,0,0,0,0,0,0,0,0,0,0,0,0,0,0,0,0,0,0,0,0,0,0,0,0,0,0,0,0,0,0,0,0,0,0,0,0,0,0,0,0,0,0,0,0,0,0,0,0,0,0,0,0,0,0,0,0,0,0,0,0,0,0,0,0,0,0,0,0,0,0,0,0,0,0,0,0,0,0,0,0,0,0,0,0,0,0,0,0,0,0,0,0,0,0,0,0,0,0,0,0,0,0,0,0,0,0,0,0,0,0,0,0,0,0,0,0,0,0,5960,0,0,0,0,0,0,0,0,0,0,0,0,0,0,0,0,0,0,0,0,0,0,0,0,0,0,0,0,0,0,0,0,0,0,0,0,0,0,0,0,0,0,0,0,0,0,0,0,0,0,0,0,0,0,0,0,0,0,0,0,0,0,0,0,0,0,0,0,0,0,0,0,0,
0,0,0,0,0,0,0,0,0,0,0,0,0,0,0,0,0,0,0,0,0,0,0,0,0,0,0,0,0,0,0,0,0,0,0,0,0,0,0,0,0,0,0,0,0,0,0,0,0,0,0,0,0,0,0,0,0,0,0,0,0,0,0,0,0,0,0,0,0,0,0,0,0,0,0,0,0,0,0,0,0,0,0,0,0,0,0,0,0,0,0,0,0,0,0,0,0,0,0,0,0,0,0,0,0,0,0,0,0,0,0,0,0,0,0,0,0,0,0,0,0,0,0,0,0,0,0,0,0,0,0,0,0,0,0,0,0,0,0,0,0,0,0,0,0,0,0,0,0,0,0,0,0,0,0,0,0,0,0,0,0,0,0,0,0,0,0,0,0,0,0,0,0,0,0,0,0,0,0,0,0,0,0,0,0,0,0,0,0,0,0,0,0,0,0,0,0,0,0,0,
0,0,0,0,0,0,0,0,0,0,0,0,0,0,0,0,0,0,0,0,0,0,0,0,0,0,0,0,0,0,0,0,0,0,0,0,0,0,0,0,0,0,0,0,0,0,0,0,0,0,0,0,0,0,0,0,0,0,0,0,0,0,0,0,0,0,0,0,0,0,0,0,0,0,0,0,0,0,0,0,0,0,0,0,0,0,0,0,0,0,0,0,0,0,0,0,0,0,0,0,0,0,0,0,0,0,0,0,0,0,0,0,0,0,0,0,0,0,0,0,0,0,0,0,0,0,0,0,0,0,0,0,0,0,0,0,0,0,0,0,0,0,0,0,0,0,0,0,0,0,0,0,0,0,0,0,0,0,0,0,0,0,0,0,0,0,0,0,0,0,0,0,0,0,0,0,0,0,0,0,0,0,0,0,0,0,0,0,0,0,0,0,0,0,0,0,0,0,0,0,
0,0,0,0,0,0,0,0,0,0,0,0,0,0,0,0,0,0,0,0,0,0,0,0,0,0,0,0,0,0,0,0,0,0,0,0,0,0,0,0,0,0,0,0,0,0,0,0,0,0,0,0,0,0,0,0,0,0,0,0,0,0,0,0,0,0,0,0,0,0,0,0,0,0,0,0,0,0,0,0,0,0,0,0,0,0,0,0,0,0,0,0,0,0,0,0,0,0,0,0,0,0,0,0,0,0,0,0,0,0,0,0,0,0,0,0,0,0,0,0,0,0,0,0,0,0,0,0,0,0,0,0,0,0,0,0,0,0,0,0,0,0,0,0,0,0,0,0,0,0,0,0,0,0,0,0,0,0,0,0,0,0,0,0,0,0,0,0,0,0,0,0,0,0,0,0,0,0,0,0,0,0,0,0,0,0,0,0,0,0,0,0,0,0,0,0,0,0,0,0,
0,0,0,0,0,0,0,0,0,0,0,0,0,0,0,0,0,0,0,0,0,0,0,0,0,0,0,0,0,0,0,0,0,0,0,0,0,0,0,0,0,0,0,0,0,0,0,0,0,0,0,0,0,0,0,0,0,0,0,0,0,0,0,0,0,0,0,0,0,0,0,0,0,0,0,0,0,0,0,0,0,0,0,0,0,0,0,0,0,0,0,0,0,0,0,0,0,0,0,0,0,0,0,0,0,0,0,0,0,0,0,0,0,0,0,0,0,0,0,0,0,0,0,0,0,0,0,0,0,0,0,0,0,0,0,0,0,0,0,0,0,0,0,0,0,0,0,0,0,0,0,0,0,0,0,0,0,0,0,0,0,0,0,0,0,0,0,0,0,0,0,0,0,0,0,0,0,0,0,0,0,0,0,0,0,0,0,0,0,0,0,0,0,0,0,0,0,0,0,0,
0,0,0,0,0,0,0,0,0,0,0,0,0,0,0,0,0,0,0,0,0,0,0,0,0,0,0,0,0,0,0,0,0,0,0,0,0,0,0,0,0,0,0,0,0,0,0,0,0,0,0,0,0,0,0,0,0,0,0,0,0,0,0,0,0,0,0,0,0,0,0,0,0,0,0,0,0,0,0,0,0,0,0,0,0,0,0,0,0,0,0,0,0,0,0,0,0,0,0,0,0,0,0,0,0,0,0,0,0,0,0,0,0,0,0,0,0,0,0,0,0,0,0,0,0,0,0,0,0,0,0,0,0,0,0,0,0,0,0,0,0,0,0,0,0,0,0,0,0,0,0,0,0,0,0,0,0,0,0,0,0,0,0,0,0,0,0,0,0,0,0,0,0,0,0,0,0,0,0,0,0,0,0,0,0,0,0,0,0,0,0,0,0,0,0,0,0,0,0,0,
0,0,0,0,0,0,0,0,0,0,0,0,0,0,0,0,0,0,0,0,0,0,0,0,0,0,0,0,0,0,0,0,0,0,0,0,0,0,0,0,0,0,0,0,0,0,0,0,0,0,0,0,0,0,0,0,0,0,0,0,0,0,0,0,0,0,0,0,0,0,0,0,0,0,0,0,0,0,0,0,0,0,0,0,0,0,0,0,0,0,0,0,0,0,0,0,0,0,0,0,0,0,0,0,0,0,0,0,0,0,0,0,0,0,0,0,0,0,0,0,0,0,0,0,0,0,0,0,0,0,0,0,0,0,0,0,0,0,0,0,0,0,0,0,0,0,0,0,0,0,0,0,0,0,0,0,0,0,0,0,0,0,0,0,0,0,0,0,0,0,0,0,0,0,0,0,0,0,0,0,0,0,0,0,0,0,0,0,0,0,0,0,0,0,0,0,0,0,0,0,
0,0,0,0,0,0,0,0,0,0,0,0,0,0,0,0,0,0,0,0,0,0,0,0,0,0,0,0,0,0,0,0,0,0,0,0,0,0,0,0,0,0,0,0,0,0,0,0,0,0,0,0,0,0,0,0,0,0,0,0,0,0,0,0,0,0,0,0,0,0,0,0,0,0,0,0,0,0,0,0,0,0,0,0,0,0,0,0,0,0,0,0,0,0,0,0,0,0,0,0,0,0,0,0,0,0,0,0,0,0,0,0,0,0,0,0,0,0,0,0,0,0,0,0,0,0,0,0,0,0,0,0,0,0,0,0,0,0,0,0,0,0,0,0,0,0,0,0,0,0,0,0,0,0,0,0,0,0,0,0,0,0,0,0,0,0,0,0,0,0,0,0,0,0,0,0,0,0,0,0,0,0,0,0,0,0,0,0,0,0,0,0,0,0,0,0,0,0,0,0,
0,0,0,0,0,0,0,0,0,0,0,0,0,0,0,0,0,0,0,0,0,0,0,0,0,0,0,0,0,0,0,0,0,0,0,0,0,0,0,0,0,0,0,0,0,0,0,0,0,0,0,0,0,0,0,0,0,0,0,0,0,0,0,0,0,0,0,0,0,0,0,0,0,0,0,0,0,0,0,0,0,0,0,0,0,0,0,0,0,0,0,0,0,0,0,0,0,0,0,0,0,0,0,0,0,0,0,0,0,0,0,0,0,0,0,0,0,0,0,0,0,0,0,0,0,0,0,0,0,0,0,0,0,0,0,0,0,0,0,0,0,0,0,0,0,0,0,0,0,0,0,0,0,0,0,0,0,0,0,0,0,0,0,0,0,0,0,0,0,0,0,0,0,0,0,0,0,0,0,0,0,0,0,0,0,0,0,0,0,0,0,0,0,0,0,0,0,0,0,0,
0,0,0,0,0,0,0,0,0,0,0,0,0,0,0,0,0,0,0,0,0,0,0,0,0,0,0,0,0,0,0,0,0,0,0,0,0,0,0,0,0,0,0,0,0,0,0,0,0,0,0,0,0,0,0,0,0,0,0,0,0,0,0,0,0,0,0,0,0,0,0,0,0,0,0,0,0,0,0,0,0,0,0,0,0,0,0,0,0,0,0,0,0,0,0,0,0,0,0,0,0,0,0,0,0,0,0,0,0,0,0,0,0,0,0,0,0,0,0,0,0,0,0,0,0,0,0,0,0,0,0,0,0,0,0,0,0,0,0,0,0,0,0,0,0,0,0,0,0,0,0,0,0,0,0,0,0,0,0,0,0,0,0,0,0,0,0,0,0,0,0,0,0,0,0,0,0,0,0,0,0,0,0,0,0,0,0,0,0,0,0,0,0,0,0,0,0,0,0,0,
0,0,0,0,0,0,0,0,0,0,0,0,0,0,0,0,0,0,0,0,0,0,0,0,0,0,0,0,0,0,0,0,0,0,0,0,0,0,0,0,0,0,0,0,0,0,0,0,0,0,0,0,0,0,0,0,0,0,0,0,0,0,0,0,0,0,0,0,0,0,0,0,0,0,0,0,0,0,0,0,0,0,0,0,0,0,0,0,0,0,0,0,0,0,0,0,0,0,0,0,0,0,0,0,0,0,0,0,0,0,0,0,0,0,0,0,0,0,0,0,0,0,0,0,0,0,0,0,0,0,0,0,0,0,0,0,0,0,0,0,0,0,0,0,0,0,0,0,0,0,0,0,0,0,0,0,0,0,0,0,0,0,0,0,0,0,0,0,0,0,0,0,0,0,0,0,0,0,0,0,0,0,0,0,0,0,0,0,0,0,0,0,0,0,0,0,0,0,0,0,
0,0,0,0,0,0,0,0,0,0,0,0,0,0,0,0,0,0,0,0,0,0,0,0,0,0,0,0,0,0,0,0,0,0,0,0,0,0,0,0,0,0,0,0,0,0,0,0,0,0,0,0,0,0,0,0,0,0,0,0,0,0,0,0,0,0,0,0,0,0,0,0,0,0,0,0,0,0,0,0,0,0,0,0,0,0,0,0,0,0,0,0,0,0,0,0,0,0,0,0,0,0,0,0,0,0,0,0,0,0,0,0,0,0,0,0,0,0,0,0,0,0,0,0,0,0,0,0,0,0,0,0,0,0,0,0,0,0,0,0,0,0,0,0,0,0,0,0,0,0,0,0,0,0,0,0,0,0,0,0,0,0,0,0,0,0,0,0,0,0,0,0,0,0,0,0,0,0,0,0,0,0,0,0,0,0,0,0,0,0,0,0,0,0,0,0,0,0,0,0,
0,0,0,0,0,0,0,0,0,0,0,0,0,0,0,0,0,0,0,0,0,0,0,0,0,0,0,0,0,0,0,0,0,0,0,0,0,0,0,0,0,0,0,0,0,0,0,0,0,0,0,0,0,0,0,0,0,0,0,0,0,0,0,0,0,0,0,0,0,0,0,0,0,0,0,0,0,0,0,0,0,0,0,0,0,0,0,0,0,0,0,0,0,0,0,0,0,0,0,0,0,0,0,0,0,0,0,0,0,0,0,0,0,0,0,0,0,0,0,0,0,0,0,0,0,0,0,0,0,0,0,0,0,0,0,0,0,0,0,0,0,0,0,0,0,0,0,0,0,0,0,0,0,0,0,0,0,0,0,0,0,0,0,0,0,0,0,0,0,0,0,0,0,0,0,0,0,0,0,0,0,0,0,0,0,0,0,0,0,0,0,0,0,0,0,0,0,0,0,0,
0,0,0,0,0,0,0,0,0,0,0,0,0,0,0,0,0,0,0,0,0,0,0,0,0,0,0,0,0,0,0,0,0,0,0,0,0,0,0,0,0,0,0,0,0,0,0,0,0,0,0,0,0,0,0,0,0,0,0,0,0,0,0,0,0,0,0,0,0,0,0,0,0,0,0,0,0,0,0,0,0,0,0,0,0,0,0,0,0,0,0,0,0,0,0,0,0,0,0,0,0,0,0,0,0,0,0,0,0,0,0,0,0,0,0,0,0,0,0,0,0,0,0,0,0,0,0,0,0,0,0,0,0,0,0,0,0,0,0,0,0,0,0,0,0,0,0,0,0,0,0,0,0,0,0,0,0,0,0,0,0,0,0,0,0,0,0,0,0,0,0,0,0,0,0,0,0,0,0,0,0,0,0,0,0,0,0,0,0,0,0,0,0,0,0,0,0,0,0,0,
0,0,0,0,0,0,0,0,0,0,0,0,0,0,0,0,0,0,0,0,0,0,0,0,0,0,0,0,0,0,0,0,0,0,0,0,0,0,0,0,0,0,0,0,0,0,0,0,0,0,0,0,0,0,0,0,0,0,0,0,0,0,0,0,0,0,0,0,0,0,0,0,0,0,0,0,0,0,0,0,0,0,0,0,0,0,0,0,0,0,0,0,0,0,0,0,0,0,0,0,0,0,0,0,0,0,0,0,0,0,0,0,0,0,0,0,0,0,0,0,0,0,0,0,0,0,0,0,0,0,0,0,0,0,0,0,0,0,0,0,0,0,0,0,0,0,0,0,0,0,0,0,0,0,0,0,0,0,0,0,0,0,0,0,0,0,0,0,0,0,0,0,0,0,0,0,0,0,0,0,0,0,0,0,0,0,0,0,0,0,0,0,0,0,0,0,0,0,0,0,
0,0,0,0,0,0,0,0,0,0,0,0,0,0,0,0,0,0,0,0,0,0,0,0,0,0,0,0,0,0,0,0,0,0,0,0,0,0,0,0,0,0,0,0,0,0,0,0,0,0,0,0,0,0,0,0,0,0,0,0,0,0,0,0,0,0,0,0,0,0,0,0,0,0,0,0,0,0,0,0,0,0,0,0,0,0,0,0,0,0,0,0,0,0,0,0,0,0,0,0,0,0,0,0,0,0,0,0,0,0,0,0,0,0,0,0,0,0,0,0,0,0,0,0,0,0,0,0,0,0,0,0,0,0,0,0,0,0,0,0,0,0,0,0,0,0,0,0,0,0,0,0,0,0,0,0,0,0,0,0,0,0,0,0,0,0,0,0,0,0,0,0,0,0,0,0,0,0,0,0,0,0,0,0,0,0,0,0,0,0,0,0,0,0,0,0,0,0,0,0,
0,0,0,0,0,0,0,0,0,0,0,0,0,0,0,0,0,0,0,0,0,0,0,0,0,0,0,0,0,0,0,0,0,0,0,0,0,0,0,0,0,0,0,0,0,0,0,0,0,0,0,0,0,0,0,0,0,0,0,0,0,0,0,0,0,0,0,0,0,0,0,0,0,0,0,0,0,0,0,0,0,0,0,0,0,0,0,0,0,0,0,0,0,0,0,0,0,0,0,0,0,0,0,0,0,0,0,0,0,0,0,0,0,0,0,0,0,0,0,0,0,0,0,0,0,0,0,0,0,0,0,0,0,0,0,0,0,0,0,0,0,0,0,0,0,0,0,0,0,0,0,0,0,0,0,0,0,0,0,0,0,0,0,0,0,0,0,0,0,0,0,0,0,0,0,0,0,0,0,0,0,0,0,0,0,0,0,0,0,0,0,0,0,0,0,0,0,0,0,0,
0,0,0,0,0,0,0,0,0,0,0,0,0,0,0,0,0,0,0,0,0,0,0,0,0,0,0,0,0,0,0,0,0,0,0,0,0,0,0,0,0,0,0,0,0,0,0,0,0,0,0,0,0,0,0,0,0,0,0,0,0,0,0,0,0,0,0,0,0,0,0,0,0,0,0,0,0,0,0,0,0,0,0,0,0,0,0,0,0,0,0,0,0,0,0,0,0,0,0,0,0,0,0,0,0,0,0,0,0,0,0,0,0,0,0,0,0,0,0,0,0,0,0,0,0,0,0,0,0,0,0,0,0,0,0,0,0,0,0,0,0,0,0,0,0,0,0,0,0,0,0,0,0,0,0,0,0,0,0,0,0,0,0,0,0,0,0,0,0,0,0,0,0,0,0,0,0,0,0,0,0,0,0,0,0,0,0,0,0,0,0,0,0,0,0,0,0,0,0,0,
0,0,0,0,0,0,0,0,0,0,0,0,0,0,0,0,0,0,0,0,0,0,0,0,0,0,0,0,0,0,0,0,0,0,0,0,0,0,0,0,0,0,0,0,0,0,0,0,0,0,0,0,0,0,0,0,0,0,0,0,0,0,0,0,0,0,0,0,0,0,0,0,0,0,0,0,0,0,0,0,0,0,0,0,0,0,0,0,0,0,0,0,0,0,0,0,0,0,0,0,0,0,0,0,0,0,0,0,0,0,0,0,0,0,0,0,0,0,0,0,0,0,0,0,0,0,0,0,0,0,0,0,0,0,0,0,0,0,0,0,0,0,0,0,0,0,0,0,0,0,0,0,0,0,0,0,0,0,0,0,0,0,0,0,0,0,0,0,0,0,0,0,0,0,0,0,0,0,0,0,0,0,0,0,0,0,0,0,0,0,0,0,0,0,0,0,0,0,0,0,
0,0,0,0,0,0,0,0,0,0,0,0,0,0,0,0,0,0,0,0,0,0,0,0,0,0,0,0,0,0,0,0,0,0,0,0,0,0,0,0,0,0,0,0,0,0,0,0,0,0,0,0,0,0,0,0,0,0,0,0,0,0,0,0,0,0,0,0,0,0,0,0,0,0,0,0,0,0,0,0,0,0,0,0,0,0,0,0,0,0,0,0,0,0,0,0,0,0,0,0,0,0,0,0,0,0,0,0,0,0,0,0,0,0,0,0,0,0,0,0,0,0,0,0,0,0,0,0,0,0,0,0,0,0,0,0,0,0,0,0,0,0,0,0,0,0,0,0,0,0,0,0,0,0,0,0,0,0,0,0,0,0,0,0,0,0,0,0,0,0,0,0,0,0,0,0,0,0,0,0,0,0,0,0,0,0,0,0,0,0,0,0,0,0,0,0,0,0,0,0,
0,0,0,0,0,0,0,0,0,0,0,0,0,0,0,0,0,0,0,0,0,0,0,0,0,0,0,0,0,0,0,0,0,0,0,0,0,0,0,0,0,0,0,0,0,0,0,0,0,0,0,0,0,0,0,0,0,0,0,0,0,0,0,0,0,0,0,0,0,0,0,0,0,0,0,0,0,0,0,0,0,0,0,0,0,0,0,0,0,0,0,0,0,0,0,0,0,0,0,0,0,0,0,0,0,0,0,0,0,0,0,0,0,0,0,0,0,0,0,0,0,0,0,0,0,0,0,0,0,0,0,0,0,0,0,0,0,0,0,0,0,0,0,0,0,0,0,0,0,0,0,0,0,0,0,0,0,0,0,0,0,0,0,0,0,0,0,0,0,0,0,0,0,0,0,0,0,0,0,0,0,0,0,0,0,0,0,0,0,0,0,0,0,0,0,0,0,0,0,0,
0,0,0,0,0,0,0,0,0,0,0,0,0,0,0,0,0,0,0,0,0,0,0,0,0,0,0,0,0,0,0,0,0,0,0,0,0,0,0,0,0,0,0,0,0,0,0,0,0,0,0,0,0,0,0,0,0,0,0,0,0,0,0,0,0,0,0,0,0,0,0,0,0,0,0,0,0,0,0,0,0,0,0,0,0,0,0,0,0,0,0,0,0,0,0,0,0,0,0,0,0,0,0,0,0,0,0,0,0,0,0,0,0,0,0,0,0,0,0,0,0,0,0,0,0,0,0,0,0,0,0,0,0,0,0,0,0,0,0,0,0,0,0,0,0,0,0,0,0,0,0,0,0,0,0,0,0,0,0,0,0,0,0,0,0,0,0,0,0,0,0,0,0,0,0,0,0,0,0,0,0,0,0,0,0,0,0,0,0,0,0,0,0,0,0,0,0,0,0,0,
0,0,0,0,0,0,0,0,0,0,0,0,0,0,0,0,0,0,0,0,0,0,0,0,0,0,0,0,0,0,0,0,0,0,0,0,0,0,0,0,0,0,0,0,0,0,0,0,0,0,0,0,0,0,0,0,0,0,0,0,0,0,0,0,0,0,0,0,0,0,0,0,0,0,0,0,0,0,0,0,0,0,0,0,0,0,0,0,0,0,0,0,0,0,0,0,0,0,0,0,0,0,0,0,0,0,0,0,0,0,0,0,0,0,0,0,0,0,0,0,0,0,0,0,0,0,0,0,0,0,0,0,0,0,0,0,0,0,0,0,0,0,0,0,0,0,0,0,0,0,0,0,0,0,0,0,0,0,0,0,0,0,0,0,0,0,0,0,0,0,0,0,0,0,0,0,0,0,0,0,0,0,0,0,0,0,0,0,0,0,0,0,0,0,0,0,0,0,0,0,
0,0,0,0,0,0,0,0,0,0,0,0,0,0,0,0,0,0,0,0,0,0,0,0,0,0,0,0,0,0,0,0,0,0,0,0,0,0,0,0,0,0,0,0,0,0,0,0,0,0,0,0,0,0,0,0,0,0,0,0,0,0,0,0,0,0,0,0,0,0,0,0,0,0,0,0,0,0,0,0,0,0,0,0,0,0,0,0,0,0,0,0,0,0,0,0,0,0,0,0,0,0,0,0,0,0,0,0,0,0,0,0,0,0,0,0,0,0,0,0,0,0,0,0,0,0,0,0,0,0,0,0,0,0,0,0,0,0,0,0,0,0,0,0,0,0,0,0,0,0,0,0,0,0,0,0,0,0,0,0,0,0,0,0,0,0,0,0,0,0,0,0,0,0,0,0,0,0,0,0,0,0,0,0,0,0,0,0,0,0,0,0,0,0,0,0,0,0,0,0,
0,0,0,0,0,0,0,0,0,0,0,0,0,0,0,0,0,0,0,0,0,0,0,0,0,0,0,0,0,0,0,0,0,0,0,0,0,0,0,0,0,0,0,0,0,0,0,0,0,0,0,0,0,0,0,0,0,0,0,0,0,0,0,0,0,0,0,0,0,0,0,0,0,0,0,0,0,0,0,0,0,0,0,0,0,0,0,0,0,0,0,0,0,0,0,0,0,0,0,0,0,0,0,0,0,0,0,0,0,0,0,0,0,0,0,0,0,0,0,0,0,0,0,0,0,0,0,0,0,0,0,0,0,0,0,0,0,0,0,0,0,0,0,0,0,0,0,0,0,0,0,0,0,0,0,0,0,0,0,0,0,0,0,0,0,0,0,0,0,0,0,0,0,0,0,0,0,0,0,0,0,0,0,0,0,0,0,0,0,0,0,0,0,0,0,0,0,0,0,0,
0,0,0,0,0,0,0,0,0,0,0,0,0,0,0,0,0,0,0,0,0,0,0,0,0,0,0,0,0,0,0,0,0,0,0,0,0,0,0,0,0,0,0,0,0,0,0,0,0,0,0,0,0,0,0,0,0,0,0,0,0,0,0,0,0,0,0,0,0,0,0,0,0,0,0,0,0,0,0,0,0,0,0,0,0,0,0,0,0,0,0,0,0,0,0,0,0,0,0,0,0,0,0,0,0,0,0,0,0,0,0,0,0,0,0,0,0,0,0,0,0,0,0,0,0,0,0,0,0,0,0,0,0,0,0,0,0,0,0,0,0,0,0,0,0,0,0,0,0,0,0,0,0,0,0,0,0,0,0,0,0,0,0,0,0,0,0,0,0,0,0,0,0,0,0,0,0,0,0,0,0,0,0,0,0,0,0,0,0,0,0,0,0,0,0,0,0,0,0,0,
0,0,0,0,0,0,0,0,0,0,0,0,0,0,0,0,0,0,0,0,0,0,0,0,0,0,0,0,0,0,0,0,0,0,0,0,0,0,0,0,0,0,0,0,0,0,0,0,0,0,0,0,0,0,0,0,0,0,0,0,0,0,0,0,0,0,0,0,0,0,0,0,0,0,0,0,0,0,0,0,0,0,0,0,0,0,0,0,0,0,0,0,0,0,0,0,0,0,0,0,0,0,0,0,0,0,0,0,0,0,0,0,0,0,0,0,0,0,0,0,0,0,0,0,0,0,0,0,0,0,0,0,0,0,0,0,0,0,0,0,0,0,0,0,0,0,0,0,0,0,0,0,0,0,0,0,0,0,0,0,0,0,0,0,0,0,0,0,0,0,0,0,0,0,0,0,0,0,0,0,0,0,0,0,0,0,0,0,0,0,0,0,0,0,0,0,0,0,0,0,
0,0,0,0,0,0,0,0,0,0,0,0,0,0,0,0,0,0,0,0,0,0,0,0,0,0,0,0,0,0,0,0,0,0,0,0,0,0,0,0,0,0,0,0,0,0,0,0,0,0,0,0,0,0,0,0,0,0,0,0,0,0,0,0,0,0,0,0,0,0,0,0,0,0,0,0,0,0,0,0,0,0,0,0,0,0,0,0,0,0,0,0,0,0,0,0,0,0,0,0,0,0,0,0,0,0,0,0,0,0,0,0,0,0,0,0,0,0,0,0,0,0,0,0,0,0,0,0,0,0,0,0,0,0,0,0,0,0,0,0,0,0,0,0,0,0,0,0,0,0,0,0,0,0,0,0,0,0,0,0,0,0,0,0,0,0,0,0,0,0,0,0,0,0,0,0,0,0,0,0,0,0,0,0,0,0,0,0,0,0,0,0,0,0,0,0,0,0,0,0,
0,0,0,0,0,0,0,0,0,0,0,0,0,0,0,0,0,0,0,0,0,0,0,0,0,0,0,0,0,0,0,0,0,0,0,0,0,0,0,0,0,0,0,0,0,0,0,0,0,0,0,0,0,0,0,0,0,0,0,0,0,0,0,0,0,0,0,0,0,0,0,0,0,0,0,0,0,0,0,0,0,0,0,0,0,0,0,0,0,0,0,0,0,0,0,0,0,0,0,0,0,0,0,0,0,0,0,0,0,0,0,0,0,0,0,0,0,0,0,0,0,0,0,0,0,0,0,0,0,0,0,0,0,0,0,0,0,0,0,0,0,0,0,0,0,0,0,0,0,0,0,0,0,0,0,0,0,0,0,0,0,0,0,0,0,0,0,0,0,0,0,0,0,0,0,0,0,0,0,0,0,0,0,0,0,0,0,0,0,0,0,0,0,0,0,0,0,0,0,0,
0,0,0,0,0,0,0,0,0,0,0,0,0,0,0,0,0,0,0,0,0,0,0,0,0,0,0,0,0,0,0,0,0,0,0,0,0,0,0,0,0,0,0,0,0,0,0,0,0,0,0,0,0,0,0,0,0,0,0,0,0,0,0,0,0,0,0,0,0,0,0,0,0,0,0,0,0,0,0,0,0,0,0,0,0,0,0,0,0,0,0,0,0,0,0,0,0,0,0,0,0,0,0,0,0,0,0,0,0,0,0,0,0,0,0,0,0,0,0,0,0,0,0,0,0,0,0,0,0,0,0,0,0,0,0,0,0,0,0,0,0,0,0,0,0,0,0,0,0,0,0,0,0,0,0,0,0,0,0,0,0,0,0,0,0,0,0,0,0,0,0,0,0,0,0,0,0,0,0,0,0,0,0,0,0,0,0,0,0,0,0,0,0,0,0,0,0,0,0,0,
0,0,0,0,0,0,0,0,0,0,0,0,0,0,0,0,0,0,0,0,0,0,0,0,0,0,0,0,0,0,0,0,0,0,0,0,0,0,0,0,0,0,0,0,0,0,0,0,0,0,0,0,0,0,0,0,0,0,0,0,0,0,0,0,0,0,0,0,0,0,0,0,0,0,0,0,0,0,0,0,0,0,0,0,0,0,0,0,0,0,0,0,0,0,0,0,0,0,0,0,0,0,0,0,0,0,0,0,0,0,0,0,0,0,0,0,0,0,0,0,0,0,0,0,0,0,0,0,0,0,0,0,0,0,0,0,0,0,0,0,0,0,0,0,0,0,0,0,0,0,0,0,0,0,0,0,0,0,0,0,0,0,0,0,0,0,0,0,0,0,0,0,0,0,0,0,0,0,0,0,0,0,0,0,0,0,0,0,0,0,0,0,0,0,0,0,0,0,0,0,
0,0,0,0,0,0,0,0,0,0,0,0,0,0,0,0,0,0,0,0,0,0,0,0,0,0,0,0,0,0,0,0,0,0,0,0,0,0,0,0,0,0,0,0,0,0,0,0,0,0,0,0,0,0,0,0,0,0,0,0,0,0,0,0,0,0,0,0,0,0,0,0,0,0,0,0,0,0,0,0,0,0,0,0,0,0,0,0,0,0,0,0,0,0,0,0,0,0,0,0,0,0,0,0,0,0,0,0,0,0,0,0,0,0,0,0,0,0,0,0,0,0,0,0,0,0,0,0,0,0,0,0,0,0,0,0,0,0,0,0,0,0,0,0,0,0,0,0,0,0,0,0,0,0,0,0,0,0,0,0,0,0,0,0,0,0,0,0,0,0,0,0,0,0,0,0,0,0,0,0,0,0,0,0,0,0,0,0,0,0,0,0,0,0,0,0,0,0,0,0,
0,0,0,0,0,0,0,0,0,0,0,0,0,0,0,0,0,0,0,0,0,0,0,0,0,0,0,0,0,0,0,0,0,0,0,0,0,0,0,0,0,0,0,0,0,0,0,0,0,0,0,0,0,0,0,0,0,0,0,0,0,0,0,0,0,0,0,0,0,0,0,0,0,0,0,0,0,0,0,0,0,0,0,0,0,0,0,0,0,0,0,0,0,0,0,0,0,0,0,0,0,0,0,0,0,0,0,0,0,0,0,0,0,0,0,0,0,0,0,0,0,0,0,0,0,0,0,0,0,0,0,0,0,0,0,0,0,0,0,0,0,0,0,0,0,0,0,0,0,0,0,0,0,0,0,0,0,0,0,0,0,0,0,0,0,0,0,0,0,0,0,0,0,0,0,0,0,0,0,0,0,0,0,0,0,0,0,0,0,0,0,0,0,0,0,0,0,0,0,0,
0,0,0,0,0,0,0,0,0,0,0,0,0,0,0,0,0,0,0,0,0,0,0,0,0,0,0,0,0,0,0,0,0,0,0,0,0,0,0,0,0,0,0,0,0,0,0,0,0,0,0,0,0,0,0,0,0,0,0,0,0,0,0,0,0,0,0,0,0,0,0,0,0,0,0,0,0,0,0,0,0,0,0,0,0,0,0,0,0,0,0,0,0,0,0,0,0,0,0,0,0,0,0,0,0,0,0,0,0,0,0,0,0,0,0,0,0,0,0,0,0,0,0,0,0,0,0,0,0,0,0,0,0,0,0,0,0,0,0,0,0,0,0,0,0,0,0,0,0,0,0,0,0,0,0,0,0,0,0,0,0,0,0,0,0,0,0,0,0,0,0,0,0,0,0,0,0,0,0,0,0,0,0,0,0,0,0,0,0,0,0,0,0,0,0,0,0,0,0,0,
0,0,0,0,0,0,0,0,0,0,0,0,0,0,0,0,0,0,0,0,0,0,0,0,0,0,0,0,0,0,0,0,0,0,0,0,0,0,0,0,0,0,0,0,0,0,0,0,0,0,0,0,0,0,0,0,0,0,0,0,0,0,0,0,0,0,0,0,0,0,0,0,0,0,0,0,0,0,0,0,0,0,0,0,0,0,0,0,0,0,0,0,0,0,0,0,0,0,0,0,0,0,0,0,0,0,0,0,0,0,0,0,0,0,0,0,0,0,0,0,0,0,0,0,0,0,0,0,0,0,0,0,0,0,0,0,0,0,0,0,0,0,0,0,0,0,0,0,0,0,0,0,0,0,0,0,0,0,0,0,0,0,0,0,0,0,0,0,0,0,0,0,0,0,0,0,0,0,0,0,0,0,0,0,0,0,0,0,0,0,0,0,0,0,0,0,0,0,0,0,
0,0,0,0,0,0,0,0,0,0,0,0,0,0,0,0,0,0,0,0,0,0,0,0,0,0,0,0,0,0,0,0,0,0,0,0,0,0,0,0,0,0,0,0,0,0,0,0,0,0,0,0,0,0,0,0,0,0,0,0,0,0,0,0,0,0,0,0,0,0,0,0,0,0,0,0,0,0,0,0,0,0,0,0,0,0,0,0,0,0,0,0,0,0,0,0,0,0,0,0,0,0,0,0,0,0,0,0,0,0,0,0,0,0,0,0,0,0,0,0,0,0,0,0,0,0,0,0,0,0,0,0,0,0,0,0,0,0,0,0,0,0,0,0,0,0,0,0,0,0,0,0,0,0,0,0,0,0,0,0,0,0,0,0,0,0,0,0,0,0,0,0,0,0,0,0,0,0,0,0,0,0,0,0,0,0,0,0,0,0,0,0,0,0,0,0,0,0,0,0,
0,0,0,0,0,0,0,0,0,0,0,0,0,0,0,0,0,0,0,0,0,0,0,0,0,0,0,0,0,0,0,0,0,0,0,0,0,0,0,0,0,0,0,0,0,0,0,0,0,0,0,0,0,0,0,0,0,0,0,0,0,0,0,0,0,0,0,0,0,0,0,0,0,0,0,0,0,0,0,0,0,0,0,0,0,0,0,0,0,0,0,0,0,0,0,0,0,0,0,0,0,0,0,0,0,0,0,0,0,0,0,0,0,0,0,0,0,0,0,0,0,0,0,0,0,0,0,0,0,0,0,0,0,0,0,0,0,0,0,0,0,0,0,0,0,0,0,0,0,0,0,0,0,0,0,0,0,0,0,0,0,0,0,0,0,0,0,0,0,0,0,0,0,0,0,0,0,0,0,0,0,0,0,0,0,0,0,0,0,0,0,0,0,0,0,0,0,0,0,0,
0,0,0,0,0,0,0,0,0,0,0,0,0,0,0,0,0,0,0,0,0,0,0,0,0,0,0,0,0,0,0,0,0,0,0,0,0,0,0,0,0,0,0,0,0,0,0,0,0,0,0,0,0,0,0,0,0,0,0,0,0,0,0,0,0,0,0,0,0,0,0,0,0,0,0,0,0,0,0,0,0,0,0,0,0,0,0,0,0,0,0,0,0,0,0,0,0,0,0,0,0,0,0,0,0,0,0,0,0,0,0,0,0,0,0,0,0,0,0,0,0,0,0,0,0,0,0,0,0,0,0,0,0,0,0,0,0,0,0,0,0,0,0,0,0,0,0,0,0,0,0,0,0,0,0,0,0,0,0,0,0,0,0,0,0,0,0,0,0,0,0,0,0,0,0,0,0,0,0,0,0,0,0,0,0,0,0,0,0,0,0,0,0,0,0,0,0,0,0,0,
0,0,0,0,0,0,0,0,0,0,0,0,0,0,0,0,0,0,0,0,0,0,0,0,0,0,0,0,0,0,0,0,0,0,0,0,0,0,0,0,0,0,0,0,0,0,0,0,0,0,0,0,0,0,0,0,0,0,0,0,0,0,0,0,0,0,0,0,0,0,0,0,0,0,0,0,0,0,0,0,0,0,0,0,0,0,0,0,0,0,0,0,0,0,0,0,0,0,0,0,0,0,0,0,0,0,0,0,0,0,0,0,0,0,0,0,0,0,0,0,0,0,0,0,0,0,0,0,0,0,0,0,0,0,0,0,0,0,0,0,0,0,0,0,0,0,0,0,0,0,0,0,0,0,0,0,0,0,0,0,0,0,0,0,0,0,0,0,0,0,0,0,0,0,0,0,0,0,0,0,0,0,0,0,0,0,0,0,0,0,0,0,0,0,0,0,0,0,0,0,
0,0,0,0,0,0,0,0,0,0,0,0,0,0,0,0,0,0,0,0,0,0,0,0,0,0,0,0,0,0,0,0,0,0,0,0,0,0,0,0,0,0,0,0,0,0,0,0,0,0,0,0,0,0,0,0,0,0,0,0,0,0,0,0,0,0,0,0,0,0,0,0,0,0,0,0,0,0,0,0,0,0,0,0,0,0,0,0,0,0,0,0,0,0,0,0,0,0,0,0,0,0,0,0,0,0,0,0,0,0,0,0,0,0,0,0,0,0,0,0,0,0,0,0,0,0,0,0,0,0,0,0,0,0,0,0,0,0,0,0,0,0,0,0,0,0,0,0,0,0,0,0,0,0,0,0,0,0,0,0,0,0,0,0,0,0,0,0,0,0,0,0,0,0,0,0,0,0,0,0,0,0,0,0,0,0,0,0,0,0,0,0,0,0,0,0,0,0,0,0,
0,0,0,0,0,0,0,0,0,0,0,0,0,0,0,0,0,0,0,0,0,0,0,0,0,0,0,0,0,0,0,0,0,0,0,0,0,0,0,0,0,0,0,0,0,0,0,0,0,0,0,0,0,0,0,0,0,0,0,0,0,0,0,0,0,0,0,0,0,0,0,0,0,0,0,0,0,0,0,0,0,0,0,0,0,0,0,0,0,0,0,0,0,0,0,0,0,0,0,0,0,0,0,0,0,0,0,0,0,0,0,0,0,0,0,0,0,0,0,0,0,0,0,0,0,0,0,0,0,0,0,0,0,0,0,0,0,0,0,0,0,0,0,0,0,0,0,0,0,0,0,0,0,0,0,0,0,0,0,0,0,0,0,0,0,0,0,0,0,0,0,0,0,0,0,0,0,0,0,0,0,0,0,0,0,0,0,0,0,0,0,0,0,0,0,0,0,0,0,0,
0,0,0,0,0,0,0,0,0,0,0,0,0,0,0,0,0,0,0,0,0,0,0,0,0,0,0,0,0,0,0,0,0,0,0,0,0,0,0,0,0,0,0,0,0,0,0,0,0,0,0,0,0,0,0,0,0,0,0,0,0,0,0,0,0,0,0,0,0,0,0,0,0,0,0,0,0,0,0,0,0,0,0,0,0,0,0,0,0,0,0,0,0,0,0,0,0,0,0,0,0,0,0,0,0,0,0,0,0,0,0,0,0,0,0,0,0,0,0,0,0,0,0,0,0,0,0,0,0,0,0,0,0,0,0,0,0,0,0,0,0,0,0,0,0,0,0,0,0,0,0,0,0,0,0,0,0,0,0,0,0,0,0,0,0,0,0,0,0,0,0,0,0,0,0,0,0,0,0,0,0,0,0,0,0,0,0,0,0,0,0,0,0,0,0,0,0,0,0,0,
0,0,0,0,0,0,0,0,0,0,0,0,0,0,0,0,0,0,0,0,0,0,0,0,0,0,0,0,0,0,0,0,0,0,0,0,0,0,0,0,0,0,0,0,0,0,0,0,0,0,0,0,0,0,0,0,0,0,0,0,0,0,0,0,0,0,0,0,0,0,0,0,0,0,0,0,0,0,0,0,0,0,0,0,0,0,0,0,0,0,0,0,0,0,0,0,0,0,0,0,0,0,0,0,0,0,0,0,0,0,0,0,0,0,0,0,0,0,0,0,0,0,0,0,0,0,0,0,0,0,0,0,0,0,0,0,0,0,0,0,0,0,0,0,0,0,0,0,0,0,0,0,0,0,0,0,0,0,0,0,0,0,0,0,0,0,0,0,0,0,0,0,0,0,0,0,0,0,0,0,0,0,0,0,0,0,0,0,0,0,0,0,0,0,0,0,0,0,0,0,
0,0,0,0,0,0,0,0,0,0,0,0,0,0,0,0,0,0,0,0,0,0,0,0,0,0,0,0,0,0,0,0,0,0,0,0,0,0,0,0,0,0,0,0,0,0,0,0,0,0,0,0,0,0,0,0,0,0,0,0,0,0,0,0,0,0,0,0,0,0,0,0,0,0,0,0,0,0,0,0,0,0,0,0,0,0,0,0,0,0,0,0,0,0,0,0,0,0,0,0,0,0,0,0,0,0,0,0,0,0,0,0,0,0,0,0,0,0,0,0,0,0,0,0,0,0,0,0,0,0,0,0,0,0,0,0,0,0,0,0,0,0,0,0,0,0,0,0,0,0,0,0,0,0,0,0,0,0,0,0,0,0,0,0,0,0,0,0,0,0,0,0,0,0,0,0,0,0,0,0,0,0,0,0,0,0,0,0,0,0,0,0,0,0,0,0,0,0,0,0,
0,0,0,0,0,0,0,0,0,0,0,0,0,0,0,0,0,0,0,0,0,0,0,0,0,0,0,0,0,0,0,0,0,0,0,0,0,0,0,0,0,0,0,0,0,0,0,0,0,0,0,0,0,0,0,0,0,0,0,0,0,0,0,0,0,0,0,0,0,0,0,0,0,0,0,0,0,0,0,0,0,0,0,0,0,0,0,0,0,0,0,0,0,0,0,0,0,0,0,0,0,0,0,0,0,0,0,0,0,0,0,0,0,0,0,0,0,0,0,0,0,0,0,0,0,0,0,0,0,0,0,0,0,0,0,0,0,0,0,0,0,0,0,0,0,0,0,0,0,0,0,0,0,0,0,0,0,0,0,0,0,0,0,0,0,0,0,0,0,0,0,0,0,0,0,0,0,0,0,0,0,0,0,0,0,0,0,0,0,0,0,0,0,0,0,0,0,0,0,0,
0,0,0,0,0,0,0,0,0,0,0,0,0,0,0,0,0,0,0,0,0,0,0,0,0,0,0,0,0,0,0,0,0,0,0,0,0,0,0,0,0,0,0,0,0,0,0,0,0,0,0,0,0,0,0,0,0,0,0,0,0,0,0,0,0,0,0,0,0,0,0,0,0,0,0,0,0,0,0,0,0,0,0,0,0,0,0,0,0,0,0,0,0,0,0,0,0,0,0,0,0,0,0,0,0,0,0,0,0,0,0,0,0,0,0,0,0,0,0,0,0,0,0,0,0,0,0,0,0,0,0,0,0,0,0,0,0,0,0,0,0,0,0,0,0,0,0,0,0,0,0,0,0,0,0,0,0,0,0,0,0,0,0,0,0,0,0,0,0,0,0,0,0,0,0,0,0,0,0,0,0,0,0,0,0,0,0,0,0,0,0,0,0,0,0,0,0,0,0,0,
0,0,0,0,0,0,0,0,0,0,0,0,0,0,0,0,0,0,0,0,0,0,0,0,0,0,0,0,0,0,0,0,0,0,0,0,0,0,0,0,0,0,0,0,0,0,0,0,0,0,0,0,0,0,0,0,0,0,0,0,0,0,0,0,0,0,0,0,0,0,0,0,0,0,0,0,0,0,0,0,0,0,0,0,0,0,0,0,0,0,0,0,0,0,0,0,0,0,0,0,0,0,0,0,0,0,0,0,0,0,0,0,0,0,0,0,0,0,0,0,0,0,0,0,0,0,0,0,0,0,0,0,0,0,0,0,0,0,0,0,0,0,0,0,0,0,0,0,0,0,0,0,0,0,0,0,0,0,0,0,0,0,0,0,0,0,0,0,0,0,0,0,0,0,0,0,0,0,0,0,0,0,0,0,0,0,0,0,0,0,0,0,0,0,0,0,0,0,0,0,
0,0,0,0,0,0,0,0,0,0,0,0,0,0,0,0,0,0,0,0,0,0,0,0,0,0,0,0,0,0,0,0,0,0,0,0,0,0,0,0,0,0,0,0,0,0,0,0,0,0,0,0,0,0,0,0,0,0,0,0,0,0,0,0,0,0,0,0,0,0,0,0,0,0,0,0,0,0,0,0,0,0,0,0,0,0,0,0,0,0,0,0,0,0,0,0,0,0,0,0,0,0,0,0,0,0,0,0,0,0,0,0,0,0,0,0,0,0,0,0,0,0,0,0,0,0,0,0,0,0,0,0,0,0,0,0,0,0,0,0,0,0,0,0,0,0,0,0,0,0,0,0,0,0,0,0,0,0,0,0,0,0,0,0,0,0,0,0,0,0,0,0,0,0,0,0,0,0,0,0,0,0,0,0,0,0,0,0,0,0,0,0,0,0,0,0,0,0,0,0,
0,0,0,0,0,0,0,0,0,0,0,0,0,0,0,0,0,0,0,0,0,0,0,0,0,0,0,0,0,0,0,0,0,0,0,0,0,0,0,0,0,0,0,0,0,0,0,0,0,0,0,0,0,0,0,0,0,0,0,0,0,0,0,0,0,0,0,0,0,0,0,0,0,0,0,0,0,0,0,0,0,0,0,0,0,0,0,0,0,0,0,0,0,0,0,0,0,0,0,0,0,0,0,0,0,0,0,0,0,0,0,0,0,0,0,0,0,0,0,0,0,0,0,0,0,0,0,0,0,0,0,0,0,0,0,0,0,0,0,0,0,0,0,0,0,0,0,0,0,0,0,0,0,0,0,0,0,0,0,0,0,0,0,0,0,0,0,0,0,0,0,0,0,0,0,0,0,0,0,0,0,0,0,0,0,0,0,0,0,0,0,0,0,0,0,0,0,0,0,0,
0,0,0,0,0,0,0,0,0,0,0,0,0,0,0,0,0,0,0,0,0,0,0,0,0,0,0,0,0,0,0,0,0,0,0,0,0,0,0,0,0,0,0,0,0,0,0,0,0,0,0,0,0,0,0,0,0,0,0,0,0,0,0,0,0,0,0,0,0,0,0,0,0,0,0,0,0,0,0,0,0,0,0,0,0,0,0,0,0,0,0,0,0,0,0,0,0,0,0,0,0,0,0,0,0,0,0,0,0,0,0,0,0,0,0,0,0,0,0,0,0,0,0,0,0,0,0,0,0,0,0,0,0,0,0,0,0,0,0,0,0,0,0,0,0,0,0,0,0,0,0,0,0,0,0,0,0,0,0,0,0,0,0,0,0,0,0,0,0,0,0,0,0,0,0,0,0,0,0,0,0,0,0,0,0,0,0,0,0,0,0,0,0,0,0,0,0,0,0,0,
0,0,0,0,0,0,0,0,0,0,0,0,0,0,0,0,0,0,0,0,0,0,0,0,0,0,0,0,0,0,0,0,0,0,0,0,0,0,0,0,0,0,0,0,0,0,0,0,0,0,0,0,0,0,0,0,0,0,0,0,0,0,0,0,0,0,0,0,0,0,0,0,0,0,0,0,0,0,0,0,0,0,0,0,0,0,0,0,0,0,0,0,0,0,0,0,0,0,0,0,0,0,0,0,0,0,0,0,0,0,0,0,0,0,0,0,0,0,0,0,0,0,0,0,0,0,0,0,0,0,0,0,0,0,0,0,0,0,0,0,0,0,0,0,0,0,0,0,0,0,0,0,0,0,0,0,0,0,0,0,0,0,0,0,0,0,0,0,0,0,0,0,0,0,0,0,0,0,0,0,0,0,0,0,0,0,0,0,0,0,0,0,0,0,0,0,0,0,0,0,
0,0,0,0,0,0,0,0,0,0,0,0,0,0,0,0,0,0,0,0,0,0,0,0,0,0,0,0,0,0,0,0,0,0,0,0,0,0,0,0,0,0,0,0,0,0,0,0,0,0,0,0,0,0,0,0,0,0,0,0,0,0,0,0,0,0,0,0,0,0,0,0,0,0,0,0,0,0,0,0,0,0,0,0,0,0,0,0,0,0,0,0,0,0,0,0,0,0,0,0,0,0,0,0,0,0,0,0,0,0,0,0,0,0,0,0,0,0,0,0,0,0,0,0,0,0,0,0,0,0,0,0,0,0,0,0,0,0,0,0,0,0,0,0,0,0,0,0,0,0,0,0,0,0,0,0,0,0,0,0,0,0,0,0,0,0,0,0,0,0,0,0,0,0,0,0,0,0,0,0,0,0,0,0,0,0,0,0,0,0,0,0,0,0,0,0,0,0,0,0,
0,0,0,0,0,0,0,0,0,0,0,0,0,0,0,0,0,0,0,0,0,0,0,0,0,0,0,0,0,0,0,0,0,0,0,0,0,0,0,0,0,0,0,0,0,0,0,0,0,0,0,0,0,0,0,0,0,0,0,0,0,0,0,0,0,0,0,0,0,0,0,0,0,0,0,0,0,0,0,0,0,0,0,0,0,0,0,0,0,0,0,0,0,0,0,0,0,0,0,0,0,0,0,0,0,0,0,0,0,0,0,0,0,0,0,0,0,0,0,0,0,0,0,0,0,0,0,0,0,0,0,0,0,0,0,0,0,0,0,0,0,0,0,0,0,0,0,0,0,0,0,0,0,0,0,0,0,0,0,0,0,0,0,0,0,0,0,0,0,0,0,0,0,0,0,0,0,0,0,0,0,0,0,0,0,0,0,0,0,0,0,0,0,0,0,0,0,0,0,0,
0,0,0,0,0,0,0,0,0,0,0,0,0,0,0,0,0,0,0,0,0,0,0,0,0,0,0,0,0,0,0,0,0,0,0,0,0,0,0,0,0,0,0,0,0,0,0,0,0,0,0,0,0,0,0,0,0,0,0,0,0,0,0,0,0,0,0,0,0,0,0,0,0,0,0,0,0,0,0,0,0,0,0,0,0,0,0,0,0,0,0,0,0,0,0,0,0,0,0,0,0,0,0,0,0,0,0,0,0,0,0,0,0,0,0,0,0,0,0,0,0,0,0,0,0,0,0,0,0,0,0,0,0,0,0,0,0,0,0,0,0,0,0,0,0,0,0,0,0,0,0,0,0,0,0,0,0,0,0,0,0,0,0,0,0,0,0,0,0,0,0,0,0,0,0,0,0,0,0,0,0,0,0,0,0,0,0,0,0,0,0,0,0,0,0,0,0,0,0,0,
0,0,0,0,0,0,0,0,0,0,0,0,0,0,0,0,0,0,0,0,0,0,0,0,0,0,0,0,0,0,0,0,0,0,0,0,0,0,0,0,0,0,0,0,0,0,0,0,0,0,0,0,0,0,0,0,0,0,0,0,0,0,0,0,0,0,0,0,0,0,0,0,0,0,0,0,0,0,0,0,0,0,0,0,0,0,0,0,0,0,0,0,0,0,0,0,0,0,0,0,0,0,0,0,0,0,0,0,0,0,0,0,0,0,0,0,0,0,0,0,0,0,0,0,0,0,0,0,0,0,0,0,0,0,0,0,0,0,0,0,0,0,0,0,0,0,0,0,0,0,0,0,0,0,0,0,0,0,0,0,0,0,0,0,0,0,0,0,0,0,0,0,0,0,0,0,0,0,0,0,0,0,0,0,0,0,0,0,0,0,0,0,0,0,0,0,0,0,0,0,
0,0,0,0,0,0,0,0,0,0,0,0,0,0,0,0,0,0,0,0,0,0,0,0,0,0,0,0,0,0,0,0,0,0,0,0,0,0,0,0,0,0,0,0,0,0,0,0,0,0,0,0,0,0,0,0,0,0,0,0,0,0,0,0,0,0,0,0,0,0,0,0,0,0,0,0,0,0,0,0,0,0,0,0,0,0,0,0,0,0,0,0,0,0,0,0,0,0,0,0,0,0,0,0,0,0,0,0,0,0,0,0,0,0,0,0,0,0,0,0,0,0,0,0,0,0,0,0,0,0,0,0,0,0,0,0,0,0,0,0,0,0,0,0,0,0,0,0,0,0,0,0,0,0,0,0,0,0,0,0,0,0,0,0,0,0,0,0,0,0,0,0,0,0,0,0,0,0,0,0,0,0,0,0,0,0,0,0,0,0,0,0,0,0,0,0,0,0,0,0,
0,0,0,0,0,0,0,0,0,0,0,0,0,0,0,0,0,0,0,0,0,0,0,0,0,0,0,0,0,0,0,0,0,0,0,0,0,0,0,0,0,0,0,0,0,0,0,0,0,0,0,0,0,0,0,0,0,0,0,0,0,0,0,0,0,0,0,0,0,0,0,0,0,0,0,0,0,0,0,0,0,0,0,0,0,0,0,0,0,0,0,0,0,0,0,0,0,0,0,0,0,0,0,0,0,0,0,0,0,0,0,0,0,0,0,0,0,0,0,0,0,0,0,0,0,0,0,0,0,0,0,0,0,0,0,0,0,0,0,0,0,0,0,0,0,0,0,0,0,0,0,0,0,0,0,0,0,0,0,0,0,0,0,0,0,0,0,0,0,0,0,0,0,0,0,0,0,0,0,0,0,0,0,0,0,0,0,0,0,0,0,0,0,0,0,0,0,0,0,0,
0,0,0,0,0,0,0,0,0,0,0,0,0,0,0,0,0,0,0,0,0,0,0,0,0,0,0,0,0,0,0,0,0,0,0,0,0,0,0,0,0,0,0,0,0,0,0,0,0,0,0,0,0,0,0,0,0,0,0,0,0,0,0,0,0,0,0,0,0,0,0,0,0,0,0,0,0,0,0,0,0,0,0,0,0,0,0,0,0,0,0,0,0,0,0,0,0,0,0,0,0,0,0,0,0,0,0,0,0,0,0,0,0,0,0,0,0,0,0,0,0,0,0,0,0,0,0,0,0,0,0,0,0,0,0,0,0,0,0,0,0,0,0,0,0,0,0,0,0,0,0,0,0,0,0,0,0,0,0,0,0,0,0,0,0,0,0,0,0,0,0,0,0,0,0,0,0,0,0,0,0,0,0,0,0,0,0,0,0,0,0,0,0,0,0,0,0,0,0,0,
0,0,0,0,0,0,0,0,0,0,0,0,0,0,0,0,0,0,0,0,0,0,0,0,0,0,0,0,0,0,0,0,0,0,0,0,0,0,0,0,0,0,0,0,0,0,0,0,0,0,0,0,0,0,0,0,0,0,0,0,0,0,0,0,0,0,0,0,0,0,0,0,0,0,0,0,0,0,0,0,0,0,0,0,0,0,0,0,0,0,0,0,0,0,0,0,0,0,0,0,0,0,0,0,0,0,0,0,0,0,0,0,0,0,0,0,0,0,0,0,0,0,0,0,0,0,0,0,0,0,0,0,0,0,0,0,0,0,0,0,0,0,0,0,0,0,0,0,0,0,0,0,0,0,0,0,0,0,0,0,0,0,0,0,0,0,0,0,0,0,0,0,0,0,0,0,0,0,0,0,0,0,0,0,0,0,0,0,0,0,0,0,0,0,0,0,0,0,0,0,
0,0,0,0,0,0,0,0,0,0,0,0,0,0,0,0,0,0,0,0,0,0,0,0,0,0,0,0,0,0,0,0,0,0,0,0,0,0,0,0,0,0,0,0,0,0,0,0,0,0,0,0,0,0,0,0,0,0,0,0,0,0,0,0,0,0,0,0,0,0,0,0,0,0,0,0,0,0,0,0,0,0,0,0,0,0,0,0,0,0,0,0,0,0,0,0,0,0,0,0,0,0,0,0,0,0,0,0,0,0,0,0,0,0,0,0,0,0,0,0,0,0,0,0,0,0,0,0,0,0,0,0,0,0,0,0,0,0,0,0,0,0,0,0,0,0,0,0,0,0,0,0,0,0,0,0,0,0,0,0,0,0,0,0,0,0,0,0,0,0,0,0,0,0,0,0,0,0,0,0,0,0,0,0,0,0,0,0,0,0,0,0,0,0,0,0,0,0,0,0,
0,0,0,0,0,0,0,0,0,0,0,0,0,0,0,0,0,0,0,0,0,0,0,0,0,0,0,0,0,0,0,0,0,0,0,0,0,0,0,0,0,0,0,0,0,0,0,0,0,0,0,0,0,0,0,0,0,0,0,0,0,0,0,0,0,0,0,0,0,0,0,0,0,0,0,0,0,0,0,0,0,0,0,0,0,0,0,0,0,0,0,0,0,0,0,0,0,0,0,0,0,0,0,0,0,0,0,0,0,0,0,0,0,0,0,0,0,0,0,0,0,0,0,0,0,0,0,0,0,0,0,0,0,0,0,0,0,0,0,0,0,0,0,0,0,0,0,0,0,0,0,0,0,0,0,0,0,0,0,0,0,0,0,0,0,0,0,0,0,0,0,0,0,0,0,0,0,0,0,0,0,0,0,0,0,0,0,0,0,0,0,0,0,0,0,0,0,0,0,0,
0,0,0,0,0,0,0,0,0,0,0,0,0,0,0,0,0,0,0,0,0,0,0,0,0,0,0,0,0,0,0,0,0,0,0,0,0,0,0,0,0,0,0,0,0,0,0,0,0,0,0,0,0,0,0,0,0,0,0,0,0,0,0,0,0,0,0,0,0,0,0,0,0,0,0,0,0,0,0,0,0,0,0,0,0,0,0,0,0,0,0,0,0,0,0,0,0,0,0,0,0,0,0,0,0,0,0,0,0,0,0,0,0,0,0,0,0,0,0,0,0,0,0,0,0,0,0,0,0,0,0,0,0,0,0,0,0,0,0,0,0,0,0,0,0,0,0,0,0,0,0,0,0,0,0,0,0,0,0,0,0,0,0,0,0,0,0,0,0,0,0,0,0,0,0,0,0,0,0,0,0,0,0,0,0,0,0,0,0,0,0,0,0,0,0,0,0,0,0,0,
0,0,0,0,0,0,0,0,0,0,0,0,0,0,0,0,0,0,0,0,0,0,0,0,0,0,0,0,0,0,0,0,0,0,0,0,0,0,0,0,0,0,0,0,0,0,0,0,0,0,0,0,0,0,0,0,0,0,0,0,0,0,0,0,0,0,0,0,0,0,0,0,0,0,0,0,0,0,0,0,0,0,0,0,0,0,0,0,0,0,0,0,0,0,0,0,0,0,0,0,0,0,0,0,0,0,0,0,0,0,0,0,0,0,0,0,0,0,0,0,0,0,0,0,0,0,0,0,0,0,0,0,0,0,0,0,0,0,0,0,0,0,0,0,0,0,0,0,0,0,0,0,0,0,0,0,0,0,0,0,0,0,0,0,0,0,0,0,0,0,0,0,0,0,0,0,0,0,0,0,0,0,0,0,0,0,0,0,0,0,0,0,0,0,0,0,0,0,0,0,
0,0,0,0,0,0,0,0,0,0,0,0,0,0,0,0,0,0,0,0,0,0,0,0,0,0,0,0,0,0,0,0,0,0,0,0,0,0,0,0,0,0,0,0,0,0,0,0,0,0,0,0,0,0,0,0,0,0,0,0,0,0,0,0,0,0,0,0,0,0,0,0,0,0,0,0,0,0,0,0,0,0,0,0,0,0,0,0,0,0,0,0,0,0,0,0,0,0,0,0,0,0,0,0,0,0,0,0,0,0,0,0,0,0,0,0,0,0,0,0,0,0,0,0,0,0,0,0,0,0,0,0,0,0,0,0,0,0,0,0,0,0,0,0,0,0,0,0,0,0,0,0,0,0,0,0,0,0,0,0,0,0,0,0,0,0,0,0,0,0,0,0,0,0,0,0,0,0,0,0,0,0,0,0,0,0,0,0,0,0,0,0,0,0,0,0,0,0,0,0,
0,0,0,0,0,0,0,0,0,0,0,0,0,0,0,0,0,0,0,0,0,0,0,0,0,0,0,0,0,0,0,0,0,0,0,0,0,0,0,0,0,0,0,0,0,0,0,0,0,0,0,0,0,0,0,0,0,0,0,0,0,0,0,0,0,0,0,0,0,0,0,0,0,0,0,0,0,0,0,0,0,0,0,0,0,0,0,0,0,0,0,0,0,0,0,0,0,0,0,0,0,0,0,0,0,0,0,0,0,0,0,0,0,0,0,0,0,0,0,0,0,0,0,0,0,0,0,0,0,0,0,0,0,0,0,0,0,0,0,0,0,0,0,0,0,0,0,0,0,0,0,0,0,0,0,0,0,0,0,0,0,0,0,0,0,0,0,0,0,0,0,0,0,0,0,0,0,0,0,0,0,0,0,0,0,0,0,0,0,0,0,0,0,0,0,0,0,0,0,0,
0,0,0,0,0,0,0,0,0,0,0,0,0,0,0,0,0,0,0,0,0,0,0,0,0,0,0,0,0,0,0,0,0,0,0,0,0,0,0,0,0,0,0,0,0,0,0,0,0,0,0,0,0,0,0,0,0,0,0,0,0,0,0,0,0,0,0,0,0,0,0,0,0,0,0,0,0,0,0,0,0,0,0,0,0,0,0,0,0,0,0,0,0,0,0,0,0,0,0,0,0,0,0,0,0,0,0,0,0,0,0,0,0,0,0,0,0,0,0,0,0,0,0,0,0,0,0,0,0,0,0,0,0,0,0,0,0,0,0,0,0,0,0,0,0,0,0,0,0,0,0,0,0,0,0,0,0,0,0,0,0,0,0,0,0,0,0,0,0,0,0,0,0,0,0,0,0,0,0,0,0,0,0,0,0,0,0,0,0,0,0,0,0,0,0,0,0,0,0,0,
0,0,0,0,0,0,0,0,0,0,0,0,0,0,0,0,0,0,0,0,0,0,0,0,0,0,0,0,0,0,0,0,0,0,0,0,0,0,0,0,0,0,0,0,0,0,0,0,0,0,0,0,0,0,0,0,0,0,0,0,0,0,0,0,0,0,0,0,0,0,0,0,0,0,0,0,0,0,0,0,0,0,0,0,0,0,0,0,0,0,0,0,0,0,0,0,0,0,0,0,0,0,0,0,0,0,0,0,0,0,0,0,0,0,0,0,0,0,0,0,0,0,0,0,0,0,0,0,0,0,0,0,0,0,0,0,0,0,0,0,0,0,0,0,0,0,0,0,0,0,0,0,0,0,0,0,0,0,0,0,0,0,0,0,0,0,0,0,0,0,0,0,0,0,0,0,0,0,0,0,0,0,0,0,0,0,0,0,0,0,0,0,0,0,0,0,0,0,0,0,
0,0,0,0,0,0,0,0,0,0,0,0,0,0,0,0,0,0,0,0,0,0,0,0,0,0,0,0,0,0,0,0,0,0,0,0,0,0,0,0,0,0,0,0,0,0,0,0,0,0,0,0,0,0,0,0,0,0,0,0,0,0,0,0,0,0,0,0,0,0,0,0,0,0,0,0,0,0,0,0,0,0,0,0,0,0,0,0,0,0,0,0,0,0,0,0,0,0,0,0,0,0,0,0,0,0,0,0,0,0,0,0,0,0,0,0,0,0,0,0,0,0,0,0,0,0,0,0,0,0,0,0,0,0,0,0,0,0,0,0,0,0,0,0,0,0,0,0,0,0,0,0,0,0,0,0,0,0,0,0,0,0,0,0,0,0,0,0,0,0,0,0,0,0,0,0,0,0,0,0,0,0,0,0,0,0,0,0,0,0,0,0,0,0,0,0,0,0,0,0,
0,0,0,0,0,0,0,0,0,0,0,0,0,0,0,0,0,0,0,0,0,0,0,0,0,0,0,0,0,0,0,0,0,0,0,0,0,0,0,0,0,0,0,0,0,0,0,0,0,0,0,0,0,0,0,0,0,0,0,0,0,0,0,0,0,0,0,0,0,0,0,0,0,0,0,0,0,0,0,0,0,0,0,0,0,0,0,0,0,0,0,0,0,0,0,0,0,0,0,0,0,0,0,0,0,0,0,0,0,0,0,0,0,0,0,0,0,0,0,0,0,0,0,0,0,0,0,0,0,0,0,0,0,0,0,0,0,0,0,0,0,0,0,0,0,0,0,0,0,0,0,0,0,0,0,0,0,0,0,0,0,0,0,0,0,0,0,0,0,0,0,0,0,0,0,0,0,0,0,0,0,0,0,0,0,0,0,0,0,0,0,0,0,0,0,0,0,0,0,0,
0,0,0,0,0,0,0,0,0,0,0,0,0,0,0,0,0,0,0,0,0,0,0,0,0,0,0,0,0,0,0,0,0,0,0,0,0,0,0,0,0,0,0,0,0,0,0,0,0,0,0,0,0,0,0,0,0,0,0,0,0,0,0,0,0,0,0,0,0,0,0,0,0,0,0,0,0,0,0,0,0,0,0,0,0,0,0,0,0,0,0,0,0,0,0,0,0,0,0,0,0,0,0,0,0,0,0,0,0,0,0,0,0,0,0,0,0,0,0,0,0,0,0,0,0,0,0,0,0,0,0,0,0,0,0,0,0,0,0,0,0,0,0,0,0,0,0,0,0,0,0,0,0,0,0,0,0,0,0,0,0,0,0,0,0,0,0,0,0,0,0,0,0,0,0,0,0,0,0,0,0,0,0,0,0,0,0,0,0,0,0,0,0,0,0,0,0,0,0,0,
0,0,0,0,0,0,0,0,0,0,0,0,0,0,0,0,0,0,0,0,0,0,0,0,0,0,0,0,0,0,0,0,0,0,0,0,0,0,0,0,0,0,0,0,0,0,0,0,0,0,0,0,0,0,0,0,0,0,0,0,0,0,0,0,0,0,0,0,0,0,0,0,0,0,0,0,0,0,0,0,0,0,0,0,0,0,0,0,0,0,0,0,0,0,0,0,0,0,0,0,0,0,0,0,0,0,0,0,0,0,0,0,0,0,0,0,0,0,0,0,0,0,0,0,0,0,0,0,0,0,0,0,0,0,0,0,0,0,0,0,0,0,0,0,0,0,0,0,0,0,0,0,0,0,0,0,0,0,0,0,0,0,0,0,0,0,0,0,0,0,0,0,0,0,0,0,0,0,0,0,0,0,0,0,0,0,0,0,0,0,0,0,0,0,0,0,0,0,0,0,
0,0,0,0,0,0,0,0,0,0,0,0,0,0,0,0,0,0,0,0,0,0,0,0,0,0,0,0,0,0,0,0,0,0,0,0,0,0,0,0,0,0,0,0,0,0,0,0,0,0,0,0,0,0,0,0,0,0,0,0,0,0,0,0,0,0,0,0,0,0,0,0,0,0,0,0,0,0,0,0,0,0,0,0,0,0,0,0,0,0,0,0,0,0,0,0,0,0,0,0,0,0,0,0,0,0,0,0,0,0,0,0,0,0,0,0,0,0,0,0,0,0,0,0,0,0,0,0,0,0,0,0,0,0,0,0,0,0,0,0,0,0,0,0,0,0,0,0,0,0,0,0,0,0,0,0,0,0,0,0,0,0,0,0,0,0,0,0,0,0,0,0,0,0,0,0,0,0,0,0,0,0,0,0,0,0,0,0,0,0,0,0,0,0,0,0,0,0,0,0,
0,0,0,0,0,0,0,0,0,0,0,0,0,0,0,0,0,0,0,0,0,0,0,0,0,0,0,0,0,0,0,0,0,0,0,0,0,0,0,0,0,0,0,0,0,0,0,0,0,0,0,0,0,0,0,0,0,0,0,0,0,0,0,0,0,0,0,0,0,0,0,0,0,0,0,0,0,0,0,0,0,0,0,0,0,0,0,0,0,0,0,0,0,0,0,0,0,0,0,0,0,0,0,0,0,0,0,0,0,0,0,0,0,0,0,0,0,0,0,0,0,0,0,0,0,0,0,0,0,0,0,0,0,0,0,0,0,0,0,0,0,0,0,0,0,0,0,0,0,0,0,0,0,0,0,0,0,0,0,0,0,0,0,0,0,0,0,0,0,0,0,0,0,0,0,0,0,0,0,0,0,0,0,0,0,0,0,0,0,0,0,0,0,0,0,0,0,0,0,0,
0,0,0,0,0,0,0,0,0,0,0,0,0,0,0,0,0,0,0,0,0,0,0,0,0,0,0,0,0,0,0,0,0,0,0,0,0,0,0,0,0,0,0,0,0,0,0,0,0,0,0,0,0,0,0,0,0,0,0,0,0,0,0,0,0,0,0,0,0,0,0,0,0,0,0,0,0,0,0,0,0,0,0,0,0,0,0,0,0,0,0,0,0,0,0,0,0,0,0,0,0,0,0,0,0,0,0,0,0,0,0,0,0,0,0,0,0,0,0,0,0,0,0,0,0,0,0,0,0,0,0,0,0,0,0,0,0,0,0,0,0,0,0,0,0,0,0,0,0,0,0,0,0,0,0,0,0,0,0,0,0,0,0,0,0,0,0,0,0,0,0,0,0,0,0,0,0,0,0,0,0,0,0,0,0,0,0,0,0,0,0,0,0,0,0,0,0,0,0,0,
0,0,0,0,0,0,0,0,0,0,0,0,0,0,0,0,0,0,0,0,0,0,0,0,0,0,0,0,0,0,0,0,0,0,0,0,0,0,0,0,0,0,0,0,0,0,0,0,0,0,0,0,0,0,0,0,0,0,0,0,0,0,0,0,0,0,0,0,0,0,0,0,0,0,0,0,0,0,0,0,0,0,0,0,0,0,0,0,0,0,0,0,0,0,0,0,0,0,0,0,0,0,0,0,0,0,0,0,0,0,0,0,0,0,0,0,0,0,0,0,0,0,0,0,0,0,0,0,0,0,0,0,0,0,0,0,0,0,0,0,0,0,0,0,0,0,0,0,0,0,0,0,0,0,0,0,0,0,0,0,0,0,0,0,0,0,0,0,0,0,0,0,0,0,0,0,0,0,0,0,0,0,0,0,0,0,0,0,0,0,0,0,0,0,0,0,0,0,0,0,
0,0,0,0,0,0,0,0,0,0,0,0,0,0,0,0,0,0,0,0,0,0,0,0,0,0,0,0,0,0,0,0,0,0,0,0,0,0,0,0,0,0,0,0,0,0,0,0,0,0,0,0,0,0,0,0,0,0,0,0,0,0,0,0,0,0,0,0,0,0,0,0,0,0,0,0,0,0,0,0,0,0,0,0,0,0,0,0,0,0,0,0,0,0,0,0,0,0,0,0,0,0,0,0,0,0,0,0,0,0,0,0,0,0,0,0,0,0,0,0,0,0,0,0,0,0,0,0,0,0,0,0,0,0,0,0,0,0,0,0,0,0,0,0,0,0,0,0,0,0,0,0,0,0,0,0,0,0,0,0,0,0,0,0,0,0,0,0,0,0,0,0,0,0,0,0,0,0,0,0,0,0,0,0,0,0,0,0,0,0,0,0,0,0,0,0,0,0,0,0,
0,0,0,0,0,0,0,0,0,0,0,0,0,0,0,0,0,0,0,0,0,0,0,0,0,0,0,0,0,0,0,0,0,0,0,0,0,0,0,0,0,0,0,0,0,0,0,0,0,0,0,0,0,0,0,0,0,0,0,0,0,0,0,0,0,0,0,0,0,0,0,0,0,0,0,0,0,0,0,0,0,0,0,0,0,0,0,0,0,0,0,0,0,0,0,0,0,0,0,0,0,0,0,0,0,0,0,0,0,0,0,0,0,0,0,0,0,0,0,0,0,0,0,0,0,0,0,0,0,0,0,0,0,0,0,0,0,0,0,0,0,0,0,0,0,0,0,0,0,0,0,0,0,0,0,0,0,0,0,0,0,0,0,0,0,0,0,0,0,0,0,0,0,0,0,0,0,0,0,0,0,0,0,0,0,0,0,0,0,0,0,0,0,0,0,0,0,0,0,0,
0,0,0,0,0,0,0,0,0,0,0,0,0,0,0,0,0,0,0,0,0,0,0,0,0,0,0,0,0,0,0,0,0,0,0,0,0,0,0,0,0,0,0,0,0,0,0,0,0,0,0,0,0,0,0,0,0,0,0,0,0,0,0,0,0,0,0,0,0,0,0,0,0,0,0,0,0,0,0,0,0,0,0,0,0,0,0,0,0,0,0,0,0,0,0,0,0,0,0,0,0,0,0,0,0,0,0,0,0,0,0,0,0,0,0,0,0,0,0,0,0,0,0,0,0,0,0,0,0,0,0,0,0,0,0,0,0,0,0,0,0,0,0,0,0,0,0,0,0,0,0,0,0,0,0,0,0,0,0,0,0,0,0,0,0,0,0,0,0,0,0,0,0,0,0,0,0,0,0,0,0,0,0,0,0,0,0,0,0,0,0,0,0,0,0,0,0,0,0,0,
0,0,0,0,0,0,0,0,0,0,0,0,0,0,0,0,0,0,0,0,0,0,0,0,0,0,0,0,0,0,0,0,0,0,0,0,0,0,0,0,0,0,0,0,0,0,0,0,0,0,0,0,0,0,0,0,0,0,0,0,0,0,0,0,0,0,0,0,0,0,0,0,0,0,0,0,0,0,0,0,0,0,0,0,0,0,0,0,0,0,0,0,0,0,0,0,0,0,0,0,0,0,0,0,0,0,0,0,0,0,0,0,0,0,0,0,0,0,0,0,0,0,0,0,0,0,0,0,0,0,0,0,0,0,0,0,0,0,0,0,0,0,0,0,0,0,0,0,0,0,0,0,0,0,0,0,0,0,0,0,0,0,0,0,0,0,0,0,0,0,0,0,0,0,0,0,0,0,0,0,0,0,0,0,0,0,0,0,0,0,0,0,0,0,0,0,0,0,0,0,
0,0,0,0,0,0,0,0,0,0,0,0,0,0,0,0,0,0,0,0,0,0,0,0,0,0,0,0,0,0,0,0,0,0,0,0,0,0,0,0,0,0,0,0,0,0,0,0,0,0,0,0,0,0,0,0,0,0,0,0,0,0,0,0,0,0,0,0,0,0,0,0,0,0,0,0,0,0,0,0,0,0,0,0,0,0,0,0,0,0,0,0,0,0,0,0,0,0,0,0,0,0,0,0,0,0,0,0,0,0,0,0,0,0,0,0,0,0,0,0,0,0,0,0,0,0,0,0,0,0,0,0,0,0,0,0,0,0,0,0,0,0,0,0,0,0,0,0,0,0,0,0,0,0,0,0,0,0,0,0,0,0,0,0,0,0,0,0,0,0,0,0,0,0,0,0,0,0,0,0,0,0,0,0,0,0,0,0,0,0,0,0,0,0,0,0,0,0,0,0,
0,0,0,0,0,0,0,0,0,0,0,0,0,0,0,0,0,0,0,0,0,0,0,0,0,0,0,0,0,0,0,0,0,0,0,0,0,0,0,0,0,0,0,0,0,0,0,0,0,0,0,0,0,0,0,0,0,0,0,0,0,0,0,0,0,0,0,0,0,0,0,0,0,0,0,0,0,0,0,0,0,0,0,0,0,0,0,0,0,0,0,0,0,0,0,0,0,0,0,0,0,0,0,0,0,0,0,0,0,0,0,0,0,0,0,0,0,0,0,0,0,0,0,0,0,0,0,0,0,0,0,0,0,0,0,0,0,0,0,0,0,0,0,0,0,0,0,0,0,0,0,0,0,0,0,0,0,0,0,0,0,0,0,0,0,0,0,0,0,0,0,0,0,0,0,0,0,0,0,0,0,0,0,0,0,0,0,0,0,0,0,0,0,0,0,0,0,0,0,0,
0,0,0,0,0,0,0,0,0,0,0,0,0,0,0,0,0,0,0,0,0,0,0,0,0,0,0,0,0,0,0,0,0,0,0,0,0,0,0,0,0,0,0,0,0,0,0,0,0,0,0,0,0,0,0,0,0,0,0,0,0,0,0,0,0,0,0,0,0,0,0,0,0,0,0,0,0,0,0,0,0,0,0,0,0,0,0,0,0,0,0,0,0,0,0,0,0,0,0,0,0,0,0,0,0,0,0,0,0,0,0,0,0,0,0,0,0,0,0,0,0,0,0,0,0,0,0,0,0,0,0,0,0,0,0,0,0,0,0,0,0,0,0,0,0,0,0,0,0,0,0,0,0,0,0,0,0,0,0,0,0,0,0,0,0,0,0,0,0,0,0,0,0,0,0,0,0,0,0,0,0,0,0,0,0,0,0,0,0,0,0,0,0,0,0,0,0,0,0,0,
0,0,0,0,0,0,0,0,0,0,0,0,0,0,0,0,0,0,0,0,0,0,0,0,0,0,0,0,0,0,0,0,0,0,0,0,0,0,0,0,0,0,0,0,0,0,0,0,0,0,0,0,0,0,0,0,0,0,0,0,0,0,0,0,0,0,0,0,0,0,0,0,0,0,0,0,0,0,0,0,0,0,0,0,0,0,0,0,0,0,0,0,0,0,0,0,0,0,0,0,0,0,0,0,0,0,0,0,0,0,0,0,0,0,0,0,0,0,0,0,0,0,0,0,0,0,0,0,0,0,0,0,0,0,0,0,0,0,0,0,0,0,0,0,0,0,0,0,0,0,0,0,0,0,0,0,0,0,0,0,0,0,0,0,0,0,0,0,0,0,0,0,0,0,0,0,0,0,0,0,0,0,0,0,0,0,0,0,0,0,0,0,0,0,0,0,0,0,0,0,
0,0,0,0,0,0,0,0,0,0,0,0,0,0,0,0,0,0,0,0,0,0,0,0,0,0,0,0,0,0,0,0,0,0,0,0,0,0,0,0,0,0,0,0,0,0,0,0,0,0,0,0,0,0,0,0,0,0,0,0,0,0,0,0,0,0,0,0,0,0,0,0,0,0,0,0,0,0,0,0,0,0,0,0,0,0,0,0,0,0,0,0,0,0,0,0,0,0,0,0,0,0,0,0,0,0,0,0,0,0,0,0,0,0,0,0,0,0,0,0,0,0,0,0,0,0,0,0,0,0,0,0,0,0,0,0,0,0,0,0,0,0,0,0,0,0,0,0,0,0,0,0,0,0,0,0,0,0,0,0,0,0,0,0,0,0,0,0,0,0,0,0,0,0,0,0,0,0,0,0,0,0,0,0,0,0,0,0,0,0,0,0,0,0,0,0,0,0,0,0,
0,0,0,0,0,0,0,0,0,0,0,0,0,0,0,0,0,0,0,0,0,0,0,0,0,0,0,0,0,0,0,0,0,0,0,0,0,0,0,0,0,0,0,0,0,0,0,0,0,0,0,0,0,0,0,0,0,0,0,0,0,0,0,0,0,0,0,0,0,0,0,0,0,0,0,0,0,0,0,0,0,0,0,0,0,0,0,0,0,0,0,0,0,0,0,0,0,0,0,0,0,0,0,0,0,0,0,0,0,0,0,0,0,0,0,0,0,0,0,0,0,0,0,0,0,0,0,0,0,0,0,0,0,0,0,0,0,0,0,0,0,0,0,0,0,0,0,0,0,0,0,0,0,0,0,0,0,0,0,0,0,0,0,0,0,0,0,0,0,0,0,0,0,0,0,0,0,0,0,0,0,0,0,0,0,0,0,0,0,0,0,0,0,0,0,0,0,0,0,0,
0,0,0,0,0,0,0,0,0,0,0,0,0,0,0,0,0,0,0,0,0,0,0,0,0,0,0,0,0,0,0,0,0,0,0,0,0,0,0,0,0,0,0,0,0,0,0,0,0,0,0,0,0,0,0,0,0,0,0,0,0,0,0,0,0,0,0,0,0,0,0,0,0,0,0,0,0,0,0,0,0,0,0,0,0,0,0,0,0,0,0,0,0,0,0,0,0,0,0,0,0,0,0,0,0,0,0,0,0,0,0,0,0,0,0,0,0,0,0,0,0,0,0,0,0,0,0,0,0,0,0,0,0,0,0,0,0,0,0,0,0,0,0,0,0,0,0,0,0,0,0,0,0,0,0,0,0,0,0,0,0,0,0,0,0,0,0,0,0,0,0,0,0,0,0,0,0,0,0,0,0,0,0,0,0,0,0,0,0,0,0,0,0,0,0,0,0,0,0,0,
0,0,0,0,0,0,0,0,0,0,0,0,0,0,0,0,0,0,0,0,0,0,0,0,0,0,0,0,0,0,0,0,0,0,0,0,0,0,0,0,0,0,0,0,0,0,0,0,0,0,0,0,0,0,0,0,0,0,0,0,0,0,0,0,0,0,0,0,0,0,0,0,0,0,0,0,0,0,0,0,0,0,0,0,0,0,0,0,0,0,0,0,0,0,0,0,0,0,0,0,0,0,0,0,0,0,0,0,0,0,0,0,0,0,0,0,0,0,0,0,0,0,0,0,0,0,0,0,0,0,0,0,0,0,0,0,0,0,0,0,0,0,0,0,0,0,0,0,0,0,0,0,0,0,0,0,0,0,0,0,0,0,0,0,0,0,0,0,0,0,0,0,0,0,0,0,0,0,0,0,0,0,0,0,0,0,0,0,0,0,0,0,0,0,0,0,0,0,0,0,
0,0,0,0,0,0,0,0,0,0,0,0,0,0,0,0,0,0,0,0,0,0,0,0,0,0,0,0,0,0,0,0,0,0,0,0,0,0,0,0,0,0,0,0,0,0,0,0,0,0,0,0,0,0,0,0,0,0,0,0,0,0,0,0,0,0,0,0,0,0,0,0,0,0,0,0,0,0,0,0,0,0,0,0,0,0,0,0,0,0,0,0,0,0,0,0,0,0,0,0,0,0,0,0,0,0,0,0,0,0,0,0,0,0,0,0,0,0,0,0,0,0,0,0,0,0,0,0,0,0,0,0,0,0,0,0,0,0,0,0,0,0,0,0,0,0,0,0,0,0,0,0,0,0,0,0,0,0,0,0,0,0,0,0,0,0,0,0,0,0,0,0,0,0,0,0,0,0,0,0,0,0,0,0,0,0,0,0,0,0,0,0,0,0,0,0,0,0,0,0,
0,0,0,0,0,0,0,0,0,0,0,0,0,0,0,0,0,0,0,0,0,0,0,0,0,0,0,0,0,0,0,0,0,0,0,0,0,0,0,0,0,0,0,0,0,0,0,0,0,0,0,0,0,0,0,0,0,0,0,0,0,0,0,0,0,0,0,0,0,0,0,0,0,0,0,0,0,0,0,0,0,0,0,0,0,0,0,0,0,0,0,0,0,0,0,0,0,0,0,0,0,0,0,0,0,0,0,0,0,0,0,0,0,0,0,0,0,0,0,0,0,0,0,0,0,0,0,0,0,0,0,0,0,0,0,0,0,0,0,0,0,0,0,0,0,0,0,0,0,0,0,0,0,0,0,0,0,0,0,0,0,0,0,0,0,0,0,0,0,0,0,0,0,0,0,0,0,0,0,0,0,0,0,0,0,0,0,0,0,0,0,0,0,0,0,0,0,0,0,0,
0,0,0,0,0,0,0,0,0,0,0,0,0,0,0,0,0,0,0,0,0,0,0,0,0,0,0,0,0,0,0,0,0,0,0,0,0,0,0,0,0,0,0,0,0,0,0,0,0,0,0,0,0,0,0,0,0,0,0,0,0,0,0,0,0,0,0,0,0,0,0,0,0,0,0,0,0,0,0,0,0,0,0,0,0,0,0,0,0,0,0,0,0,0,0,0,0,0,0,0,0,0,0,0,0,0,0,0,0,0,0,0,0,0,0,0,0,0,0,0,0,0,0,0,0,0,0,0,0,0,0,0,0,0,0,0,0,0,0,0,0,0,0,0,0,0,0,0,0,0,0,0,0,0,0,0,0,0,0,0,0,0,0,0,0,0,0,0,0,0,0,0,0,0,0,0,0,0,0,0,0,0,0,0,0,0,0,0,0,0,0,0,0,0,0,0,0,0,0,0,
0,0,0,0,0,0,0,0,0,0,0,0,0,0,0,0,0,0,0,0,0,0,0,0,0,0,0,0,0,0,0,0,0,0,0,0,0,0,0,0,0,0,0,0,0,0,0,0,0,0,0,0,0,0,0,0,0,0,0,0,0,0,0,0,0,0,0,0,0,0,0,0,0,0,0,0,0,0,0,0,0,0,0,0,0,0,0,0,0,0,0,0,0,0,0,0,0,0,0,0,0,0,0,0,0,0,0,0,0,0,0,0,0,0,0,0,0,0,0,0,0,0,0,0,0,0,0,0,0,0,0,0,0,0,0,0,0,0,0,0,0,0,0,0,0,0,0,0,0,0,0,0,0,0,0,0,0,0,0,0,0,0,0,0,0,0,0,0,0,0,0,0,0,0,0,0,0,0,0,0,0,0,0,0,0,0,0,0,0,0,0,0,0,0,0,0,0,0,0,0,
0,0,0,0,0,0,0,0,0,0,0,0,0,0,0,0,0,0,0,0,0,0,0,0,0,0,0,0,0,0,0,0,0,0,0,0,0,0,0,0,0,0,0,0,0,0,0,0,0,0,0,0,0,0,0,0,0,0,0,0,0,0,0,0,0,0,0,0,0,0,0,0,0,0,0,0,0,0,0,0,0,0,0,0,0,0,0,0,0,0,0,0,0,0,0,0,0,0,0,0,0,0,0,0,0,0,0,0,0,0,0,0,0,0,0,0,0,0,0,0,0,0,0,0,0,0,0,0,0,0,0,0,0,0,0,0,0,0,0,0,0,0,0,0,0,0,0,0,0,0,0,0,0,0,0,0,0,0,0,0,0,0,0,0,0,0,0,0,0,0,0,0,0,0,0,0,0,0,0,0,0,0,0,0,0,0,0,0,0,0,0,0,0,0,0,0,0,0,0,0,
0,0,0,0,0,0,0,0,0,0,0,0,0,0,0,0,0,0,0,0,0,0,0,0,0,0,0,0,0,0,0,0,0,0,0,0,0,0,0,0,0,0,0,0,0,0,0,0,0,0,0,0,0,0,0,0,0,0,0,0,0,0,0,0,0,0,0,0,0,0,0,0,0,0,0,0,0,0,0,0,0,0,0,0,0,0,0,0,0,0,0,0,0,0,0,0,0,0,0,0,0,0,0,0,0,0,0,0,0,0,0,0,0,0,0,0,0,0,0,0,0,0,0,0,0,0,0,0,0,0,0,0,0,0,0,0,0,0,0,0,0,0,0,0,0,0,0,0,0,0,0,0,0,0,0,0,0,0,0,0,0,0,0,0,0,0,0,0,0,0,0,0,0,0,0,0,0,0,0,0,0,0,0,0,0,0,0,0,0,0,0,0,0,0,0,0,0,0,0,0,
0,0,0,0,0,0,0,0,0,0,0,0,0,0,0,0,0,0,0,0,0,0,0,0,0,0,0,0,0,0,0,0,0,0,0,0,0,0,0,0,0,0,0,0,0,0,0,0,0,0,0,0,0,0,0,0,0,0,0,0,0,0,0,0,0,0,0,0,0,0,0,0,0,0,0,0,0,0,0,0,0,0,0,0,0,0,0,0,0,0,0,0,0,0,0,0,0,0,0,0,0,0,0,0,0,0,0,0,0,0,0,0,0,0,0,0,0,0,0,0,0,0,0,0,0,0,0,0,0,0,0,0,0,0,0,0,0,0,0,0,0,0,0,0,0,0,0,0,0,0,0,0,0,0,0,0,0,0,0,0,0,0,0,0,0,0,0,0,0,0,0,0,0,0,0,0,0,0,0,0,0,0,0,0,0,0,0,0,0,0,0,0,0,0,0,0,0,0,0,0,
0,0,0,0,0,0,0,0,0,0,0,0,0,0,0,0,0,0,0,0,0,0,0,0,0,0,0,0,0,0,0,0,0,0,0,0,0,0,0,0,0,0,0,0,0,0,0,0,0,0,0,0,0,0,0,0,0,0,0,0,0,0,0,0,0,0,0,0,0,0,0,0,0,0,0,0,0,0,0,0,0,0,0,0,0,0,0,0,0,0,0,0,0,0,0,0,0,0,0,0,0,0,0,0,0,0,0,0,0,0,0,0,0,0,0,0,0,0,0,0,0,0,0,0,0,0,0,0,0,0,0,0,0,0,0,0,0,0,0,0,0,0,0,0,0,0,0,0,0,0,0,0,0,0,0,0,0,0,0,0,0,0,0,0,0,0,0,0,0,0,0,0,0,0,0,0,0,0,0,0,0,0,0,0,0,0,0,0,0,0,0,0,0,0,0,0,0,0,0,0,
0,0,0,0,0,0,0,0,0,0,0,0,0,0,0,0,0,0,0,0,0,0,0,0,0,0,0,0,0,0,0,0,0,0,0,0,0,0,0,0,0,0,0,0,0,0,0,0,0,0,0,0,0,0,0,0,0,0,0,0,0,0,0,0,0,0,0,0,0,0,0,0,0,0,0,0,0,0,0,0,0,0,0,0,0,0,0,0,0,0,0,0,0,0,0,0,0,0,0,0,0,0,0,0,0,0,0,0,0,0,0,0,0,0,0,0,0,0,0,0,0,0,0,0,0,0,0,0,0,0,0,0,0,0,0,0,0,0,0,0,0,0,0,0,0,0,0,0,0,0,0,0,0,0,0,0,0,0,0,0,0,0,0,0,0,0,0,0,0,0,0,0,0,0,0,0,0,0,0,0,0,0,0,0,0,0,0,0,0,0,0,0,0,0,0,0,0,0,0,0,
0,0,0,0,0,0,0,0,0,0,0,0,0,0,0,0,0,0,0,0,0,0,0,0,0,0,0,0,0,0,0,0,0,0,0,0,0,0,0,0,0,0,0,0,0,0,0,0,0,0,0,0,0,0,0,0,0,0,0,0,0,0,0,0,0,0,0,0,0,0,0,0,0,0,0,0,0,0,0,0,0,0,0,0,0,0,0,0,0,0,0,0,0,0,0,0,0,0,0,0,0,0,0,0,0,0,0,0,0,0,0,0,0,0,0,0,0,0,0,0,0,0,0,0,0,0,0,0,0,0,0,0,0,0,0,0,0,0,0,0,0,0,0,0,0,0,0,0,0,0,0,0,0,0,0,0,0,0,0,0,0,0,0,0,0,0,0,0,0,0,0,0,0,0,0,0,0,0,0,0,0,0,0,0,0,0,0,0,0,0,0,0,0,0,0,0,0,0,0,0,
0,0,0,0,0,0,0,0,0,0,0,0,0,0,0,0,0,0,0,0,0,0,0,0,0,0,0,0,0,0,0,0,0,0,0,0,0,0,0,0,0,0,0,0,0,0,0,0,0,0,0,0,0,0,0,0,0,0,0,0,0,0,0,0,0,0,0,0,0,0,0,0,0,0,0,0,0,0,0,0,0,0,0,0,0,0,0,0,0,0,0,0,0,0,0,0,0,0,0,0,0,0,0,0,0,0,0,0,0,0,0,0,0,0,0,0,0,0,0,0,0,0,0,0,0,0,0,0,0,0,0,0,0,0,0,0,0,0,0,0,0,0,0,0,0,0,0,0,0,0,0,0,0,0,0,0,0,0,0,0,0,0,0,0,0,0,0,0,0,0,0,0,0,0,0,0,0,0,0,0,0,0,0,0,0,0,0,0,0,0,0,0,0,0,0,0,0,0,0,0,
0,0,0,0,0,0,0,0,0,0,0,0,0,0,0,0,0,0,0,0,0,0,0,0,0,0,0,0,0,0,0,0,0,0,0,0,0,0,0,0,0,0,0,0,0,0,0,0,0,0,0,0,0,0,0,0,0,0,0,0,0,0,0,0,0,0,0,0,0,0,0,0,0,0,0,0,0,0,0,0,0,0,0,0,0,0,0,0,0,0,0,0,0,0,0,0,0,0,0,0,0,0,0,0,0,0,0,0,0,0,0,0,0,0,0,0,0,0,0,0,0,0,0,0,0,0,0,0,0,0,0,0,0,0,0,0,0,0,0,0,0,0,0,0,0,0,0,0,0,0,0,0,0,0,0,0,0,0,0,0,0,0,0,0,0,0,0,0,0,0,0,0,0,0,0,0,0,0,0,0,0,0,0,0,0,0,0,0,0,0,0,0,0,0,0,0,0,0,0,0,
0,0,0,0,0,0,0,0,0,0,0,0,0,0,0,0,0,0,0,0,0,0,0,0,0,0,0,0,0,0,0,0,0,0,0,0,0,0,0,0,0,0,0,0,0,0,0,0,0,0,0,0,0,0,0,0,0,0,0,0,0,0,0,0,0,0,0,0,0,0,0,0,0,0,0,0,0,0,0,0,0,0,0,0,0,0,0,0,0,0,0,0,0,0,0,0,0,0,0,0,0,0,0,0,0,0,0,0,0,0,0,0,0,0,0,0,0,0,0,0,0,0,0,0,0,0,0,0,0,0,0,0,0,0,0,0,0,0,0,0,0,0,0,0,0,0,0,0,0,0,0,0,0,0,0,0,0,0,0,0,0,0,0,0,0,0,0,0,0,0,0,0,0,0,0,0,0,0,0,0,0,0,0,0,0,0,0,0,0,0,0,0,0,0,0,0,0,0,0,0,
0,0,0,0,0,0,0,0,0,0,0,0,0,0,0,0,0,0,0,0,0,0,0,0,0,0,0,0,0,0,0,0,0,0,0,0,0,0,0,0,0,0,0,0,0,0,0,0,0,0,0,0,0,0,0,0,0,0,0,0,0,0,0,0,0,0,0,0,0,0,0,0,0,0,0,0,0,0,0,0,0,0,0,0,0,0,0,0,0,0,0,0,0,0,0,0,0,0,0,0,0,0,0,0,0,0,0,0,0,0,0,0,0,0,0,0,0,0,0,0,0,0,0,0,0,0,0,0,0,0,0,0,0,0,0,0,0,0,0,0,0,0,0,0,0,0,0,0,0,0,0,0,0,0,0,0,0,0,0,0,0,0,0,0,0,0,0,0,0,0,0,0,0,0,0,0,0,0,0,0,0,0,0,0,0,0,0,0,0,0,0,0,0,0,0,0,0,0,0,0,
0,0,0,0,0,0,0,0,0,0,0,0,0,0,0,0,0,0,0,0,0,0,0,0,0,0,0,0,0,0,0,0,0,0,0,0,0,0,0,0,0,0,0,0,0,0,0,0,0,0,0,0,0,0,0,0,0,0,0,0,0,0,0,0,0,0,0,0,0,0,0,0,0,0,0,0,0,0,0,0,0,0,0,0,0,0,0,0,0,0,0,0,0,0,0,0,0,0,0,0,0,0,0,0,0,0,0,0,0,0,0,0,0,0,0,0,0,0,0,0,0,0,0,0,0,0,0,0,0,0,0,0,0,0,0,0,0,0,0,0,0,0,0,0,0,0,0,0,0,0,0,0,0,0,0,0,0,0,0,0,0,0,0,0,0,0,0,0,0,0,0,0,0,0,0,0,0,0,0,0,0,0,0,0,0,0,0,0,0,0,0,0,0,0,0,0,0,0,0,0,
0,0,0,0,0,0,0,0,0,0,0,0,0,0,0,0,0,0,0,0,0,0,0,0,0,0,0,0,0,0,0,0,0,0,0,0,0,0,0,0,0,0,0,0,0,0,0,0,0,0,0,0,0,0,0,0,0,0,0,0,0,0,0,0,0,0,0,0,0,0,0,0,0,0,0,0,0,0,0,0,0,0,0,0,0,0,0,0,0,0,0,0,0,0,0,0,0,0,0,0,0,0,0,0,0,0,0,0,0,0,0,0,0,0,0,0,0,0,0,0,0,0,0,0,0,0,0,0,0,0,0,0,0,0,0,0,0,0,0,0,0,0,0,0,0,0,0,0,0,0,0,0,0,0,0,0,0,0,0,0,0,0,0,0,0,0,0,0,0,0,0,0,0,0,0,0,0,0,0,0,0,0,0,0,0,0,0,0,0,0,0,0,0,0,0,0,0,0,0,0,
0,0,0,0,0,0,0,0,0,0,0,0,0,0,0,0,0,0,0,0,0,0,0,0,0,0,0,0,0,0,0,0,0,0,0,0,0,0,0,0,0,0,0,0,0,0,0,0,0,0,0,0,0,0,0,0,0,0,0,0,0,0,0,0,0,0,0,0,0,0,0,0,0,0,0,0,0,0,0,0,0,0,0,0,0,0,0,0,0,0,0,0,0,0,0,0,0,0,0,0,0,0,0,0,0,0,0,0,0,0,0,0,0,0,0,0,0,0,0,0,0,0,0,0,0,0,0,0,0,0,0,0,0,0,0,0,0,0,0,0,0,0,0,0,0,0,0,0,0,0,0,0,0,0,0,0,0,0,0,0,0,0,0,0,0,0,0,0,0,0,0,0,0,0,0,0,0,0,0,0,0,0,0,0,0,0,0,0,0,0,0,0,0,0,0,0,0,0,0,0,
0,0,0,0,0,0,0,0,0,0,0,0,0,0,0,0,0,0,0,0,0,0,0,0,0,0,0,0,0,0,0,0,0,0,0,0,0,0,0,0,0,0,0,0,0,0,0,0,0,0,0,0,0,0,0,0,0,0,0,0,0,0,0,0,0,0,0,0,0,0,0,0,0,0,0,0,0,0,0,0,0,0,0,0,0,0,0,0,0,0,0,0,0,0,0,0,0,0,0,0,0,0,0,0,0,0,0,0,0,0,0,0,0,0,0,0,0,0,0,0,0,0,0,0,0,0,0,0,0,0,0,0,0,0,0,0,0,0,0,0,0,0,0,0,0,0,0,0,0,0,0,0,0,0,0,0,0,0,0,0,0,0,0,0,0,0,0,0,0,0,0,0,0,0,0,0,0,0,0,0,0,0,0,0,0,0,0,0,0,0,0,0,0,0,0,0,0,0,0,0,
0,0,0,0,0,0,0,0,0,0,0,0,0,0,0,0,0,0,0,0,0,0,0,0,0,0,0,0,0,0,0,0,0,0,0,0,0,0,0,0,0,0,0,0,0,0,0,0,0,0,0,0,0,0,0,0,0,0,0,0,0,0,0,0,0,0,0,0,0,0,0,0,0,0,0,0,0,0,0,0,0,0,0,0,0,0,0,0,0,0,0,0,0,0,0,0,0,0,0,0,0,0,0,0,0,0,0,0,0,0,0,0,0,0,0,0,0,0,0,0,0,0,0,0,0,0,0,0,0,0,0,0,0,0,0,0,0,0,0,0,0,0,0,0,0,0,0,0,0,0,0,0,0,0,0,0,0,0,0,0,0,0,0,0,0,0,0,0,0,0,0,0,0,0,0,0,0,0,0,0,0,0,0,0,0,0,0,0,0,0,0,0,0,0,0,0,0,0,0,0,
0,0,0,0,0,0,0,0,0,0,0,0,0,0,0,0,0,0,0,0,0,0,0,0,0,0,0,0,0,0,0,0,0,0,0,0,0,0,0,0,0,0,0,0,0,0,0,0,0,0,0,0,0,0,0,0,0,0,0,0,0,0,0,0,0,0,0,0,0,0,0,0,0,0,0,0,0,0,0,0,0,0,0,0,0,0,0,0,0,0,0,0,0,0,0,0,0,0,0,0,0,0,0,0,0,0,0,0,0,0,0,0,0,0,0,0,0,0,0,0,0,0,0,0,0,0,0,0,0,0,0,0,0,0,0,0,0,0,0,0,0,0,0,0,0,0,0,0,0,0,0,0,0,0,0,0,0,0,0,0,0,0,0,0,0,0,0,0,0,0,0,0,0,0,0,0,0,0,0,0,0,0,0,0,0,0,0,0,0,0,0,0,0,0,0,0,0,0,0,0,
0,0,0,0,0,0,0,0,0,0,0,0,0,0,0,0,0,0,0,0,0,0,0,0,0,0,0,0,0,0,0,0,0,0,0,0,0,0,0,0,0,0,0,0,0,0,0,0,0,0,0,0,0,0,0,0,0,0,0,0,0,0,0,0,0,0,0,0,0,0,0,0,0,0,0,0,0,0,0,0,0,0,0,0,0,0,0,0,0,0,0,0,0,0,0,0,0,0,0,0,0,0,0,0,0,0,0,0,0,0,0,0,0,0,0,0,0,0,0,0,0,0,0,0,0,0,0,0,0,0,0,0,0,0,0,0,0,0,0,0,0,0,0,0,0,0,0,0,0,0,0,0,0,0,0,0,0,0,0,0,0,0,0,0,0,0,0,0,0,0,0,0,0,0,0,0,0,0,0,0,0,0,0,0,0,0,0,0,0,0,0,0,0,0,0,0,0,0,0,0,
0,0,0,0,0,0,0,0,0,0,0,0,0,0,0,0,0,0,0,0,0,0,0,0,0,0,0,0,0,0,0,0,0,0,0,0,0,0,0,0,0,0,0,0,0,0,0,0,0,0,0,0,0,0,0,0,0,0,0,0,0,0,0,0,0,0,0,0,0,0,0,0,0,0,0,0,0,0,0,0,0,0,0,0,0,0,0,0,0,0,0,0,0,0,0,0,0,0,0,0,0,0,0,0,0,0,0,0,0,0,0,0,0,0,0,0,0,0,0,0,0,0,0,0,0,0,0,0,0,0,0,0,0,0,0,0,0,0,0,0,0,0,0,0,0,0,0,0,0,0,0,0,0,0,0,0,0,0,0,0,0,0,0,0,0,0,0,0,0,0,0,0,0,0,0,0,0,0,0,0,0,0,0,0,0,0,0,0,0,0,0,0,0,0,0,0,0,0,0,0,
0,0,0,0,0,0,0,0,0,0,0,0,0,0,0,0,0,0,0,0,0,0,0,0,0,0,0,0,0,0,0,0,0,0,0,0,0,0,0,0,0,0,0,0,0,0,0,0,0,0,0,0,0,0,0,0,0,0,0,0,0,0,0,0,0,0,0,0,0,0,0,0,0,0,0,0,0,0,0,0,0,0,0,0,0,0,0,0,0,0,0,0,0,0,0,0,0,0,0,0,0,0,0,0,0,0,0,0,0,0,0,0,0,0,0,0,0,0,0,0,0,0,0,0,0,0,0,0,0,0,0,0,0,0,0,0,0,0,0,0,0,0,0,0,0,0,0,0,0,0,0,0,0,0,0,0,0,0,0,0,0,0,0,0,0,0,0,0,0,0,0,0,0,0,0,0,0,0,0,0,0,0,0,0,0,0,0,0,0,0,0,0,0,0,0,0,0,0,0,0,
0,0,0,0,0,0,0,0,0,0,0,0,0,0,0,0,0,0,0,0,0,0,0,0,0,0,0,0,0,0,0,0,0,0,0,0,0,0,0,0,0,0,0,0,0,0,0,0,0,0,0,0,0,0,0,0,0,0,0,0,0,0,0,0,0,0,0,0,0,0,0,0,0,0,0,0,0,0,0,0,0,0,0,0,0,0,0,0,0,0,0,0,0,0,0,0,0,0,0,0,0,0,0,0,0,0,0,0,0,0,0,0,0,0,0,0,0,0,0,0,0,0,0,0,0,0,0,0,0,0,0,0,0,0,0,0,0,0,0,0,0,0,0,0,0,0,0,0,0,0,0,0,0,0,0,0,0,0,0,0,0,0,0,0,0,0,0,0,0,0,0,0,0,0,0,0,0,0,0,0,0,0,0,0,0,0,0,0,0,0,0,0,0,0,0,0,0,0,0,0,
0,0,0,0,0,0,0,0,0,0,0,0,0,0,0,0,0,0,0,0,0,0,0,0,0,0,0,0,0,0,0,0,0,0,0,0,0,0,0,0,0,0,0,0,0,0,0,0,0,0,0,0,0,0,0,0,0,0,0,0,0,0,0,0,0,0,0,0,0,0,0,0,0,0,0,0,0,0,0,0,0,0,0,0,0,0,0,0,0,0,0,0,0,0,0,0,0,0,0,0,0,0,0,0,0,0,0,0,0,0,0,0,0,0,0,0,0,0,0,0,0,0,0,0,0,0,0,0,0,0,0,0,0,0,0,0,0,0,0,0,0,0,0,0,0,0,0,0,0,0,0,0,0,0,0,0,0,0,0,0,0,0,0,0,0,0,0,0,0,0,0,0,0,0,0,0,0,0,0,0,0,0,0,0,0,0,0,0,0,0,0,0,0,0,0,0,0,0,0,0,
0,0,0,0,0,0,0,0,0,0,0,0,0,0,0,0,0,0,0,0,0,0,0,0,0,0,0,0,0,0,0,0,0,0,0,0,0,0,0,0,0,0,0,0,0,0,0,0,0,0,0,0,0,0,0,0,0,0,0,0,0,0,0,0,0,0,0,0,0,0,0,0,0,0,0,0,0,0,0,0,0,0,0,0,0,0,0,0,0,0,0,0,0,0,0,0,0,0,0,0,0,0,0,0,0,0,0,0,0,0,0,0,0,0,0,0,0,0,0,0,0,0,0,0,0,0,0,0,0,0,0,0,0,0,0,0,0,0,0,0,0,0,0,0,0,0,0,0,0,0,0,0,0,0,0,0,0,0,0,0,0,0,0,0,0,0,0,0,0,0,0,0,0,0,0,0,0,0,0,0,0,0,0,0,0,0,0,0,0,0,0,0,0,0,0,0,0,0,0,0,
0,0,0,0,0,0,0,0,0,0,0,0,0,0,0,0,0,0,0,0,0,0,0,0,0,0,0,0,0,0,0,0,0,0,0,0,0,0,0,0,0,0,0,0,0,0,0,0,0,0,0,0,0,0,0,0,0,0,0,0,0,0,0,0,0,0,0,0,0,0,0,0,0,0,0,0,0,0,0,0,0,0,0,0,0,0,0,0,0,0,0,0,0,0,0,0,0,0,0,0,0,0,0,0,0,0,0,0,0,0,0,0,0,0,0,0,0,0,0,0,0,0,0,0,0,0,0,0,0,0,0,0,0,0,0,0,0,0,0,0,0,0,0,0,0,0,0,0,0,0,0,0,0,0,0,0,0,0,0,0,0,0,0,0,0,0,0,0,0,0,0,0,0,0,0,0,0,0,0,0,0,0,0,0,0,0,0,0,0,0,0,0,0,0,0,0,0,0,0,0,
0,0,0,0,0,0,0,0,0,0,0,0,0,0,0,0,0,0,0,0,0,0,0,0,0,0,0,0,0,0,0,0,0,0,0,0,0,0,0,0,0,0,0,0,0,0,0,0,0,0,0,0,0,0,0,0,0,0,0,0,0,0,0,0,0,0,0,0,0,0,0,0,0,0,0,0,0,0,0,0,0,0,0,0,0,0,0,0,0,0,0,0,0,0,0,0,0,0,0,0,0,0,0,0,0,0,0,0,0,0,0,0,0,0,0,0,0,0,0,0,0,0,0,0,0,0,0,0,0,0,0,0,0,0,0,0,0,0,0,0,0,0,0,0,0,0,0,0,0,0,0,0,0,0,0,0,0,0,0,0,0,0,0,0,0,0,0,0,0,0,0,0,0,0,0,0,0,0,0,0,0,0,0,0,0,0,0,0,0,0,0,0,0,0,0,0,0,0,0,0,
0,0,0,0,0,0,0,0,0,0,0,0,0,0,0,0,0,0,0,0,0,0,0,0,0,0,0,0,0,0,0,0,0,0,0,0,0,0,0,0,0,0,0,0,0,0,0,0,0,0,0,0,0,0,0,0,0,0,0,0,0,0,0,0,0,0,0,0,0,0,0,0,0,0,0,0,0,0,0,0,0,0,0,0,0,0,0,0,0,0,0,0,0,0,0,0,0,0,0,0,0,0,0,0,0,0,0,0,0,0,0,0,0,0,0,0,0,0,0,0,0,0,0,0,0,0,0,0,0,0,0,0,0,0,0,0,0,0,0,0,0,0,0,0,0,0,0,0,0,0,0,0,0,0,0,0,0,0,0,0,0,0,0,0,0,0,0,0,0,0,0,0,0,0,0,0,0,0,0,0,0,0,0,0,0,0,0,0,0,0,0,0,0,0,0,0,0,0,0,0,
0,0,0,0,0,0,0,0,0,0,0,0,0,0,0,0,0,0,0,0,0,0,0,0,0,0,0,0,0,0,0,0,0,0,0,0,0,0,0,0,0,0,0,0,0,0,0,0,0,0,0,0,0,0,0,0,0,0,0,0,0,0,0,0,0,0,0,0,0,0,0,0,0,0,0,0,0,0,0,0,0,0,0,0,0,0,0,0,0,0,0,0,0,0,0,0,0,0,0,0,0,0,0,0,0,0,0,0,0,0,0,0,0,0,0,0,0,0,0,0,0,0,0,0,0,0,0,0,0,0,0,0,0,0,0,0,0,0,0,0,0,0,0,0,0,0,0,0,0,0,0,0,0,0,0,0,0,0,0,0,0,0,0,0,0,0,0,0,0,0,0,0,0,0,0,0,0,0,0,0,0,0,0,0,0,0,0,0,0,0,0,0,0,0,0,0,0,0,0,0,
0,0,0,0,0,0,0,0,0,0,0,0,0,0,0,0,0,0,0,0,0,0,0,0,0,0,0,0,0,0,0,0,0,0,0,0,0,0,0,0,0,0,0,0,0,0,0,0,0,0,0,0,0,0,0,0,0,0,0,0,0,0,0,0,0,0,0,0,0,0,0,0,0,0,0,0,0,0,0,0,0,0,0,0,0,0,0,0,0,0,0,0,0,0,0,0,0,0,0,0,0,0,0,0,0,0,0,0,0,0,0,0,0,0,0,0,0,0,0,0,0,0,0,0,0,0,0,0,0,0,0,0,0,0,0,0,0,0,0,0,0,0,0,0,0,0,0,0,0,0,0,0,0,0,0,0,0,0,0,0,0,0,0,0,0,0,0,0,0,0,0,0,0,0,0,0,0,0,0,0,0,0,0,0,0,0,0,0,0,0,0,0,0,0,0,0,0,0,0,0,
0,0,0,0,0,0,0,0,0,0,0,0,0,0,0,0,0,0,0,0,0,0,0,0,0,0,0,0,0,0,0,0,0,0,0,0,0,0,0,0,0,0,0,0,0,0,0,0,0,0,0,0,0,0,0,0,0,0,0,0,0,0,0,0,0,0,0,0,0,0,0,0,0,0,0,0,0,0,0,0,0,0,0,0,0,0,0,0,0,0,0,0,0,0,0,0,0,0,0,0,0,0,0,0,0,0,0,0,0,0,0,0,0,0,0,0,0,0,0,0,0,0,0,0,0,0,0,0,0,0,0,0,0,0,0,0,0,0,0,0,0,0,0,0,0,0,0,0,0,0,0,0,0,0,0,0,0,0,0,0,0,0,0,0,0,0,0,0,0,0,0,0,0,0,0,0,0,0,0,0,0,0,0,0,0,0,0,0,0,0,0,0,0,0,0,0,0,0,0,0,
0,0,0,0,0,0,0,0,0,0,0,0,0,0,0,0,0,0,0,0,0,0,0,0,0,0,0,0,0,0,0,0,0,0,0,0,0,0,0,0,0,0,0,0,0,0,0,0,0,0,0,0,0,0,0,0,0,0,0,0,0,0,0,0,0,0,0,0,0,0,0,0,0,0,0,0,0,0,0,0,0,0,0,0,0,0,0,0,0,0,0,0,0,0,0,0,0,0,0,0,0,0,0,0,0,0,0,0,0,0,0,0,0,0,0,0,0,0,0,0,0,0,0,0,0,0,0,0,0,0,0,0,0,0,0,0,0,0,0,0,0,0,0,0,0,0,0,0,0,0,0,0,0,0,0,0,0,0,0,0,0,0,0,0,0,0,0,0,0,0,0,0,0,0,0,0,0,0,0,0,0,0,0,0,0,0,0,0,0,0,0,0,0,0,0,0,0,0,0,0,
0,0,0,0,0,0,0,0,0,0,0,0,0,0,0,0,0,0,0,0,0,0,0,0,0,0,0,0,0,0,0,0,0,0,0,0,0,0,0,0,0,0,0,0,0,0,0,0,0,0,0,0,0,0,0,0,0,0,0,0,0,0,0,0,0,0,0,0,0,0,0,0,0,0,0,0,0,0,0,0,0,0,0,0,0,0,0,0,0,0,0,0,0,0,0,0,0,0,0,0,0,0,0,0,0,0,0,0,0,0,0,0,0,0,0,0,0,0,0,0,0,0,0,0,0,0,0,0,0,0,0,0,0,0,0,0,0,0,0,0,0,0,0,0,0,0,0,0,0,0,0,0,0,0,0,0,0,0,0,0,0,0,0,0,0,0,0,0,0,0,0,0,0,0,0,0,0,0,0,0,0,0,0,0,0,0,0,0,0,0,0,0,0,0,0,0,0,0,0,0,
0,0,0,0,0,0,0,0,0,0,0,0,0,0,0,0,0,0,0,0,0,0,0,0,0,0,0,0,0,0,0,0,0,0,0,0,0,0,0,0,0,0,0,0,0,0,0,0,0,0,0,0,0,0,0,0,0,0,0,0,0,0,0,0,0,0,0,0,0,0,0,0,0,0,0,0,0,0,0,0,0,0,0,0,0,0,0,0,0,0,0,0,0,0,0,0,0,0,0,0,0,0,0,0,0,0,0,0,0,0,0,0,0,0,0,0,0,0,0,0,0,0,0,0,0,0,0,0,0,0,0,0,0,0,0,0,0,0,0,0,0,0,0,0,0,0,0,0,0,0,0,0,0,0,0,0,0,0,0,0,0,0,0,0,0,0,0,0,0,0,0,0,0,0,0,0,0,0,0,0,0,0,0,0,0,0,0,0,0,0,0,0,0,0,0,0,0,0,0,0,
0,0,0,0,0,0,0,0,0,0,0,0,0,0,0,0,0,0,0,0,0,0,0,0,0,0,0,0,0,0,0,0,0,0,0,0,0,0,0,0,0,0,0,0,0,0,0,0,0,0,0,0,0,0,0,0,0,0,0,0,0,0,0,0,0,0,0,0,0,0,0,0,0,0,0,0,0,0,0,0,0,0,0,0,0,0,0,0,0,0,0,0,0,0,0,0,0,0,0,0,0,0,0,0,0,0,0,0,0,0,0,0,0,0,0,0,0,0,0,0,0,0,0,0,0,0,0,0,0,0,0,0,0,0,0,0,0,0,0,0,0,0,0,0,0,0,0,0,0,0,0,0,0,0,0,0,0,0,0,0,0,0,0,0,0,0,0,0,0,0,0,0,0,0,0,0,0,0,0,0,0,0,0,0,0,0,0,0,0,0,0,0,0,0,0,0,0,0,0,0,
0,0,0,0,0,0,0,0,0,0,0,0,0,0,0,0,0,0,0,0,0,0,0,0,0,0,0,0,0,0,0,0,0,0,0,0,0,0,0,0,0,0,0,0,0,0,0,0,0,0,0,0,0,0,0,0,0,0,0,0,0,0,0,0,0,0,0,0,0,0,0,0,0,0,0,0,0,0,0,0,0,0,0,0,0,0,0,0,0,0,0,0,0,0,0,0,0,0,0,0,0,0,0,0,0,0,0,0,0,0,0,0,0,0,0,0,0,0,0,0,0,0,0,0,0,0,0,0,0,0,0,0,0,0,0,0,0,0,0,0,0,0,0,0,0,0,0,0,0,0,0,0,0,0,0,0,0,0,0,0,0,0,0,0,0,0,0,0,0,0,0,0,0,0,0,0,0,0,0,0,0,0,0,0,0,0,0,0,0,0,0,0,0,0,0,0,0,0,0,0,
0,0,0,0,0,0,0,0,0,0,0,0,0,0,0,0,0,0,0,0,0,0,0,0,0,0,0,0,0,0,0,0,0,0,0,0,0,0,0,0,0,0,0,0,0,0,0,0,0,0,0,0,0,0,0,0,0,0,0,0,0,0,0,0,0,0,0,0,0,0,0,0,0,0,0,0,0,0,0,0,0,0,0,0,0,0,0,0,0,0,0,0,0,0,0,0,0,0,0,0,0,0,0,0,0,0,0,0,0,0,0,0,0,0,0,0,0,0,0,0,0,0,0,0,0,0,0,0,0,0,0,0,0,0,0,0,0,0,0,0,0,0,0,0,0,0,0,0,0,0,0,0,0,0,0,0,0,0,0,0,0,0,0,0,0,0,0,0,0,0,0,0,0,0,0,0,0,0,0,0,0,0,0,0,0,0,0,0,0,0,0,0,0,0,0,0,0,0,0,0,
0,0,0,0,0,0,0,0,0,0,0,0,0,0,0,0,0,0,0,0,0,0,0,0,0,0,0,0,0,0,0,0,0,0,0,0,0,0,0,0,0,0,0,0,0,0,0,0,0,0,0,0,0,0,0,0,0,0,0,0,0,0,0,0,0,0,0,0,0,0,0,0,0,0,0,0,0,0,0,0,0,0,0,0,0,0,0,0,0,0,0,0,0,0,0,0,0,0,0,0,0,0,0,0,0,0,0,0,0,0,0,0,0,0,0,0,0,0,0,0,0,0,0,0,0,0,0,0,0,0,0,0,0,0,0,0,0,0,0,0,0,0,0,0,0,0,0,0,0,0,0,0,0,0,0,0,0,0,0,0,0,0,0,0,0,0,0,0,0,0,0,0,0,0,0,0,0,0,0,0,0,0,0,0,0,0,0,0,0,0,0,0,0,0,0,0,0,0,0,0,
0,0,0,0,0,0,0,0,0,0,0,0,0,0,0,0,0,0,0,0,0,0,0,0,0,0,0,0,0,0,0,0,0,0,0,0,0,0,0,0,0,0,0,0,0,0,0,0,0,0,0,0,0,0,0,0,0,0,0,0,0,0,0,0,0,0,0,0,0,0,0,0,0,0,0,0,0,0,0,0,0,0,0,0,0,0,0,0,0,0,0,0,0,0,0,0,0,0,0,0,0,0,0,0,0,0,0,0,0,0,0,0,0,0,0,0,0,0,0,0,0,0,0,0,0,0,0,0,0,0,0,0,0,0,0,0,0,0,0,0,0,0,0,0,0,0,0,0,0,0,0,0,0,0,0,0,0,0,0,0,0,0,0,0,0,0,0,0,0,0,0,0,0,0,0,0,0,0,0,0,0,0,0,0,0,0,0,0,0,0,0,0,0,0,0,0,0,0,0,0,
0,0,0,0,0,0,0,0,0,0,0,0,0,0,0,0,0,0,0,0,0,0,0,0,0,0,0,0,0,0,0,0,0,0,0,0,0,0,0,0,0,0,0,0,0,0,0,0,0,0,0,0,0,0,0,0,0,0,0,0,0,0,0,0,0,0,0,0,0,0,0,0,0,0,0,0,0,0,0,0,0,0,0,0,0,0,0,0,0,0,0,0,0,0,0,0,0,0,0,0,0,0,0,0,0,0,0,0,0,0,0,0,0,0,0,0,0,0,0,0,0,0,0,0,0,0,0,0,0,0,0,0,0,0,0,0,0,0,0,0,0,0,0,0,0,0,0,0,0,0,0,0,0,0,0,0,0,0,0,0,0,0,0,0,0,0,0,0,0,0,0,0,0,0,0,0,0,0,0,0,0,0,0,0,0,0,0,0,0,0,0,0,0,0,0,0,0,0,0,0,
0,0,0,0,0,0,0,0,0,0,0,0,0,0,0,0,0,0,0,0,0,0,0,0,0,0,0,0,0,0,0,0,0,0,0,0,0,0,0,0,0,0,0,0,0,0,0,0,0,0,0,0,0,0,0,0,0,0,0,0,0,0,0,0,0,0,0,0,0,0,0,0,0,0,0,0,0,0,0,0,0,0,0,0,0,0,0,0,0,0,0,0,0,0,0,0,0,0,0,0,0,0,0,0,0,0,0,0,0,0,0,0,0,0,0,0,0,0,0,0,0,0,0,0,0,0,0,0,0,0,0,0,0,0,0,0,0,0,0,0,0,0,0,0,0,0,0,0,0,0,0,0,0,0,0,0,0,0,0,0,0,0,0,0,0,0,0,0,0,0,0,0,0,0,0,0,0,0,0,0,0,0,0,0,0,0,0,0,0,0,0,0,0,0,0,0,0,0,0,0,
0,0,0,0,0,0,0,0,0,0,0,0,0,0,0,0,0,0,0,0,0,0,0,0,0,0,0,0,0,0,0,0,0,0,0,0,0,0,0,0,0,0,0,0,0,0,0,0,0,0,0,0,0,0,0,0,0,0,0,0,0,0,0,0,0,0,0,0,0,0,0,0,0,0,0,0,0,0,0,0,0,0,0,0,0,0,0,0,0,0,0,0,0,0,0,0,0,0,0,0,0,0,0,0,0,0,0,0,0,0,0,0,0,0,0,0,0,0,0,0,0,0,0,0,0,0,0,0,0,0,0,0,0,0,0,0,0,0,0,0,0,0,0,0,0,0,0,0,0,0,0,0,0,0,0,0,0,0,0,0,0,0,0,0,0,0,0,0,0,0,0,0,0,0,0,0,0,0,0,0,0,0,0,0,0,0,0,0,0,0,0,0,0,0,0,0,0,0,0,0,
0,0,0,0,0,0,0,0,0,0,0,0,0,0,0,0,0,0,0,0,0,0,0,0,0,0,0,0,0,0,0,0,0,0,0,0,0,0,0,0,0,0,0,0,0,0,0,0,0,0,0,0,0,0,0,0,0,0,0,0,0,0,0,0,0,0,0,0,0,0,0,0,0,0,0,0,0,0,0,0,0,0,0,0,0,0,0,0,0,0,0,0,0,0,0,0,0,0,0,0,0,0,0,0,0,0,0,0,0,0,0,0,0,0,0,0,0,0,0,0,0,0,0,0,0,0,0,0,0,0,0,0,0,0,0,0,0,0,0,0,0,0,0,0,0,0,0,0,0,0,0,0,0,0,0,0,0,0,0,0,0,0,0,0,0,0,0,0,0,0,0,0,0,0,0,0,0,0,0,0,0,0,0,0,0,0,0,0,0,0,0,0,0,0,0,0,0,0,0,0,
0,0,0,0,0,0,0,0,0,0,0,0,0,0,0,0,0,0,0,0,0,0,0,0,0,0,0,0,0,0,0,0,0,0,0,0,0,0,0,0,0,0,0,0,0,0,0,0,0,0,0,0,0,0,0,0,0,0,0,0,0,0,0,0,0,0,0,0,0,0,0,0,0,0,0,0,0,0,0,0,0,0,0,0,0,0,0,0,0,0,0,0,0,0,0,0,0,0,0,0,0,0,0,0,0,0,0,0,0,0,0,0,0,0,0,0,0,0,0,0,0,0,0,0,0,0,0,0,0,0,0,0,0,0,0,0,0,0,0,0,0,0,0,0,0,0,0,0,0,0,0,0,0,0,0,0,0,0,0,0,0,0,0,0,0,0,0,0,0,0,0,0,0,0,0,0,0,0,0,0,0,0,0,0,0,0,0,0,0,0,0,0,0,0,0,0,0,0,0,0,
0,0,0,0,0,0,0,0,0,0,0,0,0,0,0,0,0,0,0,0,0,0,0,0,0,0,0,0,0,0,0,0,0,0,0,0,0,0,0,0,0,0,0,0,0,0,0,0,0,0,0,0,0,0,0,0,0,0,0,0,0,0,0,0,0,0,0,0,0,0,0,0,0,0,0,0,0,0,0,0,0,0,0,0,0,0,0,0,0,0,0,0,0,0,0,0,0,0,0,0,0,0,0,0,0,0,0,0,0,0,0,0,0,0,0,0,0,0,0,0,0,0,0,0,0,0,0,0,0,0,0,0,0,0,0,0,0,0,0,0,0,0,0,0,0,0,0,0,0,0,0,0,0,0,0,0,0,0,0,0,0,0,0,0,0,0,0,0,0,0,0,0,0,0,0,0,0,0,0,0,0,0,0,0,0,0,0,0,0,0,0,0,0,0,0,0,0,0,0,0,
0,0,0,0,0,0,0,0,0,0,0,0,0,0,0,0,0,0,0,0,0,0,0,0,0,0,0,0,0,0,0,0,0,0,0,0,0,0,0,0,0,0,0,0,0,0,0,0,0,0,0,0,0,0,0,0,0,0,0,0,0,0,0,0,0,0,0,0,0,0,0,0,0,0,0,0,0,0,0,0,0,0,0,0,0,0,0,0,0,0,0,0,0,0,0,0,0,0,0,0,0,0,0,0,0,0,0,0,0,0,0,0,0,0,0,0,0,0,0,0,0,0,0,0,0,0,0,0,0,0,0,0,0,0,0,0,0,0,0,0,0,0,0,0,0,0,0,0,0,0,0,0,0,0,0,0,0,0,0,0,0,0,0,0,0,0,0,0,0,0,0,0,0,0,0,0,0,0,0,0,0,0,0,0,0,0,0,0,0,0,0,0,0,0,0,0,0,0,0,0,
0,0,0,0,0,0,0,0,0,0,0,0,0,0,0,0,0,0,0,0,0,0,0,0,0,0,0,0,0,0,0,0,0,0,0,0,0,0,0,0,0,0,0,0,0,0,0,0,0,0,0,0,0,0,0,0,0,0,0,0,0,0,0,0,0,0,0,0,0,0,0,0,0,0,0,0,0,0,0,0,0,0,0,0,0,0,0,0,0,0,0,0,0,0,0,0,0,0,0,0,0,0,0,0,0,0,0,0,0,0,0,0,0,0,0,0,0,0,0,0,0,0,0,0,0,0,0,0,0,0,0,0,0,0,0,0,0,0,0,0,0,0,0,0,0,0,0,0,0,0,0,0,0,0,0,0,0,0,0,0,0,0,0,0,0,0,0,0,0,0,0,0,0,0,0,0,0,0,0,0,0,0,0,0,0,0,0,0,0,0,0,0,0,0,0,0,0,0,0,0,
0,0,0,0,0,0,0,0,0,0,0,0,0,0,0,0,0,0,0,0,0,0,0,0,0,0,0,0,0,0,0,0,0,0,0,0,0,0,0,0,0,0,0,0,0,0,0,0,0,0,0,0,0,0,0,0,0,0,0,0,0,0,0,0,0,0,0,0,0,0,0,0,0,0,0,0,0,0,0,0,0,0,0,0,0,0,0,0,0,0,0,0,0,0,0,0,0,0,0,0,0,0,0,0,0,0,0,0,0,0,0,0,0,0,0,0,0,0,0,0,0,0,0,0,0,0,0,0,0,0,0,0,0,0,0,0,0,0,0,0,0,0,0,0,0,0,0,0,0,0,0,0,0,0,0,0,0,0,0,0,0,0,0,0,0,0,0,0,0,0,0,0,0,0,0,0,0,0,0,0,0,0,0,0,0,0,0,0,0,0,0,0,0,0,0,0,0,0,0,0,
0,0,0,0,0,0,0,0,0,0,0,0,0,0,0,0,0,0,0,0,0,0,0,0,0,0,0,0,0,0,0,0,0,0,0,0,0,0,0,0,0,0,0,0,0,0,0,0,0,0,0,0,0,0,0,0,0,0,0,0,0,0,0,0,0,0,0,0,0,0,0,0,0,0,0,0,0,0,0,0,0,0,0,0,0,0,0,0,0,0,0,0,0,0,0,0,0,0,0,0,0,0,0,0,0,0,0,0,0,0,0,0,0,0,0,0,0,0,0,0,0,0,0,0,0,0,0,0,0,0,0,0,0,0,0,0,0,0,0,0,0,0,0,0,0,0,0,0,0,0,0,0,0,0,0,0,0,0,0,0,0,0,0,0,0,0,0,0,0,0,0,0,0,0,0,0,0,0,0,0,0,0,0,0,0,0,0,0,0,0,0,0,0,0,0,0,0,0,0,0,
0,0,0,0,0,0,0,0,0,0,0,0,0,0,0,0,0,0,0,0,0,0,0,0,0,0,0,0,0,0,0,0,0,0,0,0,0,0,0,0,0,0,0,0,0,0,0,0,0,0,0,0,0,0,0,0,0,0,0,0,0,0,0,0,0,0,0,0,0,0,0,0,0,0,0,0,0,0,0,0,0,0,0,0,0,0,0,0,0,0,0,0,0,0,0,0,0,0,0,0,0,0,0,0,0,0,0,0,0,0,0,0,0,0,0,0,0,0,0,0,0,0,0,0,0,0,0,0,0,0,0,0,0,0,0,0,0,0,0,0,0,0,0,0,0,0,0,0,0,0,0,0,0,0,0,0,0,0,0,0,0,0,0,0,0,0,0,0,0,0,0,0,0,0,0,0,0,0,0,0,0,0,0,0,0,0,0,0,0,0,0,0,0,0,0,0,0,0,0,0,
0,0,0,0,0,0,0,0,0,0,0,0,0,0,0,0,0,0,0,0,0,0,0,0,0,0,0,0,0,0,0,0,0,0,0,0,0,0,0,0,0,0,0,0,0,0,0,0,0,0,0,0,0,0,0,0,0,0,0,0,0,0,0,0,0,0,0,0,0,0,0,0,0,0,0,0,0,0,0,0,0,0,0,0,0,0,0,0,0,0,0,0,0,0,0,0,0,0,0,0,0,0,0,0,0,0,0,0,0,0,0,0,0,0,0,0,0,0,0,0,0,0,0,0,0,0,0,0,0,0,0,0,0,0,0,0,0,0,0,0,0,0,0,0,0,0,0,0,0,0,0,0,0,0,0,0,0,0,0,0,0,0,0,0,0,0,0,0,0,0,0,0,0,0,0,0,0,0,0,0,0,0,0,0,0,0,0,0,0,0,0,0,0,0,0,0,0,0,0,0,
0,0,0,0,0,0,0,0,0,0,0,0,0,0,0,0,0,0,0,0,0,0,0,0,0,0,0,0,0,0,0,0,0,0,0,0,0,0,0,0,0,0,0,0,0,0,0,0,0,0,0,0,0,0,0,0,0,0,0,0,0,0,0,0,0,0,0,0,0,0,0,0,0,0,0,0,0,0,0,0,0,0,0,0,0,0,0,0,0,0,0,0,0,0,0,0,0,0,0,0,0,0,0,0,0,0,0,0,0,0,0,0,0,0,0,0,0,0,0,0,0,0,0,0,0,0,0,0,0,0,0,0,0,0,0,0,0,0,0,0,0,0,0,0,0,0,0,0,0,0,0,0,0,0,0,0,0,0,0,0,0,0,0,0,0,0,0,0,0,0,0,0,0,0,0,0,0,0,0,0,0,0,0,0,0,0,0,0,0,0,0,0,0,0,0,0,0,0,0,0,
0,0,0,0,0,0,0,0,0,0,0,0,0,0,0,0,0,0,0,0,0,0,0,0,0,0,0,0,0,0,0,0,0,0,0,0,0,0,0,0,0,0,0,0,0,0,0,0,0,0,0,0,0,0,0,0,0,0,0,0,0,0,0,0,0,0,0,0,0,0,0,0,0,0,0,0,0,0,0,0,0,0,0,0,0,0,0,0,0,0,0,0,0,0,0,0,0,0,0,0,0,0,0,0,0,0,0,0,0,0,0,0,0,0,0,0,0,0,0,0,0,0,0,0,0,0,0,0,0,0,0,0,0,0,0,0,0,0,0,0,0,0,0,0,0,0,0,0,0,0,0,0,0,0,0,0,0,0,0,0,0,0,0,0,0,0,0,0,0,0,0,0,0,0,0,0,0,0,0,0,0,0,0,0,0,0,0,0,0,0,0,0,0,0,0,0,0,0,0,0,
0,0,0,0,0,0,0,0,0,0,0,0,0,0,0,0,0,0,0,0,0,0,0,0,0,0,0,0,0,0,0,0,0,0,0,0,0,0,0,0,0,0,0,0,0,0,0,0,0,0,0,0,0,0,0,0,0,0,0,0,0,0,0,0,0,0,0,0,0,0,0,0,0,0,0,0,0,0,0,0,0,0,0,0,0,0,0,0,0,0,0,0,0,0,0,0,0,0,0,0,0,0,0,0,0,0,0,0,0,0,0,0,0,0,0,0,0,0,0,0,0,0,0,0,0,0,0,0,0,0,0,0,0,0,0,0,0,0,0,0,0,0,0,0,0,0,0,0,0,0,0,0,0,0,0,0,0,0,0,0,0,0,0,0,0,0,0,0,0,0,0,0,0,0,0,0,0,0,0,0,0,0,0,0,0,0,0,0,0,0,0,0,0,0,0,0,0,0,0,0,
0,0,0,0,0,0,0,0,0,0,0,0,0,0,0,0,0,0,0,0,0,0,0,0,0,0,0,0,0,0,0,0,0,0,0,0,0,0,0,0,0,0,0,0,0,0,0,0,0,0,0,0,0,0,0,0,0,0,0,0,0,0,0,0,0,0,0,0,0,0,0,0,0,0,0,0,0,0,0,0,0,0,0,0,0,0,0,0,0,0,0,0,0,0,0,0,0,0,0,0,0,0,0,0,0,0,0,0,0,0,0,0,0,0,0,0,0,0,0,0,0,0,0,0,0,0,0,0,0,0,0,0,0,0,0,0,0,0,0,0,0,0,0,0,0,0,0,0,0,0,0,0,0,0,0,0,0,0,0,0,0,0,0,0,0,0,0,0,0,0,0,0,0,0,0,0,0,0,0,0,0,0,0,0,0,0,0,0,0,0,0,0,0,0,0,0,0,0,0,0,
0,0,0,0,0,0,0,0,0,0,0,0,0,0,0,0,0,0,0,0,0,0,0,0,0,0,0,0,0,0,0,0,0,0,0,0,0,0,0,0,0,0,0,0,0,0,0,0,0,0,0,0,0,0,0,0,0,0,0,0,0,0,0,0,0,0,0,0,0,0,0,0,0,0,0,0,0,0,0,0,0,0,0,0,0,0,0,0,0,0,0,0,0,0,0,0,0,0,0,0,0,0,0,0,0,0,0,0,0,0,0,0,0,0,0,0,0,0,0,0,0,0,0,0,0,0,0,0,0,0,0,0,0,0,0,0,0,0,0,0,0,0,0,0,0,0,0,0,0,0,0,0,0,0,0,0,0,0,0,0,0,0,0,0,0,0,0,0,0,0,0,0,0,0,0,0,0,0,0,0,0,0,0,0,0,0,0,0,0,0,0,0,0,0,0,0,0,0,0,0
</data>
 </layer>
 <objectgroup id="4" name="walls">
  <object id="1" x="1426" y="977.167" width="276.833" height="17"/>
  <object id="2" x="1753.08" y="977" width="397.583" height="17"/>
  <object id="3" x="2201" y="683.833" width="6.25" height="387.167"/>
 </objectgroup>
</map>
